; Generated with MatterSlice 1.0
; filamentDiameter = 1.75
; extrusionWidth = 0.4
; firstLayerExtrusionWidth = 0.4
; layerThickness = 0.2
; firstLayerThickness = 0.3
; automatic settings before start_gcode
G21 ; set units to millimeters
M107 ; fan off
M190 S60 ; wait for bed temperature to be reached
M104 T0 S210 ; start heating extruder 1
T0 ; set the active extruder to 0
; settings from start_gcode
G28 ; home all axes
G1 Z5 F5000 ; lift nozzle
; automatic settings after start_gcode
M109 T0 S210 ; wait for extruder 1 to reach temperature
T0 ; set the active extruder to 0
G90 ; use absolute coordinates
G92 E0 ; reset the expected extruder position
M82 ; use absolute distance for extrusion
; Layer count: 16
; RAFT BASE
; Layer Change GCode
; LAYER:-3
G0 F7800 X81.7 Y84.1 Z0.3
; TYPE:SUPPORT
G1 F1800 E0
G1 F1080 X118.3 Y84.1 E5.47794
G1 X118.3 Y115.9 E10.23747
G1 X81.7 Y115.9 E15.71541
G1 X81.7 Y84.1 E20.47494
G0 F7800 X89.5 Y91.9
G1 F1080 X110.5 Y91.9 E23.61802
G1 X110.5 Y108.1 E26.04269
G1 X89.5 Y108.1 E29.18577
G1 X89.5 Y91.9 E31.61043
G0 F7800 X90.64 Y94.4
G1 F1080 X109.36 Y94.4 E34.41227
G0 F7800 X109.36 Y96
G1 F1080 X90.64 Y96 E37.2141
G0 F7800 X90.64 Y97.6
G1 F1080 X109.36 Y97.6 E40.01593
G0 F7800 X109.36 Y99.2
G1 F1080 X90.64 Y99.2 E42.81777
G0 F7800 X90.64 Y100.8
G1 F1080 X109.36 Y100.8 E45.6196
G0 F7800 X109.36 Y102.4
G1 F1080 X90.64 Y102.4 E48.42144
G0 F7800 X90.64 Y104
G1 F1080 X109.36 Y104 E51.22327
G0 F7800 X109.36 Y105.6
G1 F1080 X90.64 Y105.6 E54.0251
M400
M106 S255
; RAFT MIDDLE
; Layer Change GCode
; LAYER:-2
G0 F7800 X89.439 Y104.996 Z0.55
; TYPE:SUPPORT
G1 F3600 X92.603 Y108.159 E54.18785
G0 F7800 X91.189 Y108.159
G1 F3600 X89.439 Y106.41 E54.27786
G0 F7800 X89.439 Y107.824
G1 F3600 X89.774 Y108.159 E54.29509
G0 F7800 X94.017 Y108.159
G1 F3600 X89.439 Y103.581 E54.53062
G0 F7800 X89.439 Y102.167
G1 F3600 X95.431 Y108.159 E54.83889
G0 F7800 X96.846 Y108.159
G1 F3600 X89.439 Y100.753 E55.21993
G0 F7800 X89.439 Y99.339
G1 F3600 X98.26 Y108.159 E55.67371
G0 F7800 X99.674 Y108.159
G1 F3600 X89.439 Y97.925 E56.20024
G0 F7800 X89.439 Y96.51
G1 F3600 X101.088 Y108.159 E56.79954
G0 F7800 X102.502 Y108.159
G1 F3600 X89.439 Y95.096 E57.47159
G0 F7800 X89.439 Y93.682
G1 F3600 X103.917 Y108.159 E58.21641
G0 F7800 X105.331 Y108.159
G1 F3600 X89.439 Y92.268 E59.03397
G0 F7800 X90.425 Y91.839
G1 F3600 X106.745 Y108.159 E59.87358
G0 F7800 X108.159 Y108.159
G1 F3600 X91.839 Y91.839 E60.71319
G0 F7800 X93.253 Y91.839
G1 F3600 X109.573 Y108.159 E61.5528
G0 F7800 X110.559 Y107.731
G1 F3600 X94.668 Y91.839 E62.37037
G0 F7800 X96.082 Y91.839
G1 F3600 X110.559 Y106.317 E63.11518
G0 F7800 X110.559 Y104.902
G1 F3600 X97.496 Y91.839 E63.78723
G0 F7800 X98.91 Y91.839
G1 F3600 X110.559 Y103.488 E64.38653
G0 F7800 X110.559 Y102.074
G1 F3600 X100.325 Y91.839 E64.91307
G0 F7800 X101.739 Y91.839
G1 F3600 X110.559 Y100.66 E65.36685
G0 F7800 X110.559 Y99.245
G1 F3600 X103.153 Y91.839 E65.74786
G0 F7800 X104.567 Y91.839
G1 F3600 X110.559 Y97.831 E66.05613
G0 F7800 X110.559 Y96.417
G1 F3600 X105.981 Y91.839 E66.29166
G0 F7800 X107.396 Y91.839
G1 F3600 X110.559 Y95.003 E66.45441
G0 F7800 X110.559 Y93.589
G1 F3600 X108.81 Y91.839 E66.54441
G0 F7800 X110.224 Y91.839
G1 F3600 X110.559 Y92.174 E66.56165
; RAFT SURFACE
; Layer Change GCode
; LAYER:-1
G0 F7800 X110.4 Y91.839 Z0.8
; TYPE:SUPPORT
G1 F3600 X110.4 Y108.159 E67.24015
G0 F7800 X110 Y108.159
G1 F3600 X110 Y91.839 E67.91866
G0 F7800 X109.6 Y91.839
G1 F3600 X109.6 Y108.159 E68.59717
G0 F7800 X109.2 Y108.159
G1 F3600 X109.2 Y91.839 E69.27567
G0 F7800 X108.8 Y91.839
G1 F3600 X108.8 Y108.159 E69.95418
G0 F7800 X108.4 Y108.159
G1 F3600 X108.4 Y91.839 E70.63269
G0 F7800 X108 Y91.839
G1 F3600 X108 Y108.159 E71.31119
G0 F7800 X107.6 Y108.159
G1 F3600 X107.6 Y91.839 E71.9897
G0 F7800 X107.2 Y91.839
G1 F3600 X107.2 Y108.159 E72.66821
G0 F7800 X106.8 Y108.159
G1 F3600 X106.8 Y91.839 E73.34671
G0 F7800 X106.4 Y91.839
G1 F3600 X106.4 Y108.159 E74.02522
G0 F7800 X106 Y108.159
G1 F3600 X106 Y91.839 E74.70373
G0 F7800 X105.6 Y91.839
G1 F3600 X105.6 Y108.159 E75.38223
G0 F7800 X105.2 Y108.159
G1 F3600 X105.2 Y91.839 E76.06074
G0 F7800 X104.8 Y91.839
G1 F3600 X104.8 Y108.159 E76.73925
G0 F7800 X104.4 Y108.159
G1 F3600 X104.4 Y91.839 E77.41776
G0 F7800 X104 Y91.839
G1 F3600 X104 Y108.159 E78.09626
G0 F7800 X103.6 Y108.159
G1 F3600 X103.6 Y91.839 E78.77477
G0 F7800 X103.2 Y91.839
G1 F3600 X103.2 Y108.159 E79.45328
G0 F7800 X102.8 Y108.159
G1 F3600 X102.8 Y91.839 E80.13178
G0 F7800 X102.4 Y91.839
G1 F3600 X102.4 Y108.159 E80.81029
G0 F7800 X102 Y108.159
G1 F3600 X102 Y91.839 E81.4888
G0 F7800 X101.6 Y91.839
G1 F3600 X101.6 Y108.159 E82.1673
G0 F7800 X101.2 Y108.159
G1 F3600 X101.2 Y91.839 E82.84581
G0 F7800 X100.8 Y91.839
G1 F3600 X100.8 Y108.159 E83.52432
G0 F7800 X100.4 Y108.159
G1 F3600 X100.4 Y91.839 E84.20282
G0 F7800 X100 Y91.839
G1 F3600 X100 Y108.159 E84.88133
G0 F7800 X99.6 Y108.159
G1 F3600 X99.6 Y91.839 E85.55984
G0 F7800 X99.2 Y91.839
G1 F3600 X99.2 Y108.159 E86.23834
G0 F7800 X98.8 Y108.159
G1 F3600 X98.8 Y91.839 E86.91685
G0 F7800 X98.4 Y91.839
G1 F3600 X98.4 Y108.159 E87.59536
G0 F7800 X98 Y108.159
G1 F3600 X98 Y91.839 E88.27386
G0 F7800 X97.6 Y91.839
G1 F3600 X97.6 Y108.159 E88.95237
G0 F7800 X97.2 Y108.159
G1 F3600 X97.2 Y91.839 E89.63088
G0 F7800 X96.8 Y91.839
G1 F3600 X96.8 Y108.159 E90.30938
G0 F7800 X96.4 Y108.159
G1 F3600 X96.4 Y91.839 E90.98789
G0 F7800 X96 Y91.839
G1 F3600 X96 Y108.159 E91.6664
G0 F7800 X95.6 Y108.159
G1 F3600 X95.6 Y91.839 E92.3449
G0 F7800 X95.2 Y91.839
G1 F3600 X95.2 Y108.159 E93.02341
G0 F7800 X94.8 Y108.159
G1 F3600 X94.8 Y91.839 E93.70192
G0 F7800 X94.4 Y91.839
G1 F3600 X94.4 Y108.159 E94.38042
G0 F7800 X94 Y108.159
G1 F3600 X94 Y91.839 E95.05893
G0 F7800 X93.6 Y91.839
G1 F3600 X93.6 Y108.159 E95.73744
G0 F7800 X93.2 Y108.159
G1 F3600 X93.2 Y91.839 E96.41594
G0 F7800 X92.8 Y91.839
G1 F3600 X92.8 Y108.159 E97.09445
G0 F7800 X92.4 Y108.159
G1 F3600 X92.4 Y91.839 E97.77296
G0 F7800 X92 Y91.839
G1 F3600 X92 Y108.159 E98.45146
G0 F7800 X91.6 Y108.159
G1 F3600 X91.6 Y91.839 E99.12997
G0 F7800 X91.2 Y91.839
G1 F3600 X91.2 Y108.159 E99.80848
G0 F7800 X90.8 Y108.159
G1 F3600 X90.8 Y91.839 E100.48698
G0 F7800 X90.4 Y91.839
G1 F3600 X90.4 Y108.159 E101.16549
G0 F7800 X90 Y108.159
G1 F3600 X90 Y91.839 E101.844
G0 F7800 X89.6 Y91.839
G1 F3600 X89.6 Y108.159 E102.52251
; RAFT SURFACE
; Layer Change GCode
; LAYER:-1
G0 F7800 X89.83 Y108.159 Z1.05
; TYPE:SUPPORT
G1 F3600 X106.15 Y91.839 E103.48206
G0 F7800 X106.715 Y91.839
G1 F3600 X90.395 Y108.159 E104.44161
G0 F7800 X90.961 Y108.159
G1 F3600 X107.281 Y91.839 E105.40117
G0 F7800 X107.847 Y91.839
G1 F3600 X91.527 Y108.159 E106.36072
G0 F7800 X92.092 Y108.159
G1 F3600 X108.412 Y91.839 E107.32027
G0 F7800 X108.978 Y91.839
G1 F3600 X92.658 Y108.159 E108.27983
G0 F7800 X93.224 Y108.159
G1 F3600 X109.544 Y91.839 E109.23938
G0 F7800 X110.109 Y91.839
G1 F3600 X93.789 Y108.159 E110.19893
G0 F7800 X94.355 Y108.159
G1 F3600 X110.559 Y91.955 E111.15167
G0 F7800 X110.559 Y92.521
G1 F3600 X94.921 Y108.159 E112.07112
G0 F7800 X95.486 Y108.159
G1 F3600 X110.559 Y93.087 E112.95733
G0 F7800 X110.559 Y93.652
G1 F3600 X96.052 Y108.159 E113.81028
G0 F7800 X96.618 Y108.159
G1 F3600 X110.559 Y94.218 E114.62996
G0 F7800 X110.559 Y94.784
G1 F3600 X97.184 Y108.159 E115.41636
G0 F7800 X97.749 Y108.159
G1 F3600 X110.559 Y95.349 E116.16954
G0 F7800 X110.559 Y95.915
G1 F3600 X98.315 Y108.159 E116.88944
G0 F7800 X98.881 Y108.159
G1 F3600 X110.559 Y96.481 E117.57606
G0 F7800 X110.559 Y97.046
G1 F3600 X99.446 Y108.159 E118.22946
G0 F7800 X100.012 Y108.159
G1 F3600 X110.559 Y97.612 E118.84958
G0 F7800 X110.559 Y98.178
G1 F3600 X100.578 Y108.159 E119.43643
G0 F7800 X101.143 Y108.159
G1 F3600 X110.559 Y98.743 E119.99005
G0 F7800 X110.559 Y99.309
G1 F3600 X101.709 Y108.159 E120.5104
G0 F7800 X102.275 Y108.159
G1 F3600 X110.559 Y99.875 E120.99747
G0 F7800 X110.559 Y100.44
G1 F3600 X102.84 Y108.159 E121.45131
G0 F7800 X103.406 Y108.159
G1 F3600 X110.559 Y101.006 E121.87188
G0 F7800 X110.559 Y101.572
G1 F3600 X103.972 Y108.159 E122.25917
G0 F7800 X104.537 Y108.159
G1 F3600 X110.559 Y102.138 E122.61321
G0 F7800 X110.559 Y102.703
G1 F3600 X105.103 Y108.159 E122.93401
G0 F7800 X105.669 Y108.159
G1 F3600 X110.559 Y103.269 E123.22152
G0 F7800 X110.559 Y103.835
G1 F3600 X106.235 Y108.159 E123.47575
G0 F7800 X106.8 Y108.159
G1 F3600 X110.559 Y104.4 E123.69677
G0 F7800 X110.559 Y104.966
G1 F3600 X107.366 Y108.159 E123.88451
G0 F7800 X107.932 Y108.159
G1 F3600 X110.559 Y105.532 E124.03896
G0 F7800 X110.559 Y106.097
G1 F3600 X108.497 Y108.159 E124.1602
G0 F7800 X109.063 Y108.159
G1 F3600 X110.559 Y106.663 E124.24816
G0 F7800 X110.559 Y107.229
G1 F3600 X109.629 Y108.159 E124.30284
G0 F7800 X110.194 Y108.159
G1 F3600 X110.559 Y107.794 E124.3243
G0 F7800 X105.584 Y91.839
G1 F3600 X89.439 Y107.984 E125.27356
G0 F7800 X89.439 Y107.418
G1 F3600 X105.018 Y91.839 E126.18955
G0 F7800 X104.453 Y91.839
G1 F3600 X89.439 Y106.853 E127.07232
G0 F7800 X89.439 Y106.287
G1 F3600 X103.887 Y91.839 E127.9218
G0 F7800 X103.321 Y91.839
G1 F3600 X89.439 Y105.721 E128.73801
G0 F7800 X89.439 Y105.155
G1 F3600 X102.756 Y91.839 E129.52097
G0 F7800 X102.19 Y91.839
G1 F3600 X89.439 Y104.59 E130.27068
G0 F7800 X89.439 Y104.024
G1 F3600 X101.624 Y91.839 E130.98711
G0 F7800 X101.058 Y91.839
G1 F3600 X89.439 Y103.458 E131.67026
G0 F7800 X89.439 Y102.893
G1 F3600 X100.493 Y91.839 E132.3202
G0 F7800 X99.927 Y91.839
G1 F3600 X89.439 Y102.327 E132.93685
G0 F7800 X89.439 Y101.761
G1 F3600 X99.361 Y91.839 E133.52023
G0 F7800 X98.796 Y91.839
G1 F3600 X89.439 Y101.196 E134.07038
G0 F7800 X89.439 Y100.63
G1 F3600 X98.23 Y91.839 E134.58726
G0 F7800 X97.664 Y91.839
G1 F3600 X89.439 Y100.064 E135.07086
G0 F7800 X89.439 Y99.499
G1 F3600 X97.099 Y91.839 E135.52124
G0 F7800 X96.533 Y91.839
G1 F3600 X89.439 Y98.933 E135.93834
G0 F7800 X89.439 Y98.367
G1 F3600 X95.967 Y91.839 E136.32216
G0 F7800 X95.402 Y91.839
G1 F3600 X89.439 Y97.802 E136.67276
G0 F7800 X89.439 Y97.236
G1 F3600 X94.836 Y91.839 E136.99008
G0 F7800 X94.27 Y91.839
G1 F3600 X89.439 Y96.67 E137.27413
G0 F7800 X89.439 Y96.105
G1 F3600 X93.705 Y91.839 E137.52495
G0 F7800 X93.139 Y91.839
G1 F3600 X89.439 Y95.539 E137.7425
G0 F7800 X89.439 Y94.973
G1 F3600 X92.573 Y91.839 E137.92676
G0 F7800 X92.008 Y91.839
G1 F3600 X89.439 Y94.407 E138.07778
G0 F7800 X89.439 Y93.842
G1 F3600 X91.442 Y91.839 E138.19555
G0 F7800 X90.876 Y91.839
G1 F3600 X89.439 Y93.276 E138.28004
G0 F7800 X89.439 Y92.71
G1 F3600 X90.31 Y91.839 E138.33125
G0 F7800 X89.745 Y91.839
G1 F3600 X89.439 Y92.145 E138.34924
; Layer Change GCode
; LAYER:0
M400
M107
G1 F1800 E137.34924
G0 F7800 X89.439 Y92.145 Z1.5
G0 X91.7 Y94.1
G0 X93.3 Y96.9
G0 X94.5 Y96.9
G0 X95.1 Y97.5
G0 X95.1 Y102.5
G0 X94.7 Y102.9
; TYPE:WALL-OUTER
G1 F1800 E138.34924
G1 F594 X94.7 Y97.1 E138.59038
G1 X105.3 Y97.1 E139.03108
G1 X105.3 Y102.9 E139.27221
G1 X94.7 Y102.9 E139.71291
G0 F7800 X95.1 Y102.5
; TYPE:WALL-INNER
G1 F594 X95.1 Y97.5 E139.92079
G1 X104.9 Y97.5 E140.32822
G1 X104.9 Y102.5 E140.5361
G1 X95.1 Y102.5 E140.94353
G0 F7800 X95.5 Y102.1
G1 F594 X95.5 Y97.9 E141.11815
G1 X104.5 Y97.9 E141.49233
G1 X104.5 Y102.1 E141.66694
G1 X95.5 Y102.1 E142.04112
G0 F7800 X96.102 Y101.759
; TYPE:BOTTOM-FILL
G1 F594 X95.839 Y101.496 E142.05658
G0 F7800 X95.839 Y100.931
G1 F594 X96.668 Y101.759 E142.1053
G0 F7800 X97.234 Y101.759
G1 F594 X95.839 Y100.365 E142.18729
G0 F7800 X95.839 Y99.799
G1 F594 X97.799 Y101.759 E142.30253
G0 F7800 X98.365 Y101.759
G1 F594 X95.839 Y99.233 E142.45105
G0 F7800 X95.839 Y98.668
G1 F594 X98.931 Y101.759 E142.63281
G0 F7800 X99.496 Y101.759
G1 F594 X95.977 Y98.239 E142.83975
G0 F7800 X96.542 Y98.239
G1 F594 X100.062 Y101.759 E143.04671
G0 F7800 X100.628 Y101.759
G1 F594 X97.108 Y98.239 E143.25367
G0 F7800 X97.674 Y98.239
G1 F594 X101.194 Y101.759 E143.46064
G0 F7800 X101.759 Y101.759
G1 F594 X98.239 Y98.239 E143.6676
G0 F7800 X98.805 Y98.239
G1 F594 X102.325 Y101.759 E143.87456
G0 F7800 X102.891 Y101.759
G1 F594 X99.371 Y98.239 E144.08152
G0 F7800 X99.936 Y98.239
G1 F594 X103.456 Y101.759 E144.28849
G0 F7800 X104.022 Y101.759
G1 F594 X100.502 Y98.239 E144.49545
G0 F7800 X101.068 Y98.239
G1 F594 X104.159 Y101.331 E144.67722
G0 F7800 X104.159 Y100.765
G1 F594 X101.633 Y98.239 E144.82574
G0 F7800 X102.199 Y98.239
G1 F594 X104.159 Y100.199 E144.94098
G0 F7800 X104.159 Y99.634
G1 F594 X102.765 Y98.239 E145.02297
G0 F7800 X103.33 Y98.239
G1 F594 X104.159 Y99.068 E145.07171
G0 F7800 X104.159 Y98.502
G1 F594 X103.896 Y98.239 E145.08717
; Layer Change GCode
; LAYER:1
M400
M106 S89
G0 F7800 X95.1 Y102.5
G0 X94.7 Y102.9
G0 X95.1 Y102.5
G0 X95.5 Y102.1
; TYPE:WALL-INNER
G1 F846 X95.5 Y97.9 E145.22686
G1 X104.5 Y97.9 E145.52621
G1 X104.5 Y102.1 E145.6659
G1 X95.5 Y102.1 E145.96524
G0 F7800 X95.1 Y102.5
G1 F846 X95.1 Y97.5 E146.13154
G1 X104.9 Y97.5 E146.45749
G1 X104.9 Y102.5 E146.62379
G1 X95.1 Y102.5 E146.94974
G0 F7800 X94.7 Y102.9
; TYPE:WALL-OUTER
G1 F592.2 X94.7 Y97.1 E147.14265
G1 X105.3 Y97.1 E147.49521
G1 X105.3 Y102.9 E147.68811
G1 X94.7 Y102.9 E148.04067
G0 F7800 X95.1 Y102.5
G0 X95.839 Y101.584
; TYPE:FILL
G1 F1692 X99.184 Y98.239 E148.19801
G0 F7800 X99.75 Y98.239
G1 F1692 X96.23 Y101.759 E148.36358
G0 F7800 X96.795 Y101.759
G1 F1692 X100.315 Y98.239 E148.52915
G0 F7800 X100.881 Y98.239
G1 F1692 X97.361 Y101.759 E148.69472
G0 F7800 X97.927 Y101.759
G1 F1692 X101.447 Y98.239 E148.86029
G0 F7800 X102.012 Y98.239
G1 F1692 X98.492 Y101.759 E149.02586
G0 F7800 X99.058 Y101.759
G1 F1692 X102.578 Y98.239 E149.19143
G0 F7800 X103.144 Y98.239
G1 F1692 X99.624 Y101.759 E149.357
G0 F7800 X100.189 Y101.759
G1 F1692 X103.709 Y98.239 E149.52257
G0 F7800 X104.159 Y98.355
G1 F1692 X100.755 Y101.759 E149.68268
G0 F7800 X101.321 Y101.759
G1 F1692 X104.159 Y98.921 E149.81618
G0 F7800 X104.159 Y99.487
G1 F1692 X101.887 Y101.759 E149.92304
G0 F7800 X102.452 Y101.759
G1 F1692 X104.159 Y100.052 E150.00334
G0 F7800 X104.159 Y100.618
G1 F1692 X103.018 Y101.759 E150.057
G0 F7800 X103.584 Y101.759
G1 F1692 X104.159 Y101.184 E150.08405
G0 F7800 X104.159 Y101.749
G1 F1692 X104.149 Y101.759 E150.08452
G0 F7800 X98.618 Y98.239
G1 F1692 X95.839 Y101.018 E150.21524
G0 F7800 X95.839 Y100.453
G1 F1692 X98.053 Y98.239 E150.31938
G0 F7800 X97.487 Y98.239
G1 F1692 X95.839 Y99.887 E150.39689
G0 F7800 X95.839 Y99.321
G1 F1692 X96.921 Y98.239 E150.44779
G0 F7800 X96.356 Y98.239
G1 F1692 X95.839 Y98.755 E150.47208
; Layer Change GCode
; LAYER:2
G0 F7800 X95.839 Y98.755 Z1.7
G0 X95.1 Y102.5
G0 X94.7 Y102.9
G0 X95.1 Y102.5
G0 X95.5 Y102.1
; TYPE:WALL-INNER
G1 F846 X95.5 Y97.9 E150.61177
G1 X104.5 Y97.9 E150.91112
G1 X104.5 Y102.1 E151.05081
G1 X95.5 Y102.1 E151.35015
G0 F7800 X95.1 Y102.5
G1 F846 X95.1 Y97.5 E151.51645
G1 X104.9 Y97.5 E151.8424
G1 X104.9 Y102.5 E152.0087
G1 X95.1 Y102.5 E152.33465
G0 F7800 X94.7 Y102.9
; TYPE:WALL-OUTER
G1 F592.2 X94.7 Y97.1 E152.52756
G1 X105.3 Y97.1 E152.88012
G1 X105.3 Y102.9 E153.07302
G1 X94.7 Y102.9 E153.42558
G0 F7800 X95.1 Y102.5
G0 X96.102 Y101.759
; TYPE:FILL
G1 F1692 X95.839 Y101.496 E153.43795
G0 F7800 X95.839 Y100.931
G1 F1692 X96.668 Y101.759 E153.47692
G0 F7800 X97.234 Y101.759
G1 F1692 X95.839 Y100.365 E153.54252
G0 F7800 X95.839 Y99.799
G1 F1692 X97.799 Y101.759 E153.63471
G0 F7800 X98.365 Y101.759
G1 F1692 X95.839 Y99.233 E153.75352
G0 F7800 X95.839 Y98.668
G1 F1692 X98.931 Y101.759 E153.89894
G0 F7800 X99.496 Y101.759
G1 F1692 X95.977 Y98.239 E154.06448
G0 F7800 X96.542 Y98.239
G1 F1692 X100.062 Y101.759 E154.23005
G0 F7800 X100.628 Y101.759
G1 F1692 X97.108 Y98.239 E154.39562
G0 F7800 X97.674 Y98.239
G1 F1692 X101.194 Y101.759 E154.56119
G0 F7800 X101.759 Y101.759
G1 F1692 X98.239 Y98.239 E154.72676
G0 F7800 X98.805 Y98.239
G1 F1692 X102.325 Y101.759 E154.89233
G0 F7800 X102.891 Y101.759
G1 F1692 X99.371 Y98.239 E155.0579
G0 F7800 X99.936 Y98.239
G1 F1692 X103.456 Y101.759 E155.22347
G0 F7800 X104.022 Y101.759
G1 F1692 X100.502 Y98.239 E155.38904
G0 F7800 X101.068 Y98.239
G1 F1692 X104.159 Y101.331 E155.53446
G0 F7800 X104.159 Y100.765
G1 F1692 X101.633 Y98.239 E155.65327
G0 F7800 X102.199 Y98.239
G1 F1692 X104.159 Y100.199 E155.74547
G0 F7800 X104.159 Y99.634
G1 F1692 X102.765 Y98.239 E155.81106
G0 F7800 X103.33 Y98.239
G1 F1692 X104.159 Y99.068 E155.85005
G0 F7800 X104.159 Y98.502
G1 F1692 X103.896 Y98.239 E155.86242
; Layer Change GCode
; LAYER:3
G0 F7800 X103.896 Y98.239 Z1.9
G0 X95.1 Y102.5
G0 X94.7 Y102.9
G0 X95.1 Y102.5
G0 X95.5 Y102.1
; TYPE:WALL-INNER
G1 F846 X95.5 Y97.9 E156.00212
G1 X104.5 Y97.9 E156.30146
G1 X104.5 Y102.1 E156.44115
G1 X95.5 Y102.1 E156.74049
G0 F7800 X95.1 Y102.5
G1 F846 X95.1 Y97.5 E156.90679
G1 X104.9 Y97.5 E157.23274
G1 X104.9 Y102.5 E157.39904
G1 X95.1 Y102.5 E157.72499
G0 F7800 X94.7 Y102.9
; TYPE:WALL-OUTER
G1 F592.2 X94.7 Y97.1 E157.9179
G1 X105.3 Y97.1 E158.27046
G1 X105.3 Y102.9 E158.46337
G1 X94.7 Y102.9 E158.81592
G0 F7800 X95.1 Y102.5
G0 X95.839 Y101.584
; TYPE:FILL
G1 F1692 X99.184 Y98.239 E158.97326
G0 F7800 X99.75 Y98.239
G1 F1692 X96.23 Y101.759 E159.13883
G0 F7800 X96.795 Y101.759
G1 F1692 X100.315 Y98.239 E159.3044
G0 F7800 X100.881 Y98.239
G1 F1692 X97.361 Y101.759 E159.46997
G0 F7800 X97.927 Y101.759
G1 F1692 X101.447 Y98.239 E159.63554
G0 F7800 X102.012 Y98.239
G1 F1692 X98.492 Y101.759 E159.80111
G0 F7800 X99.058 Y101.759
G1 F1692 X102.578 Y98.239 E159.96668
G0 F7800 X103.144 Y98.239
G1 F1692 X99.624 Y101.759 E160.13225
G0 F7800 X100.189 Y101.759
G1 F1692 X103.709 Y98.239 E160.29782
G0 F7800 X104.159 Y98.355
G1 F1692 X100.755 Y101.759 E160.45794
G0 F7800 X101.321 Y101.759
G1 F1692 X104.159 Y98.921 E160.59143
G0 F7800 X104.159 Y99.487
G1 F1692 X101.887 Y101.759 E160.6983
G0 F7800 X102.452 Y101.759
G1 F1692 X104.159 Y100.052 E160.77859
G0 F7800 X104.159 Y100.618
G1 F1692 X103.018 Y101.759 E160.83226
G0 F7800 X103.584 Y101.759
G1 F1692 X104.159 Y101.184 E160.8593
G0 F7800 X104.159 Y101.749
G1 F1692 X104.149 Y101.759 E160.85977
G0 F7800 X98.618 Y98.239
G1 F1692 X95.839 Y101.018 E160.99049
G0 F7800 X95.839 Y100.453
G1 F1692 X98.053 Y98.239 E161.09463
G0 F7800 X97.487 Y98.239
G1 F1692 X95.839 Y99.887 E161.17215
G0 F7800 X95.839 Y99.321
G1 F1692 X96.921 Y98.239 E161.22304
G0 F7800 X96.356 Y98.239
G1 F1692 X95.839 Y98.755 E161.24733
; Layer Change GCode
; LAYER:4
G0 F7800 X95.839 Y98.755 Z2.1
G0 X95.1 Y102.5
G0 X94.7 Y102.9
G0 X95.1 Y102.5
G0 X95.5 Y102.1
; TYPE:WALL-INNER
G1 F846 X95.5 Y97.9 E161.38703
G1 X104.5 Y97.9 E161.68637
G1 X104.5 Y102.1 E161.82606
G1 X95.5 Y102.1 E162.1254
G0 F7800 X95.1 Y102.5
G1 F846 X95.1 Y97.5 E162.2917
G1 X104.9 Y97.5 E162.61765
G1 X104.9 Y102.5 E162.78395
G1 X95.1 Y102.5 E163.1099
G0 F7800 X94.7 Y102.9
; TYPE:WALL-OUTER
G1 F592.2 X94.7 Y97.1 E163.30281
G1 X105.3 Y97.1 E163.65537
G1 X105.3 Y102.9 E163.84828
G1 X94.7 Y102.9 E164.20083
G0 F7800 X95.1 Y102.5
G0 X96.102 Y101.759
; TYPE:FILL
G1 F1692 X95.839 Y101.496 E164.2132
G0 F7800 X95.839 Y100.931
G1 F1692 X96.668 Y101.759 E164.25218
G0 F7800 X97.234 Y101.759
G1 F1692 X95.839 Y100.365 E164.31777
G0 F7800 X95.839 Y99.799
G1 F1692 X97.799 Y101.759 E164.40996
G0 F7800 X98.239 Y101.633
G1 F1692 X95.839 Y99.233 E164.52285
G0 F7800 X95.839 Y98.668
G1 F1692 X98.239 Y101.068 E164.63574
G0 F7800 X98.239 Y100.502
G1 F1692 X95.977 Y98.239 E164.74216
G0 F7800 X96.542 Y98.239
G1 F1692 X98.239 Y99.936 E164.82198
G0 F7800 X98.239 Y99.371
G1 F1692 X97.108 Y98.239 E164.8752
G0 F7800 X97.674 Y98.239
G1 F1692 X98.239 Y98.805 E164.9018
G0 F7800 X103.279 Y98.753
G1 F1692 X104.159 Y99.634 E164.94322
G0 F7800 X104.159 Y100.199
G1 F1692 X103.279 Y99.319 E164.98461
G0 F7800 X103.279 Y99.885
G1 F1692 X104.159 Y100.765 E165.026
G0 F7800 X104.159 Y101.331
G1 F1692 X103.279 Y100.45 E165.06742
G0 F7800 X103.279 Y101.016
G1 F1692 X104.022 Y101.759 E165.10237
G0 F7800 X103.457 Y101.76
G1 F1692 X103.279 Y101.582 E165.11074
G0 F7800 X104.159 Y99.068
G1 F1692 X103.331 Y98.24 E165.14969
G0 F7800 X103.896 Y98.239
G1 F1692 X104.159 Y98.502 E165.16206
G0 F7800 X103.279 Y98.753
; TYPE:TOP-FILL
G1 F1410 X102.765 Y98.24 E165.18621
G0 F7800 X102.2 Y98.24
G1 F1410 X103.279 Y99.319 E165.23696
G0 F7800 X103.279 Y99.885
G1 F1410 X101.634 Y98.24 E165.31434
G0 F7800 X101.068 Y98.24
G1 F1410 X103.279 Y100.45 E165.41831
G0 F7800 X103.279 Y101.016
G1 F1410 X100.502 Y98.239 E165.54894
G0 F7800 X99.936 Y98.239
G1 F1410 X103.279 Y101.582 E165.70618
G0 F7800 X102.891 Y101.76
G1 F1410 X99.371 Y98.239 E165.87177
G0 F7800 X98.805 Y98.239
G1 F1410 X102.326 Y101.76 E166.03739
G0 F7800 X101.76 Y101.76
G1 F1410 X98.239 Y98.239 E166.20301
G0 F7800 X98.239 Y98.805
G1 F1410 X101.194 Y101.76 E166.342
G0 F7800 X100.628 Y101.759
G1 F1410 X98.239 Y99.371 E166.45435
G0 F7800 X98.239 Y99.936
G1 F1410 X100.062 Y101.759 E166.5401
G0 F7800 X99.496 Y101.759
G1 F1410 X98.239 Y100.502 E166.59922
G0 F7800 X98.239 Y101.068
G1 F1410 X98.931 Y101.759 E166.63175
G0 F7800 X98.365 Y101.759
G1 F1410 X98.239 Y101.633 E166.63768
; Layer Change GCode
; LAYER:5
G0 F7800 X98.239 Y101.633 Z2.3
G0 X97.9 Y101.633
G0 X95.1 Y102.5
G0 X94.7 Y102.9
G0 X95.1 Y102.5
G0 X95.5 Y102.1
; TYPE:WALL-INNER
G1 F846 X95.5 Y97.9 E166.77737
G1 X97.5 Y97.9 E166.84389
G1 X97.5 Y102.099 E166.98355
G1 X95.5 Y102.1 E167.05007
G0 F7800 X95.1 Y102.5
G1 F846 X95.1 Y97.5 E167.21637
G1 X97.9 Y97.5 E167.3095
G1 X97.9 Y102.499 E167.47577
G1 X95.1 Y102.5 E167.56889
G0 F7800 X94.7 Y102.9
; TYPE:WALL-OUTER
G1 F592.2 X94.7 Y97.1 E167.7618
G1 X98.3 Y97.1 E167.88154
G1 X98.3 Y102.899 E168.07441
G1 X94.7 Y102.9 E168.19415
G0 F7800 X95.1 Y102.5
G0 X96.529 Y101.128
; TYPE:FILL
G1 F1692 X96.471 Y101.129 E168.19608
G1 X96.471 Y98.871 E168.27118
G1 X96.529 Y98.871 E168.27311
G1 X96.529 Y101.128 E168.34818
G0 F7800 X97.1 Y101.699
G1 F1692 X95.9 Y101.7 E168.38809
G1 X95.9 Y98.3 E168.50118
G1 X97.1 Y98.3 E168.54109
G1 X97.1 Y101.699 E168.65414
G1 F1800 E167.65414
G0 F7800 X97.9 Y102.499
G0 X98.5 Y103.099
G0 X98.5 Y104.299
G0 X99.7 Y104.299
G0 X101.82 Y103.099
G0 X103.02 Y103.099
G0 X103.62 Y102.499
G0 X104.9 Y102.5
G0 X105.3 Y102.9
G0 X104.9 Y102.5
G0 X104.5 Y102.1
; TYPE:WALL-INNER
G1 F1800 E168.65414
G1 F846 X104.02 Y102.099 E168.6701
G1 X104.02 Y97.9 E168.80976
G1 X104.5 Y97.9 E168.82573
G1 X104.5 Y102.1 E168.96542
G0 F7800 X104.9 Y102.5
G1 F846 X103.62 Y102.499 E169.00799
G1 X103.62 Y97.5 E169.17426
G1 X104.9 Y97.5 E169.21683
G1 X104.9 Y102.5 E169.38313
G0 F7800 X105.3 Y102.9
; TYPE:WALL-OUTER
G1 F592.2 X103.22 Y102.899 E169.45232
G1 X103.22 Y97.1 E169.64519
G1 X105.3 Y97.1 E169.71437
G1 X105.3 Y102.9 E169.90728
; Layer Change GCode
; LAYER:6
G1 F1800 E168.90728
G0 F7800 X105.3 Y102.9 Z2.5
G0 X104.9 Y102.5
G0 X103.62 Y102.499
G0 X103.02 Y103.099
G0 X101.82 Y103.099
G0 X99.7 Y104.299
G0 X98.5 Y104.299
G0 X98.5 Y103.099
G0 X97.9 Y102.499
G0 X95.1 Y102.5
G0 X94.7 Y102.9
G0 X95.1 Y102.5
G0 X95.5 Y102.1
; TYPE:WALL-INNER
G1 F1800 E169.90728
G1 F846 X95.5 Y97.9 E170.04697
G1 X97.5 Y97.9 E170.11349
G1 X97.5 Y102.099 E170.25315
G1 X95.5 Y102.1 E170.31967
G0 F7800 X95.1 Y102.5
G1 F846 X95.1 Y97.5 E170.48597
G1 X97.9 Y97.5 E170.5791
G1 X97.9 Y102.499 E170.74537
G1 X95.1 Y102.5 E170.8385
G0 F7800 X94.7 Y102.9
; TYPE:WALL-OUTER
G1 F592.2 X94.7 Y97.1 E171.03141
G1 X98.3 Y97.1 E171.15114
G1 X98.3 Y102.899 E171.34402
G1 X94.7 Y102.9 E171.46376
G0 F7800 X95.1 Y102.5
G0 X96.529 Y101.128
; TYPE:FILL
G1 F1692 X96.471 Y101.129 E171.46569
G1 X96.471 Y98.871 E171.54079
G1 X96.529 Y98.871 E171.54272
G1 X96.529 Y101.128 E171.61778
G0 F7800 X97.1 Y101.699
G1 F1692 X95.9 Y101.7 E171.6577
G1 X95.9 Y98.3 E171.77078
G1 X97.1 Y98.3 E171.81069
G1 X97.1 Y101.699 E171.92374
G1 F1800 E170.92374
G0 F7800 X97.9 Y102.499
G0 X98.5 Y103.099
G0 X98.5 Y104.299
G0 X99.7 Y104.299
G0 X101.82 Y103.099
G0 X103.02 Y103.099
G0 X103.62 Y102.499
G0 X104.9 Y102.5
G0 X105.3 Y102.9
G0 X104.9 Y102.5
G0 X104.5 Y102.1
; TYPE:WALL-INNER
G1 F1800 E171.92374
G1 F846 X104.02 Y102.099 E171.93971
G1 X104.02 Y97.9 E172.07937
G1 X104.5 Y97.9 E172.09533
G1 X104.5 Y102.1 E172.23503
G0 F7800 X104.9 Y102.5
G1 F846 X103.62 Y102.499 E172.2776
G1 X103.62 Y97.5 E172.44387
G1 X104.9 Y97.5 E172.48644
G1 X104.9 Y102.5 E172.65274
G0 F7800 X105.3 Y102.9
; TYPE:WALL-OUTER
G1 F592.2 X103.22 Y102.899 E172.72192
G1 X103.22 Y97.1 E172.9148
G1 X105.3 Y97.1 E172.98398
G1 X105.3 Y102.9 E173.17689
; Layer Change GCode
; LAYER:7
G1 F1800 E172.17689
G0 F7800 X105.3 Y102.9 Z2.7
G0 X104.9 Y102.5
G0 X103.62 Y102.499
G0 X103.02 Y103.099
G0 X101.82 Y103.099
G0 X99.7 Y104.299
G0 X98.5 Y104.299
G0 X98.5 Y103.099
G0 X97.9 Y102.499
G0 X95.1 Y102.5
G0 X94.7 Y102.9
G0 X95.1 Y102.5
G0 X95.5 Y102.1
; TYPE:WALL-INNER
G1 F1800 E173.17689
G1 F846 X95.5 Y97.9 E173.31658
G1 X97.5 Y97.9 E173.3831
G1 X97.5 Y102.099 E173.52276
G1 X95.5 Y102.1 E173.58928
G0 F7800 X95.1 Y102.5
G1 F846 X95.1 Y97.5 E173.75558
G1 X97.9 Y97.5 E173.84871
G1 X97.9 Y102.499 E174.01497
G1 X95.1 Y102.5 E174.1081
G0 F7800 X94.7 Y102.9
; TYPE:WALL-OUTER
G1 F592.2 X94.7 Y97.1 E174.30101
G1 X98.3 Y97.1 E174.42075
G1 X98.3 Y102.899 E174.61362
G1 X94.7 Y102.9 E174.73336
G0 F7800 X95.1 Y102.5
G0 X96.529 Y101.128
; TYPE:FILL
G1 F1692 X96.471 Y101.129 E174.73529
G1 X96.471 Y98.871 E174.81039
G1 X96.529 Y98.871 E174.81232
G1 X96.529 Y101.128 E174.88739
G0 F7800 X97.1 Y101.699
G1 F1692 X95.9 Y101.7 E174.9273
G1 X95.9 Y98.3 E175.04039
G1 X97.1 Y98.3 E175.0803
G1 X97.1 Y101.699 E175.19335
G1 F1800 E174.19335
G0 F7800 X97.9 Y102.499
G0 X98.5 Y103.099
G0 X98.5 Y104.299
G0 X99.7 Y104.299
G0 X101.82 Y103.099
G0 X103.02 Y103.099
G0 X103.62 Y102.499
G0 X104.9 Y102.5
G0 X105.3 Y102.9
G0 X104.9 Y102.5
G0 X104.5 Y102.1
; TYPE:WALL-INNER
G1 F1800 E175.19335
G1 F846 X104.02 Y102.099 E175.20931
G1 X104.02 Y97.9 E175.34897
G1 X104.5 Y97.9 E175.36494
G1 X104.5 Y102.1 E175.50463
G0 F7800 X104.9 Y102.5
G1 F846 X103.62 Y102.499 E175.5472
G1 X103.62 Y97.5 E175.71347
G1 X104.9 Y97.5 E175.75604
G1 X104.9 Y102.5 E175.92234
G0 F7800 X105.3 Y102.9
; TYPE:WALL-OUTER
G1 F592.2 X103.22 Y102.899 E175.99153
G1 X103.22 Y97.1 E176.1844
G1 X105.3 Y97.1 E176.25358
G1 X105.3 Y102.9 E176.44649
; Layer Change GCode
; LAYER:8
G1 F1800 E175.44649
G0 F7800 X105.3 Y102.9 Z2.9
G0 X104.9 Y102.5
G0 X103.62 Y102.499
G0 X103.02 Y103.099
G0 X101.82 Y103.099
G0 X99.7 Y104.299
G0 X98.5 Y104.299
G0 X98.5 Y103.099
G0 X97.9 Y102.499
G0 X95.1 Y102.5
G0 X94.7 Y102.9
G0 X95.1 Y102.5
G0 X95.5 Y102.1
; TYPE:WALL-INNER
G1 F1800 E176.44649
G1 F846 X95.5 Y97.9 E176.58618
G1 X97.5 Y97.9 E176.6527
G1 X97.5 Y102.099 E176.79236
G1 X95.5 Y102.1 E176.85888
G0 F7800 X95.1 Y102.5
G1 F846 X95.1 Y97.5 E177.02518
G1 X97.9 Y97.5 E177.11831
G1 X97.9 Y102.499 E177.28458
G1 X95.1 Y102.5 E177.37771
G0 F7800 X94.7 Y102.9
; TYPE:WALL-OUTER
G1 F592.2 X94.7 Y97.1 E177.57062
G1 X98.3 Y97.1 E177.69035
G1 X98.3 Y102.899 E177.88323
G1 X94.7 Y102.9 E178.00297
G0 F7800 X95.1 Y102.5
G0 X96.529 Y101.128
; TYPE:FILL
G1 F1692 X96.471 Y101.129 E178.00489
G1 X96.471 Y98.871 E178.08
G1 X96.529 Y98.871 E178.08193
G1 X96.529 Y101.128 E178.15699
G0 F7800 X97.1 Y101.699
G1 F1692 X95.9 Y101.7 E178.19691
G1 X95.9 Y98.3 E178.30999
G1 X97.1 Y98.3 E178.3499
G1 X97.1 Y101.699 E178.46295
G1 F1800 E177.46295
G0 F7800 X97.9 Y102.499
G0 X98.5 Y103.099
G0 X98.5 Y104.299
G0 X99.7 Y104.299
G0 X101.82 Y103.099
G0 X103.02 Y103.099
G0 X103.62 Y102.499
G0 X104.9 Y102.5
G0 X105.3 Y102.9
G0 X104.9 Y102.5
G0 X104.5 Y102.1
; TYPE:WALL-INNER
G1 F1800 E178.46295
G1 F846 X104.02 Y102.099 E178.47892
G1 X104.02 Y97.9 E178.61858
G1 X104.5 Y97.9 E178.63454
G1 X104.5 Y102.1 E178.77423
G0 F7800 X104.9 Y102.5
G1 F846 X103.62 Y102.499 E178.81681
G1 X103.62 Y97.5 E178.98308
G1 X104.9 Y97.5 E179.02565
G1 X104.9 Y102.5 E179.19195
G0 F7800 X105.3 Y102.9
; TYPE:WALL-OUTER
G1 F592.2 X103.22 Y102.899 E179.26113
G1 X103.22 Y97.1 E179.45401
G1 X105.3 Y97.1 E179.52319
G1 X105.3 Y102.9 E179.7161
; Layer Change GCode
; LAYER:9
G1 F1800 E178.7161
G0 F7800 X105.3 Y102.9 Z3.1
G0 X104.9 Y102.5
G0 X103.62 Y102.499
G0 X103.02 Y103.099
G0 X101.82 Y103.099
G0 X99.7 Y104.299
G0 X98.5 Y104.299
G0 X98.5 Y103.099
G0 X97.9 Y102.499
G0 X95.1 Y102.5
G0 X94.7 Y102.9
G0 X95.1 Y102.5
G0 X95.5 Y102.1
; TYPE:WALL-INNER
G1 F1800 E179.7161
G1 F846 X95.5 Y97.9 E179.85579
G1 X97.5 Y97.9 E179.92231
G1 X97.5 Y102.099 E180.06197
G1 X95.5 Y102.1 E180.12849
G0 F7800 X95.1 Y102.5
G1 F846 X95.1 Y97.5 E180.29479
G1 X97.9 Y97.5 E180.38792
G1 X97.9 Y102.499 E180.55418
G1 X95.1 Y102.5 E180.64731
G0 F7800 X94.7 Y102.9
; TYPE:WALL-OUTER
G1 F592.2 X94.7 Y97.1 E180.84022
G1 X98.3 Y97.1 E180.95996
G1 X98.3 Y102.899 E181.15283
G1 X94.7 Y102.9 E181.27257
G0 F7800 X95.1 Y102.5
G0 X96.529 Y101.128
; TYPE:FILL
G1 F1692 X96.471 Y101.129 E181.2745
G1 X96.471 Y98.871 E181.3496
G1 X96.529 Y98.871 E181.35153
G1 X96.529 Y101.128 E181.4266
G0 F7800 X97.1 Y101.699
G1 F1692 X95.9 Y101.7 E181.46651
G1 X95.9 Y98.3 E181.57959
G1 X97.1 Y98.3 E181.61951
G1 X97.1 Y101.699 E181.73256
G1 F1800 E180.73256
G0 F7800 X97.9 Y102.499
G0 X98.5 Y103.099
G0 X98.5 Y104.299
G0 X99.7 Y104.299
G0 X101.82 Y103.099
G0 X103.02 Y103.099
G0 X103.62 Y102.499
G0 X104.9 Y102.5
G0 X105.3 Y102.9
G0 X104.9 Y102.5
G0 X104.5 Y102.1
; TYPE:WALL-INNER
G1 F1800 E181.73256
G1 F846 X104.02 Y102.099 E181.74852
G1 X104.02 Y97.9 E181.88818
G1 X104.5 Y97.9 E181.90415
G1 X104.5 Y102.1 E182.04384
G0 F7800 X104.9 Y102.5
G1 F846 X103.62 Y102.499 E182.08641
G1 X103.62 Y97.5 E182.25268
G1 X104.9 Y97.5 E182.29525
G1 X104.9 Y102.5 E182.46155
G0 F7800 X105.3 Y102.9
; TYPE:WALL-OUTER
G1 F592.2 X103.22 Y102.899 E182.53073
G1 X103.22 Y97.1 E182.72361
G1 X105.3 Y97.1 E182.79279
G1 X105.3 Y102.9 E182.9857
; Layer Change GCode
; LAYER:10
G1 F1800 E181.9857
G0 F7800 X105.3 Y102.9 Z3.3
G0 X104.9 Y102.5
G0 X103.62 Y102.499
G0 X103.02 Y103.099
G0 X101.82 Y103.099
G0 X99.7 Y104.3
G0 X98.5 Y104.3
G0 X98.5 Y103.1
G0 X97.9 Y102.5
G0 X95.1 Y102.5
G0 X94.7 Y102.9
G0 X95.1 Y102.5
G0 X95.5 Y102.1
; TYPE:WALL-INNER
G1 F1800 E182.9857
G1 F846 X95.5 Y97.9 E183.12539
G1 X97.5 Y97.9 E183.19191
G1 X97.5 Y102.1 E183.33161
G1 X95.5 Y102.1 E183.39813
G0 F7800 X95.1 Y102.5
G1 F846 X95.1 Y97.5 E183.56443
G1 X97.9 Y97.5 E183.65755
G1 X97.9 Y102.5 E183.82386
G1 X95.1 Y102.5 E183.91698
G0 F7800 X94.7 Y102.9
; TYPE:WALL-OUTER
G1 F592.2 X94.7 Y97.1 E184.10989
G1 X98.3 Y97.1 E184.22963
G1 X98.3 Y102.9 E184.42254
G1 X94.7 Y102.9 E184.54227
G0 F7800 X95.1 Y102.5
G0 X96.529 Y101.129
; TYPE:FILL
G1 F1692 X96.471 Y101.129 E184.5442
G1 X96.471 Y98.871 E184.6193
G1 X96.529 Y98.871 E184.62123
G1 X96.529 Y101.129 E184.69634
G0 F7800 X97.1 Y101.7
G1 F1692 X95.9 Y101.7 E184.73625
G1 X95.9 Y98.3 E184.84933
G1 X97.1 Y98.3 E184.88924
G1 X97.1 Y101.7 E185.00233
G1 F1800 E184.00233
G0 F7800 X97.9 Y102.5
G0 X98.5 Y103.1
G0 X98.5 Y104.3
G0 X99.7 Y104.3
G0 X101.82 Y103.1
G0 X103.02 Y103.1
G0 X103.22 Y102.9
G0 X103.62 Y102.5
G0 X104.02 Y102.1
; TYPE:WALL-INNER
G1 F1800 E185.00233
G1 F846 X104.02 Y97.9 E185.14202
G1 X104.5 Y97.9 E185.15799
G1 X104.5 Y102.1 E185.29768
G1 X104.02 Y102.1 E185.31364
G0 F7800 X103.62 Y102.5
G1 F846 X103.62 Y97.5 E185.47994
G1 X104.9 Y97.5 E185.52252
G1 X104.9 Y102.5 E185.68882
G1 X103.62 Y102.5 E185.73139
G0 F7800 X103.22 Y102.9
; TYPE:WALL-OUTER
G1 F592.2 X103.22 Y97.1 E185.9243
G1 X105.3 Y97.1 E185.99348
G1 X105.3 Y102.9 E186.18639
G1 X103.22 Y102.9 E186.25557
; Layer Change GCode
; LAYER:11
G1 F1800 E185.25557
G0 F7800 X103.02 Y103.1 Z3.5
G0 X101.82 Y103.1
G0 X99.7 Y104.3
G0 X98.5 Y104.3
G0 X98.5 Y103.1
G0 X97.9 Y102.5
G0 X95.1 Y102.5
G0 X94.7 Y102.9
G0 X95.1 Y102.5
G0 X95.5 Y102.1
; TYPE:WALL-INNER
G1 F1800 E186.25557
G1 F846 X95.5 Y97.9 E186.39526
G1 X97.5 Y97.9 E186.46178
G1 X97.5 Y102.1 E186.60148
G1 X95.5 Y102.1 E186.668
G0 F7800 X95.1 Y102.5
G1 F846 X95.1 Y97.5 E186.8343
G1 X97.9 Y97.5 E186.92743
G1 X97.9 Y102.5 E187.09373
G1 X95.1 Y102.5 E187.18685
G0 F7800 X94.7 Y102.9
; TYPE:WALL-OUTER
G1 F592.2 X94.7 Y97.1 E187.37976
G1 X98.3 Y97.1 E187.4995
G1 X98.3 Y102.9 E187.69241
G1 X94.7 Y102.9 E187.81214
G0 F7800 X95.1 Y102.5
G0 X95.839 Y101.584
; TYPE:FILL
G1 F1692 X97.16 Y100.264 E187.87426
G0 F7800 X97.16 Y100.829
G1 F1692 X96.23 Y101.759 E187.918
G0 F7800 X96.796 Y101.759
G1 F1692 X97.16 Y101.395 E187.93512
G0 F7800 X95.839 Y101.018
G1 F1692 X97.16 Y99.698 E187.99724
G0 F7800 X97.16 Y99.132
G1 F1692 X95.839 Y100.453 E188.05937
G0 F7800 X95.839 Y99.887
G1 F1692 X97.16 Y98.567 E188.12148
G0 F7800 X96.922 Y98.239
G1 F1692 X95.839 Y99.321 E188.1724
G0 F7800 X95.839 Y98.755
G1 F1692 X96.356 Y98.239 E188.1967
G1 F1800 E187.1967
G0 F7800 X97.9 Y97.5
G0 X98.5 Y96.9
G0 X99.7 Y96.9
G0 X101.82 Y96.9
G0 X103.02 Y96.9
G0 X103.62 Y97.5
G0 X103.62 Y102.5
G0 X103.22 Y102.9
G0 X103.62 Y102.5
G0 X104.02 Y102.1
; TYPE:WALL-INNER
G1 F1800 E188.1967
G1 F846 X104.02 Y97.9 E188.33639
G1 X104.5 Y97.9 E188.35235
G1 X104.5 Y102.1 E188.49205
G1 X104.02 Y102.1 E188.50801
G0 F7800 X103.62 Y102.5
G1 F846 X103.62 Y97.5 E188.67431
G1 X104.9 Y97.5 E188.71688
G1 X104.9 Y102.5 E188.88318
G1 X103.62 Y102.5 E188.92576
G0 F7800 X103.22 Y102.9
; TYPE:WALL-OUTER
G1 F592.2 X103.22 Y97.1 E189.11867
G1 X105.3 Y97.1 E189.18785
G1 X105.3 Y102.9 E189.38076
G1 X103.22 Y102.9 E189.44994
; Layer Change GCode
; LAYER:12
G1 F1800 E188.44994
G0 F7800 X103.02 Y103.1 Z3.7
G0 X101.82 Y103.1
G0 X99.7 Y104.3
G0 X98.5 Y104.3
G0 X98.5 Y103.1
G0 X97.9 Y102.5
G0 X95.1 Y102.5
G0 X94.7 Y102.9
G0 X95.1 Y102.5
G0 X95.5 Y102.1
; TYPE:WALL-INNER
G1 F1800 E189.44994
G1 F846 X95.5 Y97.9 E189.58963
G1 X97.5 Y97.9 E189.65615
G1 X97.5 Y102.1 E189.79584
G1 X95.5 Y102.1 E189.86236
G0 F7800 X95.1 Y102.5
G1 F846 X95.1 Y97.5 E190.02866
G1 X97.9 Y97.5 E190.12179
G1 X97.9 Y102.5 E190.28809
G1 X95.1 Y102.5 E190.38122
G0 F7800 X94.7 Y102.9
; TYPE:WALL-OUTER
G1 F592.2 X94.7 Y97.1 E190.57413
G1 X98.3 Y97.1 E190.69387
G1 X98.3 Y102.9 E190.88678
G1 X94.7 Y102.9 E191.00651
G0 F7800 X95.1 Y102.5
G0 X96.102 Y101.759
; TYPE:FILL
G1 F1692 X95.839 Y101.496 E191.01888
G0 F7800 X95.839 Y100.931
G1 F1692 X96.667 Y101.759 E191.05783
G0 F7800 X97.16 Y101.685
G1 F1692 X95.839 Y100.365 E191.11994
G0 F7800 X95.839 Y99.799
G1 F1692 X97.16 Y101.119 E191.18205
G0 F7800 X97.16 Y100.554
G1 F1692 X95.839 Y99.233 E191.24419
G0 F7800 X95.839 Y98.668
G1 F1692 X97.16 Y99.988 E191.3063
G0 F7800 X97.16 Y99.422
G1 F1692 X95.977 Y98.239 E191.36195
G0 F7800 X96.541 Y98.239
G1 F1692 X97.16 Y98.857 E191.39104
G0 F7800 X97.16 Y98.291
G1 F1692 X97.107 Y98.239 E191.39351
G1 F1800 E190.39351
G0 F7800 X97.9 Y97.5
G0 X98.5 Y96.9
G0 X99.7 Y96.9
G0 X101.82 Y96.9
G0 X103.02 Y96.9
G0 X103.62 Y97.5
G0 X103.62 Y102.5
G0 X103.22 Y102.9
G0 X103.62 Y102.5
G0 X104.02 Y102.1
; TYPE:WALL-INNER
G1 F1800 E191.39351
G1 F846 X104.02 Y97.9 E191.5332
G1 X104.5 Y97.9 E191.54917
G1 X104.5 Y102.1 E191.68886
G1 X104.02 Y102.1 E191.70482
G0 F7800 X103.62 Y102.5
G1 F846 X103.62 Y97.5 E191.87112
G1 X104.9 Y97.5 E191.9137
G1 X104.9 Y102.5 E192.08
G1 X103.62 Y102.5 E192.12257
G0 F7800 X103.22 Y102.9
; TYPE:WALL-OUTER
G1 F592.2 X103.22 Y97.1 E192.31548
G1 X105.3 Y97.1 E192.38466
G1 X105.3 Y102.9 E192.57757
G1 X103.22 Y102.9 E192.64675
; Layer Change GCode
; LAYER:13
G1 F1800 E191.64675
G0 F7800 X103.02 Y103.1 Z3.9
G0 X101.82 Y103.1
G0 X99.7 Y104.3
G0 X98.5 Y104.3
G0 X98.5 Y103.1
G0 X97.9 Y102.5
G0 X95.1 Y102.5
G0 X94.7 Y102.9
G0 X95.1 Y102.5
G0 X95.5 Y102.1
; TYPE:WALL-INNER
G1 F1800 E192.64675
G1 F846 X95.5 Y97.9 E192.78644
G1 X97.5 Y97.9 E192.85296
G1 X97.5 Y102.1 E192.99266
G1 X95.5 Y102.1 E193.05918
G0 F7800 X95.1 Y102.5
G1 F846 X95.1 Y97.5 E193.22548
G1 X97.9 Y97.5 E193.3186
G1 X97.9 Y102.5 E193.48491
G1 X95.1 Y102.5 E193.57803
G0 F7800 X94.7 Y102.9
; TYPE:WALL-OUTER
G1 F592.2 X94.7 Y97.1 E193.77094
G1 X98.3 Y97.1 E193.89068
G1 X98.3 Y102.9 E194.08359
G1 X94.7 Y102.9 E194.20332
G0 F7800 X95.1 Y102.5
G0 X95.839 Y101.584
; TYPE:FILL
G1 F1692 X97.16 Y100.264 E194.26544
G0 F7800 X97.16 Y100.829
G1 F1692 X96.23 Y101.759 E194.30918
G0 F7800 X96.796 Y101.759
G1 F1692 X97.16 Y101.395 E194.3263
G0 F7800 X95.839 Y101.018
G1 F1692 X97.16 Y99.698 E194.38841
G0 F7800 X97.16 Y99.132
G1 F1692 X95.839 Y100.453 E194.45055
G0 F7800 X95.839 Y99.887
G1 F1692 X97.16 Y98.567 E194.51266
G0 F7800 X96.922 Y98.239
G1 F1692 X95.839 Y99.321 E194.56358
G0 F7800 X95.839 Y98.755
G1 F1692 X96.356 Y98.239 E194.58787
G1 F1800 E193.58787
G0 F7800 X97.9 Y97.5
G0 X98.5 Y96.9
G0 X99.7 Y96.9
G0 X101.82 Y96.9
G0 X103.02 Y96.9
G0 X103.62 Y97.5
G0 X103.62 Y102.5
G0 X103.22 Y102.9
G0 X103.62 Y102.5
G0 X104.02 Y102.1
; TYPE:WALL-INNER
G1 F1800 E194.58787
G1 F846 X104.02 Y97.9 E194.72757
G1 X104.5 Y97.9 E194.74353
G1 X104.5 Y102.1 E194.88322
G1 X104.02 Y102.1 E194.89919
G0 F7800 X103.62 Y102.5
G1 F846 X103.62 Y97.5 E195.06549
G1 X104.9 Y97.5 E195.10806
G1 X104.9 Y102.5 E195.27436
G1 X103.62 Y102.5 E195.31694
G0 F7800 X103.22 Y102.9
; TYPE:WALL-OUTER
G1 F592.2 X103.22 Y97.1 E195.50985
G1 X105.3 Y97.1 E195.57903
G1 X105.3 Y102.9 E195.77194
G1 X103.22 Y102.9 E195.84112
; Layer Change GCode
; LAYER:14
G1 F1800 E194.84112
G0 F7800 X103.02 Y103.1 Z4.1
G0 X101.82 Y103.1
G0 X99.7 Y104.3
G0 X98.5 Y104.3
G0 X98.5 Y103.1
G0 X97.9 Y102.5
G0 X95.1 Y102.5
G0 X94.7 Y102.9
G0 X95.1 Y102.5
G0 X95.5 Y102.1
; TYPE:WALL-INNER
G1 F1800 E195.84112
G1 F846 X95.5 Y97.9 E195.98081
G1 X97.5 Y97.9 E196.04733
G1 X97.5 Y102.1 E196.18702
G1 X95.5 Y102.1 E196.25354
G0 F7800 X95.1 Y102.5
G1 F846 X95.1 Y97.5 E196.41984
G1 X97.9 Y97.5 E196.51297
G1 X97.9 Y102.5 E196.67927
G1 X95.1 Y102.5 E196.7724
G0 F7800 X94.7 Y102.9
; TYPE:WALL-OUTER
G1 F592.2 X94.7 Y97.1 E196.96531
G1 X98.3 Y97.1 E197.08505
G1 X98.3 Y102.9 E197.27795
G1 X94.7 Y102.9 E197.39769
G0 F7800 X95.1 Y102.5
G0 X96.102 Y101.759
; TYPE:FILL
G1 F1692 X95.839 Y101.496 E197.41006
G0 F7800 X95.839 Y100.931
G1 F1692 X96.667 Y101.759 E197.44901
G0 F7800 X97.16 Y101.685
G1 F1692 X95.839 Y100.365 E197.51112
G0 F7800 X95.839 Y99.799
G1 F1692 X97.16 Y101.119 E197.57323
G0 F7800 X97.16 Y100.554
G1 F1692 X95.839 Y99.233 E197.63537
G0 F7800 X95.839 Y98.668
G1 F1692 X97.16 Y99.988 E197.69748
G0 F7800 X97.16 Y99.422
G1 F1692 X95.977 Y98.239 E197.75313
G0 F7800 X96.541 Y98.239
G1 F1692 X97.16 Y98.857 E197.78222
G0 F7800 X97.16 Y98.291
G1 F1692 X97.107 Y98.239 E197.78469
G1 F1800 E196.78469
G0 F7800 X97.9 Y97.5
G0 X98.5 Y96.9
G0 X99.7 Y96.9
G0 X101.82 Y96.9
G0 X103.02 Y96.9
G0 X103.62 Y97.5
G0 X103.62 Y102.5
G0 X103.22 Y102.9
G0 X103.62 Y102.5
G0 X104.02 Y102.1
; TYPE:WALL-INNER
G1 F1800 E197.78469
G1 F846 X104.02 Y97.9 E197.92438
G1 X104.5 Y97.9 E197.94034
G1 X104.5 Y102.1 E198.08004
G1 X104.02 Y102.1 E198.096
G0 F7800 X103.62 Y102.5
G1 F846 X103.62 Y97.5 E198.2623
G1 X104.9 Y97.5 E198.30488
G1 X104.9 Y102.5 E198.47118
G1 X103.62 Y102.5 E198.51375
G0 F7800 X103.22 Y102.9
; TYPE:WALL-OUTER
G1 F592.2 X103.22 Y97.1 E198.70666
G1 X105.3 Y97.1 E198.77584
G1 X105.3 Y102.9 E198.96875
G1 X103.22 Y102.9 E199.03793
; Layer Change GCode
; LAYER:15
G1 F1800 E198.03793
G0 F7800 X103.02 Y103.1 Z4.3
G0 X101.82 Y103.1
G0 X99.7 Y104.3
G0 X98.5 Y104.3
G0 X98.5 Y103.1
G0 X97.9 Y102.5
G0 X95.1 Y102.5
G0 X94.7 Y102.9
G0 X95.1 Y102.5
G0 X95.5 Y102.1
; TYPE:WALL-INNER
G1 F1800 E199.03793
G1 F846 X95.5 Y97.9 E199.17762
G1 X97.5 Y97.9 E199.24414
G1 X97.5 Y102.1 E199.38383
G1 X95.5 Y102.1 E199.45036
G0 F7800 X95.1 Y102.5
G1 F846 X95.1 Y97.5 E199.61666
G1 X97.9 Y97.5 E199.70978
G1 X97.9 Y102.5 E199.87608
G1 X95.1 Y102.5 E199.96921
G0 F7800 X94.7 Y102.9
; TYPE:WALL-OUTER
G1 F592.2 X94.7 Y97.1 E200.16212
G1 X98.3 Y97.1 E200.28186
G1 X98.3 Y102.9 E200.47477
G1 X94.7 Y102.9 E200.5945
G0 F7800 X95.1 Y102.5
G0 X96.102 Y101.759
; TYPE:TOP-FILL
G1 F1410 X95.839 Y101.496 E200.60687
G0 F7800 X95.839 Y100.931
G1 F1410 X96.667 Y101.759 E200.64582
G0 F7800 X97.16 Y101.685
G1 F1410 X95.839 Y100.365 E200.70793
G0 F7800 X95.839 Y99.799
G1 F1410 X97.16 Y101.119 E200.77005
G0 F7800 X97.16 Y100.554
G1 F1410 X95.839 Y99.233 E200.83218
G0 F7800 X95.839 Y98.668
G1 F1410 X97.16 Y99.988 E200.89429
G0 F7800 X97.16 Y99.422
G1 F1410 X95.977 Y98.239 E200.94994
G0 F7800 X96.541 Y98.239
G1 F1410 X97.16 Y98.857 E200.97903
G0 F7800 X97.16 Y98.291
G1 F1410 X97.107 Y98.239 E200.9815
G1 F1800 E199.9815
G0 F7800 X97.9 Y97.5
G0 X98.5 Y96.9
G0 X99.7 Y96.9
G0 X101.82 Y96.9
G0 X103.02 Y96.9
G0 X103.62 Y97.5
G0 X103.62 Y102.5
G0 X103.22 Y102.9
G0 X103.62 Y102.5
G0 X104.02 Y102.1
; TYPE:WALL-INNER
G1 F1800 E200.9815
G1 F846 X104.02 Y97.9 E201.12119
G1 X104.5 Y97.9 E201.13716
G1 X104.5 Y102.1 E201.27685
G1 X104.02 Y102.1 E201.29282
G0 F7800 X103.62 Y102.5
G1 F846 X103.62 Y97.5 E201.45912
G1 X104.9 Y97.5 E201.50169
G1 X104.9 Y102.5 E201.66799
G1 X103.62 Y102.5 E201.71056
G0 F7800 X103.22 Y102.9
; TYPE:WALL-OUTER
G1 F592.2 X103.22 Y97.1 E201.90347
G1 X105.3 Y97.1 E201.97265
G1 X105.3 Y102.9 E202.16556
G1 X103.22 Y102.9 E202.23474
M400
M107
M104 S0 ; turn off temperature
G28 X0  ; home X axis
M84     ; disable motors
; filament used = 202.2
; filament used extruder 1 (mm) = 202.2
; filament used extruder 2 (mm) = 0.0
; total print time (s) = 215
; MatterControl Version 1.7.5 Build 1.7.5.9487 : GCode settings used
; Date 04/24/2018 00:00:00 Time 12:12
; numberOfBottomLayers = 5
; numberOfPerimeters = 3
; raftExtraDistanceAroundPart = 5
; numberOfSkirtLoops = 1
; supportInterfaceLayers = 3
; numberOfTopLayers = 5
; numberOfBrimLoops = 0
; outsidePerimeterExtrusionWidth = 0.4
; outsidePerimeterSpeed = 21
; firstLayerSpeed = 18
; raftPrintSpeed = 60
; topInfillSpeed = 50
; firstLayerExtrusionWidth = 0.4
; firstLayerThickness = 0.25
; extruderOffsets = [[0,0],[0,0],[0,0],[0,0],[0,0],[0,0],[0,0],[0,0],[0,0],[0,0],[0,0],[0,0],[0,0],[0,0],[0,0],[0,0]]
; beforeToolchangeCode =
; endCode = M104 S0 ; turn off temperature\nG28 X0  ; home X axis\nM84     ; disable motors
; toolChangeCode =
; minimumTravelToCauseRetraction = 20
; retractionOnTravel = 1
; retractionZHop = 0
; unretractExtraExtrusion = 0
; retractRestartExtraTimeToApply = 0
; retractionSpeed = 30
; bridgeFanSpeedPercent = 100
; bridgeSpeed = 20
; firstLayerToAllowFan = 1
; extrusionMultiplier = 1
; infillStartingAngle = 45
; infillExtendIntoPerimeter = .06
; infillSpeed = 60
; infillType = CONCENTRIC
; layerChangeCode = ; LAYER:[layer_num]
; fanSpeedMaxPercent = 100
; minimumExtrusionBeforeRetraction = .1
; fanSpeedMinPercent = 35
; minimumPrintingSpeed = 10
; insidePerimetersSpeed = 30
; raftAirGap = .2
; raftFanSpeedPercent = 100
; retractionOnExtruderSwitch = 10
; unretractExtraOnExtruderSwitch = 0
; skirtDistanceFromObject = 6
; minimumLayerTimeSeconds = 30
; supportAirGap = .3
; supportInfillStartingAngle = 45
; supportPercent = 50
; supportLineSpacing = 2.5
; supportMaterialSpeed = 60
; supportXYDistanceFromObject = 0.7
; supportType = LINES
; travelSpeed = 130
; wipeShieldDistanceFromObject = 0
; wipeTowerSize = 0
; zOffset = 0
; bottomClipAmount = 0
; filamentDiameter = 1.75
; layerThickness = 0.2
; extrusionWidth = 0.4
; avoidCrossingPerimeters = True
; enableRaft = True
; outsidePerimetersFirst = False
; outputOnlyFirstLayer = False
; retractWhenChangingIslands = True
; generateSupport = False
; generateInternalSupport = True
; generateSupportPerimeter = True
; wipeAfterRetraction = False
; centerObjectInXy = True
; expandThinWalls = True
; MergeOverlappingLines = True
; fillThinGaps = True
; continuousSpiralOuterPerimeter = False
; positionToPlaceObjectCenter = [100,100]
; startCode = ; automatic settings before start_gcode\nG21 ; set units to millimeters\nM107 ; fan off\nM190 S60 ; wait for bed temperature to be reached\nM104 T0 S210 ; start heating extruder 1\nT0 ; set the active extruder to 0\n; settings from start_gcode\nG28 ; home all axes\nG1 Z5 F5000 ; lift nozzle\n; automatic settings after start_gcode\nM109 T0 S210 ; wait for extruder 1 to reach temperature\nT0 ; set the active extruder to 0\nG90 ; use absolute coordinates\nG92 E0 ; reset the expected extruder position\nM82 ; use absolute distance for extrusion
; infillPercent = 70
; perimeterStartEndOverlapRatio = 1
; skirtMinLength = 0
; supportExtrusionPercent = 100
; raftExtruder = -1
; supportExtruder = 0
; supportInterfaceExtruder = 0
