; Generated with MatterSlice 1.0
; filamentDiameter = 1.75
; extrusionWidth = 0.4
; firstLayerExtrusionWidth = 0.4
; layerThickness = 0.2
; firstLayerThickness = 0.3
; automatic settings before start_gcode
G21 ; set units to millimeters
M107 ; fan off
M190 S60 ; wait for bed temperature to be reached
M104 T0 S210 ; start heating extruder 1
T0 ; set the active extruder to 0
; settings from start_gcode
G28 ; home all axes
G1 Z5 F5000 ; lift nozzle
; automatic settings after start_gcode
M109 T0 S210 ; wait for extruder 1 to reach temperature
T0 ; set the active extruder to 0
G90 ; use absolute coordinates
G92 E0 ; reset the expected extruder position
M82 ; use absolute distance for extrusion
; Layer count: 29
; RAFT BASE
; Layer Change GCode
; LAYER:-3
G0 F7800 X42.745 Y57.753 Z0.3
; TYPE:SUPPORT
G1 F1800 E0
G1 F1080 X46.299 Y55.263 E0.64949
G1 X49.776 Y54.021 E1.2021
G1 X52.507 Y53.701 E1.61365
G1 X147.448 Y53.7 E15.82352
G1 X150.133 Y54.001 E16.22791
G1 X153.621 Y55.224 E16.78112
G1 X157.232 Y57.721 E17.43821
G1 X160.309 Y61.951 E18.2211
G1 X161.3 Y66.299 E18.88856
G1 X161.3 Y133.701 E28.97666
G1 X160.309 Y138.049 E29.64411
G1 X157.256 Y142.246 E30.4209
G1 X153.701 Y144.737 E31.0706
G1 X150.224 Y145.979 E31.62321
G1 X147.493 Y146.299 E32.03475
G1 X52.552 Y146.3 E46.24463
G1 X49.867 Y145.999 E46.64901
G1 X46.379 Y144.776 E47.20222
G1 X42.768 Y142.279 E47.85932
G1 X39.68 Y138.036 E48.64475
G1 X38.701 Y133.685 E49.31225
G1 X38.701 Y66.315 E59.39556
G1 X39.681 Y61.964 E60.06309
G1 X42.745 Y57.753 E60.84253
G0 F7800 X48.286 Y63.395
G1 F1080 X49.913 Y62.255 E61.13988
G1 X51.565 Y61.665 E61.40243
G1 X52.963 Y61.501 E61.6131
G1 X147.012 Y61.5 E75.68947
G1 X148.386 Y61.654 E75.89641
G1 X150.049 Y62.237 E76.16016
G1 X151.705 Y63.382 E76.46149
G1 X153.06 Y65.245 E76.80628
G1 X153.5 Y67.176 E77.1027
G1 X153.5 Y132.824 E86.92828
G1 X153.06 Y134.755 E87.2247
G1 X151.714 Y136.605 E87.56712
G1 X150.087 Y137.745 E87.86446
G1 X148.435 Y138.335 E88.12702
G1 X147.037 Y138.499 E88.33769
G1 X52.988 Y138.5 E102.41406
G1 X51.614 Y138.346 E102.621
G1 X49.951 Y137.763 E102.88475
G1 X48.295 Y136.618 E103.18608
G1 X46.936 Y134.75 E103.53183
G1 X46.501 Y132.818 E103.82823
G1 X46.501 Y67.182 E113.65201
G1 X46.936 Y65.25 E113.94841
G1 X48.286 Y63.395 E114.29179
G1 F1800 E113.29179
G0 F7800 X70.001 Y77
G1 F1800 E114.29179
G1 F1080 X70.001 Y122.75 E121.13922
G1 X136.5 Y122.75 E131.09217
G1 X136.5 Y77 E137.9396
G1 X70.001 Y77 E147.89254
G0 F7800 X68.861 Y76.8
G1 F1080 X47.64 Y76.8 E151.0687
G0 F7800 X47.64 Y75.2
G1 F1080 X152.36 Y75.199 E166.74221
G0 F7800 X152.36 Y76.799
G1 F1080 X137.64 Y76.799 E168.94536
G0 F7800 X137.64 Y78.399
G1 F1080 X152.36 Y78.399 E171.14851
G0 F7800 X152.36 Y79.999
G1 F1080 X137.64 Y79.999 E173.35167
G0 F7800 X137.64 Y81.599
G1 F1080 X152.36 Y81.599 E175.55482
G0 F7800 X152.36 Y83.199
G1 F1080 X137.64 Y83.199 E177.75797
G0 F7800 X137.64 Y84.799
G1 F1080 X152.36 Y84.799 E179.96112
G0 F7800 X152.36 Y86.399
G1 F1080 X137.64 Y86.399 E182.16427
G0 F7800 X137.64 Y87.999
G1 F1080 X152.36 Y87.999 E184.36742
G0 F7800 X152.36 Y89.599
G1 F1080 X137.64 Y89.599 E186.57057
G0 F7800 X137.64 Y91.199
G1 F1080 X152.36 Y91.199 E188.77372
G0 F7800 X152.36 Y92.799
G1 F1080 X137.64 Y92.799 E190.97688
G0 F7800 X137.64 Y94.399
G1 F1080 X152.36 Y94.399 E193.18003
G0 F7800 X152.36 Y95.999
G1 F1080 X137.64 Y95.999 E195.38318
G0 F7800 X137.64 Y97.599
G1 F1080 X152.36 Y97.599 E197.58633
G0 F7800 X152.36 Y99.199
G1 F1080 X137.64 Y99.199 E199.78948
G0 F7800 X137.64 Y100.799
G1 F1080 X152.36 Y100.799 E201.99263
G0 F7800 X152.36 Y102.399
G1 F1080 X137.64 Y102.399 E204.19578
G0 F7800 X137.64 Y103.999
G1 F1080 X152.36 Y103.999 E206.39894
G0 F7800 X152.36 Y105.599
G1 F1080 X137.64 Y105.599 E208.60209
G0 F7800 X137.64 Y107.199
G1 F1080 X152.36 Y107.199 E210.80524
G0 F7800 X152.36 Y108.799
G1 F1080 X137.64 Y108.799 E213.00839
G0 F7800 X137.64 Y110.399
G1 F1080 X152.36 Y110.399 E215.21154
G0 F7800 X152.36 Y111.999
G1 F1080 X137.64 Y111.999 E217.41469
G0 F7800 X137.64 Y113.599
G1 F1080 X152.36 Y113.599 E219.61784
G0 F7800 X152.36 Y115.199
G1 F1080 X137.64 Y115.199 E221.82099
G0 F7800 X137.64 Y116.799
G1 F1080 X152.36 Y116.799 E224.02415
G0 F7800 X152.36 Y118.399
G1 F1080 X137.64 Y118.399 E226.2273
G0 F7800 X137.64 Y119.999
G1 F1080 X152.36 Y119.999 E228.43045
G0 F7800 X152.36 Y121.599
G1 F1080 X137.64 Y121.599 E230.6336
G0 F7800 X137.64 Y123.199
G1 F1080 X152.36 Y123.199 E232.83675
G0 F7800 X152.36 Y124.799
G1 F1080 X47.64 Y124.8 E248.51026
G0 F7800 X47.64 Y123.2
G1 F1080 X68.86 Y123.2 E251.68627
G0 F7800 X68.86 Y121.6
G1 F1080 X47.64 Y121.6 E254.86228
G0 F7800 X47.64 Y120
G1 F1080 X68.86 Y120 E258.03829
G0 F7800 X68.86 Y118.4
G1 F1080 X47.64 Y118.4 E261.2143
G0 F7800 X47.64 Y116.8
G1 F1080 X68.86 Y116.8 E264.39031
G0 F7800 X68.86 Y115.2
G1 F1080 X47.64 Y115.2 E267.56632
G0 F7800 X47.64 Y113.6
G1 F1080 X68.86 Y113.6 E270.74233
G0 F7800 X68.86 Y112
G1 F1080 X47.64 Y112 E273.91834
G0 F7800 X47.64 Y110.4
G1 F1080 X68.86 Y110.4 E277.09435
G0 F7800 X68.86 Y108.8
G1 F1080 X47.64 Y108.8 E280.27036
G0 F7800 X47.64 Y107.2
G1 F1080 X68.86 Y107.2 E283.44637
G0 F7800 X68.86 Y105.6
G1 F1080 X47.64 Y105.6 E286.62238
G0 F7800 X47.64 Y104
G1 F1080 X68.86 Y104 E289.79839
G0 F7800 X68.86 Y102.4
G1 F1080 X47.64 Y102.4 E292.9744
G0 F7800 X47.64 Y100.8
G1 F1080 X68.86 Y100.8 E296.15041
G0 F7800 X68.861 Y99.2
G1 F1080 X47.64 Y99.2 E299.32657
G0 F7800 X47.64 Y97.6
G1 F1080 X68.861 Y97.6 E302.50273
G0 F7800 X68.861 Y96
G1 F1080 X47.64 Y96 E305.67889
G0 F7800 X47.64 Y94.4
G1 F1080 X68.861 Y94.4 E308.85505
G0 F7800 X68.861 Y92.8
G1 F1080 X47.64 Y92.8 E312.03121
G0 F7800 X47.64 Y91.2
G1 F1080 X68.861 Y91.2 E315.20737
G0 F7800 X68.861 Y89.6
G1 F1080 X47.64 Y89.6 E318.38353
G0 F7800 X47.64 Y88
G1 F1080 X68.861 Y88 E321.55969
G0 F7800 X68.861 Y86.4
G1 F1080 X47.64 Y86.4 E324.73585
G0 F7800 X47.64 Y84.8
G1 F1080 X68.861 Y84.8 E327.91201
G0 F7800 X68.861 Y83.2
G1 F1080 X47.64 Y83.2 E331.08817
G0 F7800 X47.64 Y81.6
G1 F1080 X68.861 Y81.6 E334.26433
G0 F7800 X68.861 Y80
G1 F1080 X47.64 Y80 E337.44049
G0 F7800 X47.64 Y78.4
G1 F1080 X68.861 Y78.4 E340.61665
G1 F1800 E339.61665
G0 F7800 X47.64 Y73.6
G1 F1800 E340.61665
G1 F1080 X152.36 Y73.599 E356.29016
G0 F7800 X152.36 Y71.999
G1 F1080 X47.64 Y72 E371.96366
G0 F7800 X47.64 Y70.4
G1 F1080 X152.36 Y70.399 E387.63717
G0 F7800 X152.36 Y68.799
G1 F1080 X47.64 Y68.8 E403.31068
G0 F7800 X47.665 Y67.2
G1 F1080 X152.336 Y67.199 E418.97685
G0 F7800 X151.908 Y65.599
G1 F1080 X48.09 Y65.6 E434.51535
G0 F7800 X49.408 Y64
G1 F1080 X150.596 Y63.999 E449.66022
G1 F1800 E448.66022
G0 F7800 X152.36 Y126.399
G1 F1800 E449.66022
G1 F1080 X47.64 Y126.4 E465.33373
G0 F7800 X47.64 Y128
G1 F1080 X152.36 Y127.999 E481.00723
G0 F7800 X152.36 Y129.599
G1 F1080 X47.64 Y129.6 E496.68074
G0 F7800 X47.64 Y131.2
G1 F1080 X152.36 Y131.2 E512.35424
G0 F7800 X152.336 Y132.8
G1 F1080 X47.665 Y132.8 E528.02042
G0 F7800 X48.09 Y134.4
G1 F1080 X151.908 Y134.4 E543.55892
G0 F7800 X150.591 Y136
G1 F1080 X49.403 Y136 E558.70379
M400
M106 S255
; RAFT MIDDLE
; Layer Change GCode
; LAYER:-2
G0 F7800 X50.248 Y137.929 Z0.55
; TYPE:SUPPORT
G1 F3600 X46.817 Y134.498 E558.8803
G0 F7800 X46.441 Y132.708
G1 F3600 X52.204 Y138.472 E559.17682
G0 F7800 X53.706 Y138.558
G1 F3600 X46.441 Y131.294 E559.55055
G0 F7800 X46.441 Y129.879
G1 F3600 X55.12 Y138.558 E559.99706
G0 F7800 X56.534 Y138.558
G1 F3600 X46.441 Y128.465 E560.51631
G0 F7800 X46.441 Y127.051
G1 F3600 X57.948 Y138.558 E561.1083
G0 F7800 X59.363 Y138.558
G1 F3600 X46.441 Y125.637 E561.77307
G0 F7800 X46.441 Y124.223
G1 F3600 X60.777 Y138.558 E562.51058
G0 F7800 X62.191 Y138.558
G1 F3600 X46.441 Y122.808 E563.32087
G0 F7800 X46.441 Y121.394
G1 F3600 X63.605 Y138.558 E564.2039
G0 F7800 X65.019 Y138.558
G1 F3600 X46.441 Y119.98 E565.15967
G0 F7800 X46.441 Y118.566
G1 F3600 X66.434 Y138.558 E566.18822
G0 F7800 X67.848 Y138.558
G1 F3600 X46.441 Y117.152 E567.28951
G0 F7800 X46.441 Y115.737
G1 F3600 X69.262 Y138.558 E568.46358
G0 F7800 X70.676 Y138.558
G1 F3600 X46.441 Y114.323 E569.71039
G0 F7800 X46.441 Y112.909
G1 F3600 X72.09 Y138.558 E571.02994
G0 F7800 X73.505 Y138.558
G1 F3600 X46.441 Y111.495 E572.42227
G0 F7800 X46.441 Y110.08
G1 F3600 X74.919 Y138.558 E573.88737
G0 F7800 X76.333 Y138.558
G1 F3600 X46.441 Y108.666 E575.42521
G0 F7800 X46.441 Y107.252
G1 F3600 X77.747 Y138.558 E577.0358
G0 F7800 X79.162 Y138.558
G1 F3600 X46.441 Y105.838 E578.71916
G0 F7800 X46.441 Y104.424
G1 F3600 X80.576 Y138.558 E580.47526
G0 F7800 X81.99 Y138.558
G1 F3600 X46.441 Y103.009 E582.30414
G0 F7800 X46.441 Y101.595
G1 F3600 X83.404 Y138.558 E584.20576
G0 F7800 X84.818 Y138.558
G1 F3600 X46.441 Y100.181 E586.18013
G0 F7800 X46.44 Y98.766
G1 F3600 X70.06 Y122.386 E587.3953
G0 F7800 X70.363 Y122.689
G1 F3600 X86.233 Y138.558 E588.21173
G0 F7800 X87.647 Y138.558
G1 F3600 X71.777 Y122.689 E589.02817
G0 F7800 X73.191 Y122.689
G1 F3600 X89.061 Y138.558 E589.8446
G0 F7800 X90.475 Y138.558
G1 F3600 X74.606 Y122.689 E590.66101
G0 F7800 X76.02 Y122.689
G1 F3600 X91.889 Y138.558 E591.47741
G0 F7800 X93.304 Y138.558
G1 F3600 X77.434 Y122.689 E592.29385
G0 F7800 X78.848 Y122.689
G1 F3600 X94.718 Y138.558 E593.11028
G0 F7800 X96.132 Y138.558
G1 F3600 X80.262 Y122.689 E593.92671
G0 F7800 X81.677 Y122.689
G1 F3600 X97.546 Y138.558 E594.74312
G0 F7800 X98.961 Y138.558
G1 F3600 X83.091 Y122.689 E595.55955
G0 F7800 X84.505 Y122.689
G1 F3600 X100.375 Y138.558 E596.37598
G0 F7800 X101.789 Y138.558
G1 F3600 X85.919 Y122.689 E597.19241
G0 F7800 X87.334 Y122.689
G1 F3600 X103.203 Y138.558 E598.00882
G0 F7800 X104.617 Y138.558
G1 F3600 X88.748 Y122.689 E598.82523
G0 F7800 X90.162 Y122.689
G1 F3600 X106.032 Y138.558 E599.64166
G0 F7800 X107.446 Y138.558
G1 F3600 X91.576 Y122.689 E600.45809
G0 F7800 X92.99 Y122.689
G1 F3600 X108.86 Y138.558 E601.27453
G0 F7800 X110.274 Y138.558
G1 F3600 X94.405 Y122.689 E602.09093
G0 F7800 X95.819 Y122.689
G1 F3600 X111.688 Y138.558 E602.90734
G0 F7800 X113.103 Y138.558
G1 F3600 X97.233 Y122.689 E603.72377
G0 F7800 X98.647 Y122.689
G1 F3600 X114.517 Y138.558 E604.5402
G0 F7800 X115.931 Y138.558
G1 F3600 X100.061 Y122.689 E605.35664
G0 F7800 X101.476 Y122.689
G1 F3600 X117.345 Y138.558 E606.17304
G0 F7800 X118.759 Y138.558
G1 F3600 X102.89 Y122.689 E606.98945
G0 F7800 X104.305 Y122.69
G1 F3600 X120.174 Y138.558 E607.80583
G0 F7800 X121.588 Y138.558
G1 F3600 X105.719 Y122.69 E608.62221
G0 F7800 X107.133 Y122.69
G1 F3600 X123.002 Y138.558 E609.43859
G0 F7800 X124.416 Y138.558
G1 F3600 X108.547 Y122.69 E610.25498
G0 F7800 X109.962 Y122.69
G1 F3600 X125.831 Y138.558 E611.07136
G0 F7800 X127.245 Y138.558
G1 F3600 X111.376 Y122.69 E611.88774
G0 F7800 X112.79 Y122.69
G1 F3600 X128.659 Y138.558 E612.70412
G0 F7800 X130.073 Y138.558
G1 F3600 X114.204 Y122.69 E613.5205
G0 F7800 X115.619 Y122.69
G1 F3600 X131.487 Y138.558 E614.33686
G0 F7800 X132.902 Y138.558
G1 F3600 X117.033 Y122.69 E615.15324
G0 F7800 X118.447 Y122.69
G1 F3600 X134.316 Y138.558 E615.96962
G0 F7800 X135.73 Y138.558
G1 F3600 X119.861 Y122.69 E616.786
G0 F7800 X121.275 Y122.69
G1 F3600 X137.144 Y138.558 E617.60238
G0 F7800 X138.558 Y138.558
G1 F3600 X122.69 Y122.69 E618.41874
G0 F7800 X124.104 Y122.69
G1 F3600 X139.973 Y138.558 E619.23512
G0 F7800 X141.387 Y138.558
G1 F3600 X125.518 Y122.69 E620.0515
G0 F7800 X126.932 Y122.69
G1 F3600 X142.801 Y138.558 E620.86788
G0 F7800 X144.215 Y138.558
G1 F3600 X128.346 Y122.69 E621.68426
G0 F7800 X129.761 Y122.69
G1 F3600 X145.63 Y138.558 E622.50064
G0 F7800 X147.043 Y138.558
G1 F3600 X131.175 Y122.69 E623.317
G0 F7800 X132.589 Y122.69
G1 F3600 X148.309 Y138.41 E624.12574
G0 F7800 X149.376 Y138.062
G1 F3600 X134.003 Y122.69 E624.9166
G0 F7800 X135.418 Y122.69
G1 F3600 X150.356 Y137.628 E625.68511
G0 F7800 X151.188 Y137.046
G1 F3600 X136.439 Y122.296 E626.44392
G0 F7800 X136.439 Y120.882
G1 F3600 X151.945 Y136.388 E627.24165
G0 F7800 X152.54 Y135.57
G1 F3600 X136.439 Y119.468 E628.07002
G0 F7800 X136.439 Y118.054
G1 F3600 X153.124 Y134.739 E628.92841
G0 F7800 X153.387 Y133.588
G1 F3600 X136.439 Y116.64 E629.80033
G0 F7800 X136.439 Y115.225
G1 F3600 X153.559 Y132.346 E630.68112
G0 F7800 X153.559 Y130.932
G1 F3600 X136.439 Y113.811 E631.56191
G0 F7800 X136.439 Y112.397
G1 F3600 X153.559 Y129.517 E632.44268
G0 F7800 X153.559 Y128.103
G1 F3600 X136.439 Y110.983 E633.32345
G0 F7800 X136.439 Y109.569
G1 F3600 X153.559 Y126.689 E634.20421
G0 F7800 X153.559 Y125.275
G1 F3600 X136.439 Y108.154 E635.085
G0 F7800 X136.439 Y106.74
G1 F3600 X153.559 Y123.861 E635.9658
G0 F7800 X153.559 Y122.446
G1 F3600 X136.439 Y105.326 E636.84656
G0 F7800 X136.439 Y103.912
G1 F3600 X153.559 Y121.032 E637.72733
G0 F7800 X153.559 Y119.618
G1 F3600 X136.439 Y102.497 E638.60812
G0 F7800 X136.439 Y101.083
G1 F3600 X153.559 Y118.204 E639.48892
G0 F7800 X153.559 Y116.789
G1 F3600 X136.439 Y99.67 E640.36966
G0 F7800 X136.439 Y98.256
G1 F3600 X153.559 Y115.375 E641.2504
G0 F7800 X153.559 Y113.961
G1 F3600 X136.439 Y96.841 E642.13116
G0 F7800 X136.439 Y95.427
G1 F3600 X153.559 Y112.547 E643.01193
G0 F7800 X153.559 Y111.133
G1 F3600 X136.439 Y94.013 E643.8927
G0 F7800 X136.439 Y92.599
G1 F3600 X153.559 Y109.718 E644.77344
G0 F7800 X153.559 Y108.304
G1 F3600 X136.439 Y91.184 E645.6542
G0 F7800 X136.439 Y89.77
G1 F3600 X153.559 Y106.89 E646.53497
G0 F7800 X153.559 Y105.476
G1 F3600 X136.439 Y88.356 E647.41574
G0 F7800 X136.439 Y86.942
G1 F3600 X153.559 Y104.062 E648.2965
G0 F7800 X153.559 Y102.647
G1 F3600 X136.439 Y85.528 E649.17724
G0 F7800 X136.439 Y84.113
G1 F3600 X153.559 Y101.233 E650.05801
G0 F7800 X153.558 Y99.818
G1 F3600 X136.439 Y82.699 E650.93873
G0 F7800 X136.439 Y81.285
G1 F3600 X153.558 Y98.404 E651.81944
G0 F7800 X153.558 Y96.99
G1 F3600 X136.439 Y79.871 E652.70016
G0 F7800 X136.439 Y78.457
G1 F3600 X153.558 Y95.576 E653.58087
G0 F7800 X153.558 Y94.161
G1 F3600 X120.836 Y61.439 E655.26431
G0 F7800 X119.422 Y61.439
G1 F3600 X135.042 Y77.059 E656.06791
G0 F7800 X133.628 Y77.059
G1 F3600 X118.008 Y61.439 E656.8715
G0 F7800 X116.594 Y61.439
G1 F3600 X132.214 Y77.059 E657.6751
G0 F7800 X130.799 Y77.059
G1 F3600 X115.179 Y61.439 E658.4787
G0 F7800 X113.765 Y61.439
G1 F3600 X129.385 Y77.059 E659.28229
G0 F7800 X127.971 Y77.059
G1 F3600 X112.351 Y61.439 E660.08589
G0 F7800 X110.937 Y61.439
G1 F3600 X126.557 Y77.059 E660.88949
G0 F7800 X125.143 Y77.059
G1 F3600 X109.523 Y61.439 E661.69308
G0 F7800 X108.108 Y61.439
G1 F3600 X123.728 Y77.059 E662.49668
G0 F7800 X122.314 Y77.059
G1 F3600 X106.694 Y61.439 E663.30028
G0 F7800 X105.28 Y61.439
G1 F3600 X120.9 Y77.059 E664.10387
G0 F7800 X119.486 Y77.059
G1 F3600 X103.866 Y61.439 E664.90747
G0 F7800 X102.451 Y61.439
G1 F3600 X118.071 Y77.059 E665.71107
G0 F7800 X116.657 Y77.059
G1 F3600 X101.037 Y61.439 E666.51466
G0 F7800 X99.624 Y61.44
G1 F3600 X115.243 Y77.059 E667.31821
G0 F7800 X113.829 Y77.059
G1 F3600 X98.21 Y61.44 E668.12175
G0 F7800 X96.795 Y61.44
G1 F3600 X112.415 Y77.059 E668.92532
G0 F7800 X111 Y77.059
G1 F3600 X95.381 Y61.44 E669.72887
G0 F7800 X93.967 Y61.44
G1 F3600 X109.586 Y77.059 E670.53241
G0 F7800 X108.172 Y77.059
G1 F3600 X92.553 Y61.44 E671.33596
G0 F7800 X91.138 Y61.44
G1 F3600 X106.758 Y77.059 E672.13953
G0 F7800 X105.344 Y77.059
G1 F3600 X89.724 Y61.44 E672.9431
G0 F7800 X88.31 Y61.44
G1 F3600 X103.929 Y77.059 E673.74665
G0 F7800 X102.515 Y77.059
G1 F3600 X86.896 Y61.44 E674.55019
G0 F7800 X85.482 Y61.44
G1 F3600 X101.101 Y77.059 E675.35374
G0 F7800 X99.687 Y77.059
G1 F3600 X84.067 Y61.44 E676.15731
G0 F7800 X82.653 Y61.44
G1 F3600 X98.272 Y77.059 E676.96085
G0 F7800 X96.858 Y77.059
G1 F3600 X81.239 Y61.44 E677.7644
G0 F7800 X79.825 Y61.44
G1 F3600 X95.444 Y77.059 E678.56794
G0 F7800 X94.03 Y77.059
G1 F3600 X78.411 Y61.44 E679.37149
G0 F7800 X76.996 Y61.44
G1 F3600 X92.616 Y77.059 E680.17506
G0 F7800 X91.201 Y77.059
G1 F3600 X75.582 Y61.44 E680.9786
G0 F7800 X74.168 Y61.44
G1 F3600 X89.787 Y77.059 E681.78215
G0 F7800 X88.373 Y77.059
G1 F3600 X72.754 Y61.44 E682.58569
G0 F7800 X71.34 Y61.44
G1 F3600 X86.959 Y77.059 E683.38924
G0 F7800 X85.545 Y77.059
G1 F3600 X69.925 Y61.44 E684.19281
G0 F7800 X68.511 Y61.44
G1 F3600 X84.13 Y77.059 E684.99636
G0 F7800 X82.716 Y77.059
G1 F3600 X67.097 Y61.44 E685.7999
G0 F7800 X65.683 Y61.44
G1 F3600 X81.302 Y77.059 E686.60345
G0 F7800 X79.888 Y77.059
G1 F3600 X64.268 Y61.44 E687.40702
G0 F7800 X62.854 Y61.44
G1 F3600 X78.474 Y77.059 E688.21059
G0 F7800 X77.059 Y77.059
G1 F3600 X61.44 Y61.44 E689.01413
G0 F7800 X60.026 Y61.44
G1 F3600 X75.645 Y77.059 E689.81768
G0 F7800 X74.231 Y77.059
G1 F3600 X58.612 Y61.44 E690.62122
G0 F7800 X57.197 Y61.44
G1 F3600 X72.817 Y77.059 E691.42479
G0 F7800 X71.402 Y77.059
G1 F3600 X55.783 Y61.44 E692.22834
G0 F7800 X54.369 Y61.44
G1 F3600 X70.06 Y77.131 E693.03559
G0 F7800 X70.06 Y78.546
G1 F3600 X52.955 Y61.441 E693.91558
G0 F7800 X51.689 Y61.589
G1 F3600 X70.06 Y79.96 E694.86071
G0 F7800 X70.06 Y81.374
G1 F3600 X50.623 Y61.936 E695.8607
G0 F7800 X49.642 Y62.37
G1 F3600 X70.06 Y82.788 E696.91114
G0 F7800 X70.06 Y84.202
G1 F3600 X48.81 Y62.953 E698.00436
G0 F7800 X48.054 Y63.61
G1 F3600 X70.06 Y85.617 E699.13652
G0 F7800 X70.06 Y87.031
G1 F3600 X47.458 Y64.429 E700.29931
G0 F7800 X46.872 Y65.257
G1 F3600 X70.06 Y88.445 E701.49226
G0 F7800 X70.06 Y89.859
G1 F3600 X46.612 Y66.411 E702.69858
G0 F7800 X46.44 Y67.653
G1 F3600 X70.06 Y91.274 E703.91378
G0 F7800 X70.06 Y92.688
G1 F3600 X46.44 Y69.068 E705.12895
G0 F7800 X46.44 Y70.482
G1 F3600 X70.06 Y94.102 E706.34412
G0 F7800 X70.06 Y95.516
G1 F3600 X46.44 Y71.896 E707.55929
G0 F7800 X46.44 Y73.31
G1 F3600 X70.06 Y96.93 E708.77445
G0 F7800 X70.06 Y98.345
G1 F3600 X46.44 Y74.724 E709.98965
G0 F7800 X46.44 Y76.139
G1 F3600 X70.06 Y99.759 E711.20482
G0 F7800 X70.06 Y101.173
G1 F3600 X46.44 Y77.553 E712.41999
G0 F7800 X46.44 Y78.967
G1 F3600 X70.06 Y102.587 E713.63516
G0 F7800 X70.06 Y104.001
G1 F3600 X46.44 Y80.381 E714.85033
G0 F7800 X46.44 Y81.795
G1 F3600 X70.06 Y105.416 E716.06553
G0 F7800 X70.06 Y106.83
G1 F3600 X46.44 Y83.21 E717.28069
G0 F7800 X46.44 Y84.624
G1 F3600 X70.06 Y108.244 E718.49586
G0 F7800 X70.06 Y109.658
G1 F3600 X46.44 Y86.038 E719.71103
G0 F7800 X46.44 Y87.452
G1 F3600 X70.06 Y111.073 E720.92623
G0 F7800 X70.06 Y112.487
G1 F3600 X46.44 Y88.867 E722.1414
G0 F7800 X46.44 Y90.281
G1 F3600 X70.06 Y113.901 E723.35657
G0 F7800 X70.06 Y115.315
G1 F3600 X46.44 Y91.695 E724.57174
G0 F7800 X46.44 Y93.109
G1 F3600 X70.06 Y116.729 E725.78691
G0 F7800 X70.06 Y118.144
G1 F3600 X46.44 Y94.523 E727.0021
G0 F7800 X46.44 Y95.938
G1 F3600 X70.06 Y119.558 E728.21727
G0 F7800 X70.06 Y120.972
G1 F3600 X46.44 Y97.352 E729.43244
G1 F1800 E728.43244
G0 F7800 X122.25 Y61.439
G1 F1800 E729.43244
G1 F3600 X153.558 Y92.747 E731.04314
G0 F7800 X153.558 Y91.333
G1 F3600 X123.665 Y61.439 E732.58106
G0 F7800 X125.079 Y61.439
G1 F3600 X153.558 Y89.919 E734.04623
G0 F7800 X153.558 Y88.505
G1 F3600 X126.493 Y61.439 E735.43866
G0 F7800 X127.907 Y61.439
G1 F3600 X153.558 Y87.09 E736.75832
G0 F7800 X153.558 Y85.676
G1 F3600 X129.322 Y61.439 E738.0052
G0 F7800 X130.736 Y61.439
G1 F3600 X153.558 Y84.262 E739.17935
G0 F7800 X153.558 Y82.848
G1 F3600 X132.15 Y61.439 E740.28074
G0 F7800 X133.564 Y61.439
G1 F3600 X153.558 Y81.433 E741.30937
G0 F7800 X153.558 Y80.019
G1 F3600 X134.978 Y61.439 E742.26524
G0 F7800 X136.393 Y61.439
G1 F3600 X153.558 Y78.605 E743.14835
G0 F7800 X153.558 Y77.191
G1 F3600 X137.807 Y61.439 E743.95871
G0 F7800 X139.221 Y61.439
G1 F3600 X153.558 Y75.777 E744.69633
G0 F7800 X153.558 Y74.362
G1 F3600 X140.635 Y61.439 E745.36117
G0 F7800 X142.049 Y61.439
G1 F3600 X153.558 Y72.948 E745.95327
G0 F7800 X153.558 Y71.534
G1 F3600 X143.464 Y61.439 E746.4726
G0 F7800 X144.878 Y61.439
G1 F3600 X153.558 Y70.12 E746.91919
G0 F7800 X153.558 Y68.706
G1 F3600 X146.292 Y61.439 E747.29302
G0 F7800 X147.794 Y61.527
G1 F3600 X153.558 Y67.291 E747.58956
G0 F7800 X153.177 Y65.496
G1 F3600 X149.75 Y62.069 E747.76587
; RAFT SURFACE
; Layer Change GCode
; LAYER:-1
G0 F7800 X149.6 Y62.015 Z0.8
; TYPE:SUPPORT
G1 F3600 X149.6 Y137.982 E750.92421
G0 F7800 X149.2 Y138.124
G1 F3600 X149.2 Y61.875 E754.09427
G0 F7800 X148.8 Y61.735
G1 F3600 X148.8 Y138.267 E757.27611
G0 F7800 X148.4 Y138.399
G1 F3600 X148.4 Y61.594 E760.46929
G0 F7800 X148 Y61.549
G1 F3600 X148 Y138.446 E763.66629
G0 F7800 X147.6 Y138.492
G1 F3600 X147.6 Y61.505 E766.86704
G0 F7800 X147.2 Y61.46
G1 F3600 X147.2 Y138.539 E770.07161
G0 F7800 X146.8 Y138.558
G1 F3600 X146.8 Y61.439 E773.27785
G0 F7800 X146.4 Y61.439
G1 F3600 X146.4 Y138.558 E776.48408
G0 F7800 X146 Y138.558
G1 F3600 X146 Y61.439 E779.69032
G0 F7800 X145.6 Y61.439
G1 F3600 X145.6 Y138.558 E782.89655
G0 F7800 X145.2 Y138.558
G1 F3600 X145.2 Y61.439 E786.10279
G0 F7800 X144.8 Y61.439
G1 F3600 X144.8 Y138.558 E789.30902
G0 F7800 X144.4 Y138.558
G1 F3600 X144.4 Y61.439 E792.51526
G0 F7800 X144 Y61.439
G1 F3600 X144 Y138.558 E795.7215
G0 F7800 X143.6 Y138.558
G1 F3600 X143.6 Y61.439 E798.92773
G0 F7800 X143.2 Y61.439
G1 F3600 X143.2 Y138.558 E802.13397
G0 F7800 X142.8 Y138.558
G1 F3600 X142.8 Y61.439 E805.3402
G0 F7800 X142.4 Y61.439
G1 F3600 X142.4 Y138.558 E808.54644
G0 F7800 X142 Y138.558
G1 F3600 X142 Y61.439 E811.75267
G0 F7800 X141.6 Y61.439
G1 F3600 X141.6 Y138.558 E814.95891
G0 F7800 X141.2 Y138.558
G1 F3600 X141.2 Y61.439 E818.16514
G0 F7800 X140.8 Y61.439
G1 F3600 X140.8 Y138.558 E821.37138
G0 F7800 X140.4 Y138.558
G1 F3600 X140.4 Y61.439 E824.57761
G0 F7800 X140 Y61.439
G1 F3600 X140 Y138.558 E827.78385
G0 F7800 X139.6 Y138.558
G1 F3600 X139.6 Y61.439 E830.99009
G0 F7800 X139.2 Y61.439
G1 F3600 X139.2 Y138.558 E834.19632
G0 F7800 X138.8 Y138.558
G1 F3600 X138.8 Y61.439 E837.40256
G0 F7800 X138.4 Y61.439
G1 F3600 X138.4 Y138.558 E840.60879
G0 F7800 X138 Y138.558
G1 F3600 X138 Y61.439 E843.81503
G0 F7800 X137.6 Y61.439
G1 F3600 X137.6 Y138.558 E847.02126
G0 F7800 X137.2 Y138.558
G1 F3600 X137.2 Y61.439 E850.2275
G0 F7800 X136.8 Y61.439
G1 F3600 X136.8 Y138.558 E853.43373
G0 F7800 X136.4 Y138.558
G1 F3600 X136.4 Y122.689 E854.09349
G0 F7800 X136 Y122.689
G1 F3600 X136 Y138.558 E854.75325
G0 F7800 X135.6 Y138.558
G1 F3600 X135.6 Y122.689 E855.413
G0 F7800 X135.2 Y122.689
G1 F3600 X135.2 Y138.558 E856.07276
G0 F7800 X134.8 Y138.558
G1 F3600 X134.8 Y122.689 E856.73251
G0 F7800 X134.4 Y122.689
G1 F3600 X134.4 Y138.558 E857.39227
G0 F7800 X134 Y138.558
G1 F3600 X134 Y122.689 E858.05203
G0 F7800 X133.6 Y122.689
G1 F3600 X133.6 Y138.558 E858.71178
G0 F7800 X133.2 Y138.558
G1 F3600 X133.2 Y122.689 E859.37154
G0 F7800 X132.8 Y122.689
G1 F3600 X132.8 Y138.558 E860.0313
G0 F7800 X132.4 Y138.558
G1 F3600 X132.4 Y122.689 E860.69105
G0 F7800 X132 Y122.689
G1 F3600 X132 Y138.558 E861.35081
G0 F7800 X131.6 Y138.558
G1 F3600 X131.6 Y122.689 E862.01057
G0 F7800 X131.2 Y122.689
G1 F3600 X131.2 Y138.558 E862.67032
G0 F7800 X130.8 Y138.558
G1 F3600 X130.8 Y122.689 E863.33008
G0 F7800 X130.4 Y122.689
G1 F3600 X130.4 Y138.558 E863.98983
G0 F7800 X130 Y138.558
G1 F3600 X130 Y122.689 E864.64959
G0 F7800 X129.6 Y122.689
G1 F3600 X129.6 Y138.558 E865.30935
G0 F7800 X129.2 Y138.558
G1 F3600 X129.2 Y122.689 E865.9691
G0 F7800 X128.8 Y122.689
G1 F3600 X128.8 Y138.558 E866.62886
G0 F7800 X128.4 Y138.558
G1 F3600 X128.4 Y122.689 E867.28862
G0 F7800 X128 Y122.689
G1 F3600 X128 Y138.558 E867.94837
G0 F7800 X127.6 Y138.558
G1 F3600 X127.6 Y122.689 E868.60813
G0 F7800 X127.2 Y122.689
G1 F3600 X127.2 Y138.558 E869.26789
G0 F7800 X126.8 Y138.558
G1 F3600 X126.8 Y122.689 E869.92764
G0 F7800 X126.4 Y122.689
G1 F3600 X126.4 Y138.558 E870.5874
G0 F7800 X126 Y138.558
G1 F3600 X126 Y122.689 E871.24715
G0 F7800 X125.6 Y122.689
G1 F3600 X125.6 Y138.558 E871.90691
G0 F7800 X125.2 Y138.558
G1 F3600 X125.2 Y122.689 E872.56667
G0 F7800 X124.8 Y122.689
G1 F3600 X124.8 Y138.558 E873.22642
G0 F7800 X124.4 Y138.558
G1 F3600 X124.4 Y122.689 E873.88618
G0 F7800 X124 Y122.689
G1 F3600 X124 Y138.558 E874.54594
G0 F7800 X123.6 Y138.558
G1 F3600 X123.6 Y122.689 E875.20569
G0 F7800 X123.2 Y122.689
G1 F3600 X123.2 Y138.558 E875.86545
G0 F7800 X122.8 Y138.558
G1 F3600 X122.8 Y122.689 E876.52521
G0 F7800 X122.4 Y122.689
G1 F3600 X122.4 Y138.558 E877.18496
G0 F7800 X122 Y138.558
G1 F3600 X122 Y122.689 E877.84472
G0 F7800 X121.6 Y122.689
G1 F3600 X121.6 Y138.558 E878.50447
G0 F7800 X121.2 Y138.558
G1 F3600 X121.2 Y122.689 E879.16423
G0 F7800 X120.8 Y122.689
G1 F3600 X120.8 Y138.558 E879.82399
G0 F7800 X120.4 Y138.558
G1 F3600 X120.4 Y122.689 E880.48374
G0 F7800 X120 Y122.689
G1 F3600 X120 Y138.558 E881.1435
G0 F7800 X119.6 Y138.558
G1 F3600 X119.6 Y122.689 E881.80326
G0 F7800 X119.2 Y122.689
G1 F3600 X119.2 Y138.558 E882.46301
G0 F7800 X118.8 Y138.559
G1 F3600 X118.8 Y122.689 E883.12281
G0 F7800 X118.4 Y122.689
G1 F3600 X118.4 Y138.559 E883.78261
G0 F7800 X118 Y138.559
G1 F3600 X118 Y122.689 E884.44241
G0 F7800 X117.6 Y122.689
G1 F3600 X117.6 Y138.559 E885.1022
G0 F7800 X117.2 Y138.559
G1 F3600 X117.2 Y122.689 E885.762
G0 F7800 X116.8 Y122.689
G1 F3600 X116.8 Y138.559 E886.4218
G0 F7800 X116.4 Y138.559
G1 F3600 X116.4 Y122.689 E887.0816
G0 F7800 X116 Y122.689
G1 F3600 X116 Y138.559 E887.7414
G0 F7800 X115.6 Y138.559
G1 F3600 X115.6 Y122.689 E888.40119
G0 F7800 X115.2 Y122.689
G1 F3600 X115.2 Y138.559 E889.06099
G0 F7800 X114.8 Y138.559
G1 F3600 X114.8 Y122.689 E889.72079
G0 F7800 X114.4 Y122.689
G1 F3600 X114.4 Y138.559 E890.38059
G0 F7800 X114 Y138.559
G1 F3600 X114 Y122.689 E891.04039
G0 F7800 X113.6 Y122.689
G1 F3600 X113.6 Y138.559 E891.70018
G0 F7800 X113.2 Y138.559
G1 F3600 X113.2 Y122.689 E892.35998
G0 F7800 X112.8 Y122.689
G1 F3600 X112.8 Y138.559 E893.01978
G0 F7800 X112.4 Y138.559
G1 F3600 X112.4 Y122.689 E893.67958
G0 F7800 X112 Y122.689
G1 F3600 X112 Y138.559 E894.33938
G0 F7800 X111.6 Y138.559
G1 F3600 X111.6 Y122.689 E894.99917
G0 F7800 X111.2 Y122.689
G1 F3600 X111.2 Y138.559 E895.65897
G0 F7800 X110.8 Y138.559
G1 F3600 X110.8 Y122.689 E896.31877
G0 F7800 X110.4 Y122.689
G1 F3600 X110.4 Y138.559 E896.97857
G0 F7800 X110 Y138.559
G1 F3600 X110 Y122.689 E897.63837
G0 F7800 X109.6 Y122.689
G1 F3600 X109.6 Y138.559 E898.29816
G0 F7800 X109.2 Y138.559
G1 F3600 X109.2 Y122.689 E898.95796
G0 F7800 X108.8 Y122.689
G1 F3600 X108.8 Y138.559 E899.61776
G0 F7800 X108.4 Y138.559
G1 F3600 X108.4 Y122.689 E900.27756
G0 F7800 X108 Y122.689
G1 F3600 X108 Y138.559 E900.93735
G0 F7800 X107.6 Y138.559
G1 F3600 X107.6 Y122.689 E901.59715
G0 F7800 X107.2 Y122.689
G1 F3600 X107.2 Y138.559 E902.25695
G0 F7800 X106.8 Y138.559
G1 F3600 X106.8 Y122.689 E902.91675
G0 F7800 X106.4 Y122.689
G1 F3600 X106.4 Y138.559 E903.57655
G0 F7800 X106 Y138.559
G1 F3600 X106 Y122.689 E904.23634
G0 F7800 X105.6 Y122.689
G1 F3600 X105.6 Y138.559 E904.89614
G0 F7800 X105.2 Y138.559
G1 F3600 X105.2 Y122.689 E905.55594
G0 F7800 X104.8 Y122.689
G1 F3600 X104.8 Y138.559 E906.21574
G0 F7800 X104.4 Y138.559
G1 F3600 X104.4 Y122.689 E906.87554
G0 F7800 X104 Y122.689
G1 F3600 X104 Y138.559 E907.53533
G0 F7800 X103.6 Y138.559
G1 F3600 X103.6 Y122.689 E908.19513
G0 F7800 X103.2 Y122.689
G1 F3600 X103.2 Y138.559 E908.85493
G0 F7800 X102.8 Y138.559
G1 F3600 X102.8 Y122.689 E909.51473
G0 F7800 X102.4 Y122.689
G1 F3600 X102.4 Y138.559 E910.17453
G0 F7800 X102 Y138.559
G1 F3600 X102 Y122.689 E910.83432
G0 F7800 X101.6 Y122.689
G1 F3600 X101.6 Y138.559 E911.49412
G0 F7800 X101.2 Y138.559
G1 F3600 X101.2 Y122.689 E912.15392
G0 F7800 X100.8 Y122.689
G1 F3600 X100.8 Y138.559 E912.81372
G0 F7800 X100.4 Y138.559
G1 F3600 X100.4 Y122.689 E913.47352
G0 F7800 X100 Y122.689
G1 F3600 X100 Y138.56 E914.13335
G0 F7800 X99.6 Y138.56
G1 F3600 X99.6 Y122.689 E914.79319
G0 F7800 X99.2 Y122.689
G1 F3600 X99.2 Y138.56 E915.45303
G0 F7800 X98.8 Y138.56
G1 F3600 X98.8 Y122.689 E916.11287
G0 F7800 X98.4 Y122.689
G1 F3600 X98.4 Y138.56 E916.77271
G0 F7800 X98 Y138.56
G1 F3600 X98 Y122.689 E917.43255
G0 F7800 X97.6 Y122.689
G1 F3600 X97.6 Y138.56 E918.09239
G0 F7800 X97.2 Y138.56
G1 F3600 X97.2 Y122.689 E918.75223
G0 F7800 X96.8 Y122.689
G1 F3600 X96.8 Y138.56 E919.41207
G0 F7800 X96.4 Y138.56
G1 F3600 X96.4 Y122.689 E920.07191
G0 F7800 X96 Y122.689
G1 F3600 X96 Y138.56 E920.73175
G0 F7800 X95.6 Y138.56
G1 F3600 X95.6 Y122.689 E921.39159
G0 F7800 X95.2 Y122.689
G1 F3600 X95.2 Y138.56 E922.05143
G0 F7800 X94.8 Y138.56
G1 F3600 X94.8 Y122.689 E922.71127
G0 F7800 X94.4 Y122.689
G1 F3600 X94.4 Y138.56 E923.37111
G0 F7800 X94 Y138.56
G1 F3600 X94 Y122.689 E924.03095
G0 F7800 X93.6 Y122.689
G1 F3600 X93.6 Y138.56 E924.69079
G0 F7800 X93.2 Y138.56
G1 F3600 X93.2 Y122.689 E925.35063
G0 F7800 X92.8 Y122.689
G1 F3600 X92.8 Y138.56 E926.01047
G0 F7800 X92.4 Y138.56
G1 F3600 X92.4 Y122.689 E926.67031
G0 F7800 X92 Y122.689
G1 F3600 X92 Y138.56 E927.33015
G0 F7800 X91.6 Y138.56
G1 F3600 X91.6 Y122.689 E927.98998
G0 F7800 X91.2 Y122.689
G1 F3600 X91.2 Y138.56 E928.64982
G0 F7800 X90.8 Y138.56
G1 F3600 X90.8 Y122.689 E929.30966
G0 F7800 X90.4 Y122.689
G1 F3600 X90.4 Y138.56 E929.9695
G0 F7800 X90 Y138.56
G1 F3600 X90 Y122.689 E930.62934
G0 F7800 X89.6 Y122.689
G1 F3600 X89.6 Y138.56 E931.28918
G0 F7800 X89.2 Y138.56
G1 F3600 X89.2 Y122.689 E931.94902
G0 F7800 X88.8 Y122.689
G1 F3600 X88.8 Y138.56 E932.60886
G0 F7800 X88.4 Y138.56
G1 F3600 X88.4 Y122.689 E933.2687
G0 F7800 X88 Y122.689
G1 F3600 X88 Y138.56 E933.92854
G0 F7800 X87.6 Y138.56
G1 F3600 X87.6 Y122.689 E934.58838
G0 F7800 X87.2 Y122.689
G1 F3600 X87.2 Y138.56 E935.24822
G0 F7800 X86.8 Y138.56
G1 F3600 X86.8 Y122.689 E935.90806
G0 F7800 X86.4 Y122.689
G1 F3600 X86.4 Y138.56 E936.5679
G0 F7800 X86 Y138.56
G1 F3600 X86 Y122.689 E937.22774
G0 F7800 X85.6 Y122.689
G1 F3600 X85.6 Y138.56 E937.88758
G0 F7800 X85.2 Y138.56
G1 F3600 X85.2 Y122.689 E938.54742
G0 F7800 X84.8 Y122.689
G1 F3600 X84.8 Y138.56 E939.20726
G0 F7800 X84.4 Y138.56
G1 F3600 X84.4 Y122.689 E939.8671
G0 F7800 X84 Y122.689
G1 F3600 X84 Y138.56 E940.52694
G0 F7800 X83.6 Y138.56
G1 F3600 X83.6 Y122.689 E941.18677
G0 F7800 X83.2 Y122.689
G1 F3600 X83.2 Y138.56 E941.84661
G0 F7800 X82.8 Y138.56
G1 F3600 X82.8 Y122.689 E942.50645
G0 F7800 X82.4 Y122.689
G1 F3600 X82.4 Y138.56 E943.16629
G0 F7800 X82 Y138.56
G1 F3600 X82 Y122.689 E943.82613
G0 F7800 X81.6 Y122.689
G1 F3600 X81.6 Y138.56 E944.48597
G0 F7800 X81.2 Y138.56
G1 F3600 X81.2 Y122.689 E945.14581
G0 F7800 X80.8 Y122.689
G1 F3600 X80.8 Y138.56 E945.80565
G0 F7800 X80.4 Y138.56
G1 F3600 X80.4 Y122.689 E946.46549
G0 F7800 X80 Y122.689
G1 F3600 X80 Y138.56 E947.12533
G0 F7800 X79.6 Y138.56
G1 F3600 X79.6 Y122.689 E947.78517
G0 F7800 X79.2 Y122.689
G1 F3600 X79.2 Y138.56 E948.44501
G0 F7800 X78.8 Y138.56
G1 F3600 X78.8 Y122.689 E949.10485
G0 F7800 X78.4 Y122.689
G1 F3600 X78.4 Y138.56 E949.76469
G0 F7800 X78 Y138.56
G1 F3600 X78 Y122.689 E950.42453
G0 F7800 X77.6 Y122.689
G1 F3600 X77.6 Y138.56 E951.08437
G0 F7800 X77.2 Y138.56
G1 F3600 X77.2 Y122.689 E951.74421
G0 F7800 X76.8 Y122.689
G1 F3600 X76.8 Y138.56 E952.40405
G0 F7800 X76.4 Y138.56
G1 F3600 X76.4 Y122.689 E953.06389
G0 F7800 X76 Y122.689
G1 F3600 X76 Y138.56 E953.72373
G0 F7800 X75.6 Y138.56
G1 F3600 X75.6 Y122.689 E954.38356
G0 F7800 X75.2 Y122.689
G1 F3600 X75.2 Y138.56 E955.0434
G0 F7800 X74.8 Y138.56
G1 F3600 X74.8 Y122.689 E955.70324
G0 F7800 X74.4 Y122.689
G1 F3600 X74.4 Y138.56 E956.36308
G0 F7800 X74 Y138.56
G1 F3600 X74 Y122.689 E957.02292
G0 F7800 X73.6 Y122.689
G1 F3600 X73.6 Y138.56 E957.68276
G0 F7800 X73.2 Y138.56
G1 F3600 X73.2 Y122.689 E958.3426
G0 F7800 X72.8 Y122.689
G1 F3600 X72.8 Y138.56 E959.00244
G0 F7800 X72.4 Y138.56
G1 F3600 X72.4 Y122.689 E959.66228
G0 F7800 X72 Y122.689
G1 F3600 X72 Y138.56 E960.32212
G0 F7800 X71.6 Y138.56
G1 F3600 X71.6 Y122.689 E960.98196
G0 F7800 X71.2 Y122.689
G1 F3600 X71.2 Y138.56 E961.6418
G0 F7800 X70.8 Y138.56
G1 F3600 X70.8 Y122.689 E962.30164
G0 F7800 X70.4 Y122.689
G1 F3600 X70.4 Y138.56 E962.96148
G0 F7800 X70 Y138.56
G1 F3600 X70 Y61.44 E966.16776
G0 F7800 X70.4 Y61.44
G1 F3600 X70.4 Y77.059 E966.81712
G0 F7800 X70.8 Y77.059
G1 F3600 X70.8 Y61.44 E967.46648
G0 F7800 X71.2 Y61.44
G1 F3600 X71.2 Y77.059 E968.11584
G0 F7800 X71.6 Y77.059
G1 F3600 X71.6 Y61.44 E968.76521
G0 F7800 X72 Y61.44
G1 F3600 X72 Y77.059 E969.41457
G0 F7800 X72.4 Y77.059
G1 F3600 X72.4 Y61.44 E970.06393
G0 F7800 X72.8 Y61.44
G1 F3600 X72.8 Y77.059 E970.71329
G0 F7800 X73.2 Y77.059
G1 F3600 X73.2 Y61.44 E971.36266
G0 F7800 X73.6 Y61.44
G1 F3600 X73.6 Y77.059 E972.01202
G0 F7800 X74 Y77.059
G1 F3600 X74 Y61.44 E972.66138
G0 F7800 X74.4 Y61.44
G1 F3600 X74.4 Y77.059 E973.31074
G0 F7800 X74.8 Y77.059
G1 F3600 X74.8 Y61.44 E973.96011
G0 F7800 X75.2 Y61.44
G1 F3600 X75.2 Y77.059 E974.60947
G0 F7800 X75.6 Y77.059
G1 F3600 X75.6 Y61.44 E975.25883
G0 F7800 X76 Y61.44
G1 F3600 X76 Y77.059 E975.90819
G0 F7800 X76.4 Y77.059
G1 F3600 X76.4 Y61.44 E976.55756
G0 F7800 X76.8 Y61.44
G1 F3600 X76.8 Y77.059 E977.20692
G0 F7800 X77.2 Y77.059
G1 F3600 X77.2 Y61.44 E977.85628
G0 F7800 X77.6 Y61.44
G1 F3600 X77.6 Y77.059 E978.50564
G0 F7800 X78 Y77.059
G1 F3600 X78 Y61.44 E979.15501
G0 F7800 X78.4 Y61.44
G1 F3600 X78.4 Y77.059 E979.80437
G0 F7800 X78.8 Y77.059
G1 F3600 X78.8 Y61.44 E980.45373
G0 F7800 X79.2 Y61.44
G1 F3600 X79.2 Y77.059 E981.10309
G0 F7800 X79.6 Y77.059
G1 F3600 X79.6 Y61.44 E981.75246
G0 F7800 X80 Y61.44
G1 F3600 X80 Y77.059 E982.40182
G0 F7800 X80.4 Y77.059
G1 F3600 X80.4 Y61.44 E983.05118
G0 F7800 X80.8 Y61.44
G1 F3600 X80.8 Y77.059 E983.70054
G0 F7800 X81.2 Y77.059
G1 F3600 X81.2 Y61.44 E984.34991
G0 F7800 X81.6 Y61.44
G1 F3600 X81.6 Y77.059 E984.99927
G0 F7800 X82 Y77.059
G1 F3600 X82 Y61.44 E985.64863
G0 F7800 X82.4 Y61.44
G1 F3600 X82.4 Y77.059 E986.29799
G0 F7800 X82.8 Y77.059
G1 F3600 X82.8 Y61.44 E986.94736
G0 F7800 X83.2 Y61.44
G1 F3600 X83.2 Y77.059 E987.59672
G0 F7800 X83.6 Y77.059
G1 F3600 X83.6 Y61.44 E988.24608
G0 F7800 X84 Y61.44
G1 F3600 X84 Y77.059 E988.89544
G0 F7800 X84.4 Y77.059
G1 F3600 X84.4 Y61.44 E989.54481
G0 F7800 X84.8 Y61.44
G1 F3600 X84.8 Y77.059 E990.19417
G0 F7800 X85.2 Y77.059
G1 F3600 X85.2 Y61.44 E990.84353
G0 F7800 X85.6 Y61.44
G1 F3600 X85.6 Y77.059 E991.4929
G0 F7800 X86 Y77.059
G1 F3600 X86 Y61.44 E992.14226
G0 F7800 X86.4 Y61.44
G1 F3600 X86.4 Y77.059 E992.79162
G0 F7800 X86.8 Y77.059
G1 F3600 X86.8 Y61.44 E993.44098
G0 F7800 X87.2 Y61.44
G1 F3600 X87.2 Y77.059 E994.09035
G0 F7800 X87.6 Y77.059
G1 F3600 X87.6 Y61.44 E994.73971
G0 F7800 X88 Y61.44
G1 F3600 X88 Y77.059 E995.38907
G0 F7800 X88.4 Y77.059
G1 F3600 X88.4 Y61.44 E996.03843
G0 F7800 X88.8 Y61.44
G1 F3600 X88.8 Y77.059 E996.6878
G0 F7800 X89.2 Y77.059
G1 F3600 X89.2 Y61.44 E997.33716
G0 F7800 X89.6 Y61.44
G1 F3600 X89.6 Y77.059 E997.98652
G0 F7800 X90 Y77.059
G1 F3600 X90 Y61.44 E998.63588
G0 F7800 X90.4 Y61.44
G1 F3600 X90.4 Y77.059 E999.28525
G0 F7800 X90.8 Y77.059
G1 F3600 X90.8 Y61.44 E999.93461
G0 F7800 X91.2 Y61.44
G1 F3600 X91.2 Y77.059 E1000.58397
G0 F7800 X91.6 Y77.059
G1 F3600 X91.6 Y61.44 E1001.23333
G0 F7800 X92 Y61.44
G1 F3600 X92 Y77.059 E1001.8827
G0 F7800 X92.4 Y77.059
G1 F3600 X92.4 Y61.44 E1002.53206
G0 F7800 X92.8 Y61.44
G1 F3600 X92.8 Y77.059 E1003.18142
G0 F7800 X93.2 Y77.059
G1 F3600 X93.2 Y61.44 E1003.83078
G0 F7800 X93.6 Y61.44
G1 F3600 X93.6 Y77.059 E1004.48015
G0 F7800 X94 Y77.059
G1 F3600 X94 Y61.44 E1005.12951
G0 F7800 X94.4 Y61.44
G1 F3600 X94.4 Y77.059 E1005.77887
G0 F7800 X94.8 Y77.059
G1 F3600 X94.8 Y61.44 E1006.42823
G0 F7800 X95.2 Y61.44
G1 F3600 X95.2 Y77.059 E1007.0776
G0 F7800 X95.6 Y77.059
G1 F3600 X95.6 Y61.44 E1007.72696
G0 F7800 X96 Y61.44
G1 F3600 X96 Y77.059 E1008.37632
G0 F7800 X96.4 Y77.059
G1 F3600 X96.4 Y61.44 E1009.02568
G0 F7800 X96.8 Y61.44
G1 F3600 X96.8 Y77.059 E1009.67505
G0 F7800 X97.2 Y77.059
G1 F3600 X97.2 Y61.44 E1010.32441
G0 F7800 X97.6 Y61.44
G1 F3600 X97.6 Y77.059 E1010.97377
G0 F7800 X98 Y77.059
G1 F3600 X98 Y61.44 E1011.62313
G0 F7800 X98.4 Y61.44
G1 F3600 X98.4 Y77.059 E1012.2725
G0 F7800 X98.8 Y77.059
G1 F3600 X98.8 Y61.44 E1012.92186
G0 F7800 X99.2 Y61.44
G1 F3600 X99.2 Y77.059 E1013.57122
G0 F7800 X99.6 Y77.059
G1 F3600 X99.6 Y61.44 E1014.22058
G0 F7800 X100 Y61.439
G1 F3600 X100 Y77.059 E1014.86999
G0 F7800 X100.4 Y77.059
G1 F3600 X100.4 Y61.439 E1015.51939
G0 F7800 X100.8 Y61.439
G1 F3600 X100.8 Y77.059 E1016.1688
G0 F7800 X101.2 Y77.059
G1 F3600 X101.2 Y61.439 E1016.8182
G0 F7800 X101.6 Y61.439
G1 F3600 X101.6 Y77.059 E1017.46761
G0 F7800 X102 Y77.059
G1 F3600 X102 Y61.439 E1018.11701
G0 F7800 X102.4 Y61.439
G1 F3600 X102.4 Y77.059 E1018.76641
G0 F7800 X102.8 Y77.059
G1 F3600 X102.8 Y61.439 E1019.41582
G0 F7800 X103.2 Y61.439
G1 F3600 X103.2 Y77.059 E1020.06522
G0 F7800 X103.6 Y77.059
G1 F3600 X103.6 Y61.439 E1020.71463
G0 F7800 X104 Y61.439
G1 F3600 X104 Y77.059 E1021.36403
G0 F7800 X104.4 Y77.059
G1 F3600 X104.4 Y61.439 E1022.01343
G0 F7800 X104.8 Y61.439
G1 F3600 X104.8 Y77.059 E1022.66284
G0 F7800 X105.2 Y77.059
G1 F3600 X105.2 Y61.439 E1023.31224
G0 F7800 X105.6 Y61.439
G1 F3600 X105.6 Y77.059 E1023.96165
G0 F7800 X106 Y77.059
G1 F3600 X106 Y61.439 E1024.61105
G0 F7800 X106.4 Y61.439
G1 F3600 X106.4 Y77.059 E1025.26046
G0 F7800 X106.8 Y77.059
G1 F3600 X106.8 Y61.439 E1025.90986
G0 F7800 X107.2 Y61.439
G1 F3600 X107.2 Y77.059 E1026.55926
G0 F7800 X107.6 Y77.059
G1 F3600 X107.6 Y61.439 E1027.20867
G0 F7800 X108 Y61.439
G1 F3600 X108 Y77.059 E1027.85807
G0 F7800 X108.4 Y77.059
G1 F3600 X108.4 Y61.439 E1028.50748
G0 F7800 X108.8 Y61.439
G1 F3600 X108.8 Y77.059 E1029.15688
G0 F7800 X109.2 Y77.059
G1 F3600 X109.2 Y61.439 E1029.80628
G0 F7800 X109.6 Y61.439
G1 F3600 X109.6 Y77.059 E1030.45569
G0 F7800 X110 Y77.059
G1 F3600 X110 Y61.439 E1031.10509
G0 F7800 X110.4 Y61.439
G1 F3600 X110.4 Y77.059 E1031.7545
G0 F7800 X110.8 Y77.059
G1 F3600 X110.8 Y61.439 E1032.4039
G0 F7800 X111.2 Y61.439
G1 F3600 X111.2 Y77.059 E1033.0533
G0 F7800 X111.6 Y77.059
G1 F3600 X111.6 Y61.439 E1033.70271
G0 F7800 X112 Y61.439
G1 F3600 X112 Y77.059 E1034.35211
G0 F7800 X112.4 Y77.059
G1 F3600 X112.4 Y61.439 E1035.00152
G0 F7800 X112.8 Y61.439
G1 F3600 X112.8 Y77.059 E1035.65092
G0 F7800 X113.2 Y77.059
G1 F3600 X113.2 Y61.439 E1036.30033
G0 F7800 X113.6 Y61.439
G1 F3600 X113.6 Y77.059 E1036.94973
G0 F7800 X114 Y77.059
G1 F3600 X114 Y61.439 E1037.59913
G0 F7800 X114.4 Y61.439
G1 F3600 X114.4 Y77.059 E1038.24854
G0 F7800 X114.8 Y77.059
G1 F3600 X114.8 Y61.439 E1038.89794
G0 F7800 X115.2 Y61.439
G1 F3600 X115.2 Y77.059 E1039.54735
G0 F7800 X115.6 Y77.059
G1 F3600 X115.6 Y61.439 E1040.19675
G0 F7800 X116 Y61.439
G1 F3600 X116 Y77.059 E1040.84615
G0 F7800 X116.4 Y77.059
G1 F3600 X116.4 Y61.439 E1041.49556
G0 F7800 X116.8 Y61.439
G1 F3600 X116.8 Y77.059 E1042.14496
G0 F7800 X117.2 Y77.059
G1 F3600 X117.2 Y61.439 E1042.79437
G0 F7800 X117.6 Y61.439
G1 F3600 X117.6 Y77.059 E1043.44377
G0 F7800 X118 Y77.059
G1 F3600 X118 Y61.439 E1044.09318
G0 F7800 X118.4 Y61.439
G1 F3600 X118.4 Y77.059 E1044.74258
G0 F7800 X118.8 Y77.059
G1 F3600 X118.8 Y61.439 E1045.39198
G0 F7800 X119.2 Y61.439
G1 F3600 X119.2 Y77.059 E1046.04139
G0 F7800 X119.6 Y77.059
G1 F3600 X119.6 Y61.439 E1046.69079
G0 F7800 X120 Y61.439
G1 F3600 X120 Y77.059 E1047.3402
G0 F7800 X120.4 Y77.059
G1 F3600 X120.4 Y61.439 E1047.9896
G0 F7800 X120.8 Y61.439
G1 F3600 X120.8 Y77.059 E1048.639
G0 F7800 X121.2 Y77.059
G1 F3600 X121.2 Y61.439 E1049.28841
G0 F7800 X121.6 Y61.439
G1 F3600 X121.6 Y77.059 E1049.93781
G0 F7800 X122 Y77.059
G1 F3600 X122 Y61.439 E1050.58722
G0 F7800 X122.4 Y61.439
G1 F3600 X122.4 Y77.059 E1051.23662
G0 F7800 X122.8 Y77.059
G1 F3600 X122.8 Y61.439 E1051.88602
G0 F7800 X123.2 Y61.439
G1 F3600 X123.2 Y77.059 E1052.53543
G0 F7800 X123.6 Y77.059
G1 F3600 X123.6 Y61.439 E1053.18483
G0 F7800 X124 Y61.439
G1 F3600 X124 Y77.059 E1053.83424
G0 F7800 X124.4 Y77.059
G1 F3600 X124.4 Y61.439 E1054.48364
G0 F7800 X124.8 Y61.439
G1 F3600 X124.8 Y77.059 E1055.13305
G0 F7800 X125.2 Y77.059
G1 F3600 X125.2 Y61.439 E1055.78245
G0 F7800 X125.6 Y61.439
G1 F3600 X125.6 Y77.059 E1056.43185
G0 F7800 X126 Y77.059
G1 F3600 X126 Y61.439 E1057.08126
G0 F7800 X126.4 Y61.439
G1 F3600 X126.4 Y77.059 E1057.73066
G0 F7800 X126.8 Y77.059
G1 F3600 X126.8 Y61.439 E1058.38007
G0 F7800 X127.2 Y61.439
G1 F3600 X127.2 Y77.059 E1059.02947
G0 F7800 X127.6 Y77.059
G1 F3600 X127.6 Y61.439 E1059.67887
G0 F7800 X128 Y61.439
G1 F3600 X128 Y77.059 E1060.32828
G0 F7800 X128.4 Y77.059
G1 F3600 X128.4 Y61.439 E1060.97768
G0 F7800 X128.8 Y61.439
G1 F3600 X128.8 Y77.059 E1061.62709
G0 F7800 X129.2 Y77.059
G1 F3600 X129.2 Y61.439 E1062.27649
G0 F7800 X129.6 Y61.439
G1 F3600 X129.6 Y77.059 E1062.9259
G0 F7800 X130 Y77.059
G1 F3600 X130 Y61.439 E1063.5753
G0 F7800 X130.4 Y61.439
G1 F3600 X130.4 Y77.059 E1064.2247
G0 F7800 X130.8 Y77.059
G1 F3600 X130.8 Y61.439 E1064.87411
G0 F7800 X131.2 Y61.439
G1 F3600 X131.2 Y77.059 E1065.52351
G0 F7800 X131.6 Y77.059
G1 F3600 X131.6 Y61.439 E1066.17292
G0 F7800 X132 Y61.439
G1 F3600 X132 Y77.059 E1066.82232
G0 F7800 X132.4 Y77.059
G1 F3600 X132.4 Y61.439 E1067.47172
G0 F7800 X132.8 Y61.439
G1 F3600 X132.8 Y77.059 E1068.12113
G0 F7800 X133.2 Y77.059
G1 F3600 X133.2 Y61.439 E1068.77053
G0 F7800 X133.6 Y61.439
G1 F3600 X133.6 Y77.059 E1069.41994
G0 F7800 X134 Y77.059
G1 F3600 X134 Y61.439 E1070.06934
G0 F7800 X134.4 Y61.439
G1 F3600 X134.4 Y77.059 E1070.71874
G0 F7800 X134.8 Y77.059
G1 F3600 X134.8 Y61.439 E1071.36815
G0 F7800 X135.2 Y61.439
G1 F3600 X135.2 Y77.059 E1072.01755
G0 F7800 X135.6 Y77.059
G1 F3600 X135.6 Y61.439 E1072.66696
G0 F7800 X136 Y61.439
G1 F3600 X136 Y77.059 E1073.31636
G0 F7800 X136.4 Y77.059
G1 F3600 X136.4 Y61.439 E1073.96577
G0 F7800 X150 Y62.155
G1 F3600 X150 Y137.839 E1077.11234
G0 F7800 X150.4 Y137.598
G1 F3600 X150.4 Y62.406 E1080.23846
G0 F7800 X150.8 Y62.682
G1 F3600 X150.8 Y137.317 E1083.34142
G0 F7800 X151.2 Y137.037
G1 F3600 X151.2 Y62.958 E1086.42127
G0 F7800 X151.6 Y63.235
G1 F3600 X151.6 Y136.756 E1089.47792
G0 F7800 X152 Y136.312
G1 F3600 X152 Y63.684 E1092.49744
G0 F7800 X152.4 Y64.234
G1 F3600 X152.4 Y135.762 E1095.47123
G0 F7800 X152.8 Y135.212
G1 F3600 X152.8 Y64.784 E1098.39928
G0 F7800 X153.2 Y65.588
G1 F3600 X153.2 Y134.406 E1101.2604
G1 F1800 E1100.2604
G0 F7800 X69.6 Y138.56
G1 F1800 E1101.2604
G1 F3600 X69.6 Y61.44 E1104.46668
G0 F7800 X69.2 Y61.44
G1 F3600 X69.2 Y138.56 E1107.67296
G0 F7800 X68.8 Y138.56
G1 F3600 X68.8 Y61.44 E1110.87924
G0 F7800 X68.4 Y61.44
G1 F3600 X68.4 Y138.56 E1114.08551
G0 F7800 X68 Y138.56
G1 F3600 X68 Y61.44 E1117.29179
G0 F7800 X67.6 Y61.44
G1 F3600 X67.6 Y138.56 E1120.49807
G0 F7800 X67.2 Y138.56
G1 F3600 X67.2 Y61.44 E1123.70434
G0 F7800 X66.8 Y61.44
G1 F3600 X66.8 Y138.56 E1126.91062
G0 F7800 X66.4 Y138.56
G1 F3600 X66.4 Y61.44 E1130.1169
G0 F7800 X66 Y61.44
G1 F3600 X66 Y138.56 E1133.32317
G0 F7800 X65.6 Y138.56
G1 F3600 X65.6 Y61.44 E1136.52945
G0 F7800 X65.2 Y61.44
G1 F3600 X65.2 Y138.56 E1139.73573
G0 F7800 X64.8 Y138.56
G1 F3600 X64.8 Y61.44 E1142.94201
G0 F7800 X64.4 Y61.44
G1 F3600 X64.4 Y138.56 E1146.14828
G0 F7800 X64 Y138.56
G1 F3600 X64 Y61.44 E1149.35456
G0 F7800 X63.6 Y61.44
G1 F3600 X63.6 Y138.56 E1152.56084
G0 F7800 X63.2 Y138.56
G1 F3600 X63.2 Y61.44 E1155.76711
G0 F7800 X62.8 Y61.44
G1 F3600 X62.8 Y138.56 E1158.97339
G0 F7800 X62.4 Y138.56
G1 F3600 X62.4 Y61.44 E1162.17967
G0 F7800 X62 Y61.44
G1 F3600 X62 Y138.56 E1165.38594
G0 F7800 X61.6 Y138.56
G1 F3600 X61.6 Y61.44 E1168.59222
G0 F7800 X61.2 Y61.44
G1 F3600 X61.2 Y138.56 E1171.7985
G0 F7800 X60.8 Y138.56
G1 F3600 X60.8 Y61.44 E1175.00478
G0 F7800 X60.4 Y61.44
G1 F3600 X60.4 Y138.56 E1178.21105
G0 F7800 X60 Y138.56
G1 F3600 X60 Y61.44 E1181.41733
G0 F7800 X59.6 Y61.44
G1 F3600 X59.6 Y138.56 E1184.62361
G0 F7800 X59.2 Y138.56
G1 F3600 X59.2 Y61.44 E1187.82988
G0 F7800 X58.8 Y61.44
G1 F3600 X58.8 Y138.56 E1191.03616
G0 F7800 X58.4 Y138.56
G1 F3600 X58.4 Y61.44 E1194.24244
G0 F7800 X58 Y61.44
G1 F3600 X58 Y138.56 E1197.44871
G0 F7800 X57.6 Y138.56
G1 F3600 X57.6 Y61.44 E1200.65499
G0 F7800 X57.2 Y61.44
G1 F3600 X57.2 Y138.56 E1203.86127
G0 F7800 X56.8 Y138.56
G1 F3600 X56.8 Y61.44 E1207.06755
G0 F7800 X56.4 Y61.44
G1 F3600 X56.4 Y138.56 E1210.27382
G0 F7800 X56 Y138.56
G1 F3600 X56 Y61.44 E1213.4801
G0 F7800 X55.6 Y61.44
G1 F3600 X55.6 Y138.56 E1216.68638
G0 F7800 X55.2 Y138.56
G1 F3600 X55.2 Y61.44 E1219.89265
G0 F7800 X54.8 Y61.44
G1 F3600 X54.8 Y138.56 E1223.09893
G0 F7800 X54.4 Y138.56
G1 F3600 X54.4 Y61.44 E1226.30521
G0 F7800 X54 Y61.44
G1 F3600 X54 Y138.56 E1229.51148
G0 F7800 X53.6 Y138.56
G1 F3600 X53.6 Y61.44 E1232.71776
G0 F7800 X53.2 Y61.44
G1 F3600 X53.2 Y138.56 E1235.92404
G0 F7800 X52.8 Y138.539
G1 F3600 X52.8 Y61.459 E1239.12865
G0 F7800 X52.4 Y61.505
G1 F3600 X52.4 Y138.495 E1242.32953
G0 F7800 X52 Y138.45
G1 F3600 X52 Y61.552 E1245.52657
G0 F7800 X51.6 Y61.599
G1 F3600 X51.6 Y138.405 E1248.71979
G0 F7800 X51.2 Y138.265
G1 F3600 X51.2 Y61.73 E1251.90175
G0 F7800 X50.8 Y61.873
G1 F3600 X50.8 Y138.124 E1255.0719
G0 F7800 X50.4 Y137.984
G1 F3600 X50.4 Y62.016 E1258.23028
G0 F7800 X50 Y62.159
G1 F3600 X50 Y137.844 E1261.3769
G0 F7800 X49.6 Y137.594
G1 F3600 X49.6 Y62.399 E1264.50314
G0 F7800 X49.2 Y62.679
G1 F3600 X49.2 Y137.318 E1267.60627
G0 F7800 X48.8 Y137.041
G1 F3600 X48.8 Y62.96 E1270.6862
G0 F7800 X48.4 Y63.24
G1 F3600 X48.4 Y136.765 E1273.74302
G0 F7800 X48 Y136.317
G1 F3600 X48 Y63.684 E1276.76275
G0 F7800 X47.6 Y64.233
G1 F3600 X47.6 Y135.767 E1279.73678
G0 F7800 X47.2 Y135.216
G1 F3600 X47.2 Y64.783 E1282.66505
G0 F7800 X46.8 Y65.576
G1 F3600 X46.8 Y134.424 E1285.52741
; RAFT SURFACE
; Layer Change GCode
; LAYER:-1
G0 F7800 X46.763 Y134.256 Z1.05
; TYPE:SUPPORT
G1 F3600 X70.06 Y110.958 E1286.89722
G0 F7800 X70.06 Y110.392
G1 F3600 X46.659 Y133.794 E1288.27314
G0 F7800 X46.555 Y133.332
G1 F3600 X70.06 Y109.827 E1289.65514
G0 F7800 X70.06 Y109.261
G1 F3600 X46.451 Y132.87 E1291.04326
G0 F7800 X46.441 Y132.315
G1 F3600 X70.06 Y108.695 E1292.432
G0 F7800 X70.06 Y108.13
G1 F3600 X46.441 Y131.749 E1293.8207
G0 F7800 X46.441 Y131.183
G1 F3600 X70.06 Y107.564 E1295.20941
G0 F7800 X70.06 Y106.998
G1 F3600 X46.441 Y130.618 E1296.59814
G0 F7800 X46.441 Y130.052
G1 F3600 X70.06 Y106.433 E1297.98685
G0 F7800 X70.06 Y105.867
G1 F3600 X46.441 Y129.486 E1299.37556
G0 F7800 X46.441 Y128.921
G1 F3600 X70.06 Y105.301 E1300.76429
G0 F7800 X70.06 Y104.735
G1 F3600 X46.441 Y128.355 E1302.15303
G0 F7800 X46.441 Y127.789
G1 F3600 X70.06 Y104.17 E1303.54174
G0 F7800 X70.06 Y103.604
G1 F3600 X46.441 Y127.224 E1304.93047
G0 F7800 X46.441 Y126.658
G1 F3600 X70.06 Y103.038 E1306.31921
G0 F7800 X70.06 Y102.473
G1 F3600 X46.441 Y126.092 E1307.70792
G0 F7800 X46.441 Y125.527
G1 F3600 X70.06 Y101.907 E1309.09665
G0 F7800 X70.06 Y101.341
G1 F3600 X46.441 Y124.961 E1310.48539
G0 F7800 X46.441 Y124.395
G1 F3600 X70.06 Y100.776 E1311.87409
G0 F7800 X70.06 Y100.21
G1 F3600 X46.441 Y123.829 E1313.2628
G0 F7800 X46.441 Y123.264
G1 F3600 X70.06 Y99.644 E1314.65154
G0 F7800 X70.06 Y99.079
G1 F3600 X46.441 Y122.698 E1316.04024
G0 F7800 X46.441 Y122.132
G1 F3600 X70.06 Y98.513 E1317.42895
G0 F7800 X70.06 Y97.947
G1 F3600 X46.441 Y121.567 E1318.81769
G0 F7800 X46.441 Y121.001
G1 F3600 X70.06 Y97.382 E1320.20639
G0 F7800 X70.06 Y96.816
G1 F3600 X46.441 Y120.435 E1321.5951
G0 F7800 X46.441 Y119.87
G1 F3600 X70.06 Y96.25 E1322.98384
G0 F7800 X70.06 Y95.684
G1 F3600 X46.441 Y119.304 E1324.37257
G0 F7800 X46.441 Y118.738
G1 F3600 X70.06 Y95.119 E1325.76128
G0 F7800 X70.06 Y94.553
G1 F3600 X46.441 Y118.173 E1327.15002
G0 F7800 X46.441 Y117.607
G1 F3600 X70.06 Y93.987 E1328.53875
G0 F7800 X70.06 Y93.422
G1 F3600 X46.441 Y117.041 E1329.92746
G0 F7800 X46.441 Y116.476
G1 F3600 X70.06 Y92.856 E1331.31619
G0 F7800 X70.06 Y92.29
G1 F3600 X46.441 Y115.91 E1332.70493
G0 F7800 X46.441 Y115.344
G1 F3600 X70.06 Y91.725 E1334.09364
G0 F7800 X70.06 Y91.159
G1 F3600 X46.441 Y114.778 E1335.48234
G0 F7800 X46.441 Y114.213
G1 F3600 X70.06 Y90.593 E1336.87108
G0 F7800 X70.06 Y90.028
G1 F3600 X46.441 Y113.647 E1338.25979
G0 F7800 X46.441 Y113.081
G1 F3600 X70.06 Y89.462 E1339.64849
G0 F7800 X70.06 Y88.896
G1 F3600 X46.441 Y112.516 E1341.03723
G0 F7800 X46.441 Y111.95
G1 F3600 X70.06 Y88.331 E1342.42594
G0 F7800 X70.06 Y87.765
G1 F3600 X46.441 Y111.384 E1343.81464
G0 F7800 X46.441 Y110.819
G1 F3600 X70.06 Y87.199 E1345.20338
G0 F7800 X70.06 Y86.634
G1 F3600 X46.441 Y110.253 E1346.59209
G0 F7800 X46.441 Y109.687
G1 F3600 X70.06 Y86.068 E1347.98079
G0 F7800 X70.06 Y85.502
G1 F3600 X46.441 Y109.122 E1349.36953
G0 F7800 X46.441 Y108.556
G1 F3600 X70.06 Y84.936 E1350.75826
G0 F7800 X70.06 Y84.371
G1 F3600 X46.441 Y107.99 E1352.14697
G0 F7800 X46.441 Y107.425
G1 F3600 X70.06 Y83.805 E1353.53571
G0 F7800 X70.06 Y83.239
G1 F3600 X46.441 Y106.859 E1354.92444
G0 F7800 X46.441 Y106.293
G1 F3600 X70.06 Y82.674 E1356.31315
G0 F7800 X70.06 Y82.108
G1 F3600 X46.441 Y105.728 E1357.70189
G0 F7800 X46.441 Y105.162
G1 F3600 X70.06 Y81.542 E1359.09062
G0 F7800 X70.06 Y80.977
G1 F3600 X46.441 Y104.596 E1360.47933
G0 F7800 X46.441 Y104.03
G1 F3600 X70.06 Y80.411 E1361.86804
G0 F7800 X70.06 Y79.845
G1 F3600 X46.441 Y103.465 E1363.25677
G0 F7800 X46.441 Y102.899
G1 F3600 X70.06 Y79.28 E1364.64548
G0 F7800 X70.06 Y78.714
G1 F3600 X46.441 Y102.333 E1366.03418
G0 F7800 X46.441 Y101.768
G1 F3600 X70.06 Y78.148 E1367.42292
G0 F7800 X70.06 Y77.583
G1 F3600 X46.441 Y101.202 E1368.81163
G0 F7800 X46.441 Y100.636
G1 F3600 X85.637 Y61.44 E1371.1162
G0 F7800 X85.072 Y61.44
G1 F3600 X46.441 Y100.071 E1373.38756
G0 F7800 X46.44 Y99.506
G1 F3600 X84.506 Y61.44 E1375.62569
G0 F7800 X83.94 Y61.44
G1 F3600 X46.44 Y98.94 E1377.83055
G0 F7800 X46.44 Y98.374
G1 F3600 X83.374 Y61.44 E1380.00213
G0 F7800 X82.809 Y61.44
G1 F3600 X46.44 Y97.809 E1382.14048
G0 F7800 X46.44 Y97.243
G1 F3600 X82.243 Y61.44 E1384.24556
G0 F7800 X81.677 Y61.44
G1 F3600 X46.44 Y96.677 E1386.31736
G0 F7800 X46.44 Y96.112
G1 F3600 X81.112 Y61.44 E1388.35594
G0 F7800 X80.546 Y61.44
G1 F3600 X46.44 Y95.546 E1390.36125
G0 F7800 X46.44 Y94.98
G1 F3600 X79.98 Y61.44 E1392.33327
G0 F7800 X79.415 Y61.44
G1 F3600 X46.44 Y94.415 E1394.27207
G0 F7800 X46.44 Y93.849
G1 F3600 X78.849 Y61.44 E1396.1776
G0 F7800 X78.283 Y61.44
G1 F3600 X46.44 Y93.283 E1398.04984
G0 F7800 X46.44 Y92.717
G1 F3600 X77.718 Y61.44 E1399.88884
G0 F7800 X77.152 Y61.44
G1 F3600 X46.44 Y92.152 E1401.69459
G0 F7800 X46.44 Y91.586
G1 F3600 X76.586 Y61.44 E1403.46706
G0 F7800 X76.021 Y61.44
G1 F3600 X46.44 Y91.02 E1405.20628
G0 F7800 X46.44 Y90.455
G1 F3600 X75.455 Y61.44 E1406.91225
G0 F7800 X74.889 Y61.44
G1 F3600 X46.44 Y89.889 E1408.58494
G0 F7800 X46.44 Y89.323
G1 F3600 X74.323 Y61.44 E1410.22436
G0 F7800 X73.758 Y61.44
G1 F3600 X46.44 Y88.758 E1411.83055
G0 F7800 X46.44 Y88.192
G1 F3600 X73.192 Y61.44 E1413.40346
G0 F7800 X72.626 Y61.44
G1 F3600 X46.44 Y87.626 E1414.9431
G0 F7800 X46.44 Y87.061
G1 F3600 X72.061 Y61.44 E1416.44952
G0 F7800 X71.495 Y61.44
G1 F3600 X46.44 Y86.495 E1417.92265
G0 F7800 X46.44 Y85.929
G1 F3600 X70.929 Y61.44 E1419.36251
G0 F7800 X70.364 Y61.44
G1 F3600 X46.44 Y85.364 E1420.76915
G0 F7800 X46.44 Y84.798
G1 F3600 X69.798 Y61.44 E1422.14251
G0 F7800 X69.232 Y61.44
G1 F3600 X46.44 Y84.232 E1423.4826
G0 F7800 X46.44 Y83.666
G1 F3600 X68.667 Y61.44 E1424.78943
G0 F7800 X68.101 Y61.44
G1 F3600 X46.44 Y83.101 E1426.06301
G0 F7800 X46.44 Y82.535
G1 F3600 X67.535 Y61.44 E1427.30332
G0 F7800 X66.97 Y61.44
G1 F3600 X46.44 Y81.969 E1428.51037
G0 F7800 X46.44 Y81.404
G1 F3600 X66.404 Y61.44 E1429.68418
G0 F7800 X65.838 Y61.44
G1 F3600 X46.44 Y80.838 E1430.82471
G0 F7800 X46.44 Y80.272
G1 F3600 X65.273 Y61.44 E1431.93199
G0 F7800 X64.707 Y61.44
G1 F3600 X46.44 Y79.707 E1433.00602
G0 F7800 X46.44 Y79.141
G1 F3600 X64.141 Y61.44 E1434.04677
G0 F7800 X63.575 Y61.44
G1 F3600 X46.44 Y78.575 E1435.05424
G0 F7800 X46.44 Y78.01
G1 F3600 X63.01 Y61.44 E1436.02849
G0 F7800 X62.444 Y61.44
G1 F3600 X46.44 Y77.444 E1436.96947
G0 F7800 X46.44 Y76.878
G1 F3600 X61.878 Y61.44 E1437.87716
G0 F7800 X61.313 Y61.44
G1 F3600 X46.44 Y76.313 E1438.75164
G0 F7800 X46.44 Y75.747
G1 F3600 X60.747 Y61.44 E1439.59284
G0 F7800 X60.181 Y61.44
G1 F3600 X46.44 Y75.181 E1440.40075
G0 F7800 X46.44 Y74.616
G1 F3600 X59.616 Y61.44 E1441.17545
G0 F7800 X59.05 Y61.44
G1 F3600 X46.44 Y74.05 E1441.91687
G0 F7800 X46.44 Y73.484
G1 F3600 X58.484 Y61.44 E1442.62501
G0 F7800 X57.919 Y61.44
G1 F3600 X46.44 Y72.918 E1443.2999
G0 F7800 X46.44 Y72.353
G1 F3600 X57.353 Y61.44 E1443.94155
G0 F7800 X56.787 Y61.44
G1 F3600 X46.44 Y71.787 E1444.54991
G0 F7800 X46.44 Y71.221
G1 F3600 X56.222 Y61.44 E1445.12503
G0 F7800 X55.656 Y61.44
G1 F3600 X46.44 Y70.656 E1445.66689
G0 F7800 X46.44 Y70.09
G1 F3600 X55.09 Y61.44 E1446.17548
G0 F7800 X54.525 Y61.44
G1 F3600 X46.44 Y69.524 E1446.65082
G0 F7800 X46.44 Y68.959
G1 F3600 X53.959 Y61.44 E1447.0929
G0 F7800 X53.393 Y61.44
G1 F3600 X46.44 Y68.393 E1447.50171
G0 F7800 X46.44 Y67.827
G1 F3600 X52.81 Y61.458 E1447.87622
G0 F7800 X52.169 Y61.533
G1 F3600 X46.44 Y67.262 E1448.21306
G0 F7800 X46.579 Y66.557
G1 F3600 X51.52 Y61.616 E1448.50357
G0 F7800 X50.641 Y61.929
G1 F3600 X46.744 Y65.826 E1448.7327
G0 F7800 X47.144 Y64.86
G1 F3600 X49.619 Y62.385 E1448.87822
G1 F1800 E1447.87822
G0 F7800 X70.584 Y77.059
G1 F1800 E1448.87822
G1 F3600 X86.203 Y61.44 E1449.79656
G0 F7800 X86.769 Y61.44
G1 F3600 X71.149 Y77.059 E1450.71492
G0 F7800 X71.715 Y77.059
G1 F3600 X87.334 Y61.44 E1451.63326
G0 F7800 X87.9 Y61.44
G1 F3600 X72.281 Y77.059 E1452.5516
G0 F7800 X72.846 Y77.059
G1 F3600 X88.466 Y61.44 E1453.46997
G0 F7800 X89.031 Y61.44
G1 F3600 X73.412 Y77.059 E1454.3883
G0 F7800 X73.978 Y77.059
G1 F3600 X89.597 Y61.44 E1455.30664
G0 F7800 X90.163 Y61.44
G1 F3600 X74.543 Y77.059 E1456.22501
G0 F7800 X75.109 Y77.059
G1 F3600 X90.728 Y61.44 E1457.14334
G0 F7800 X91.294 Y61.44
G1 F3600 X75.675 Y77.059 E1458.06168
G0 F7800 X76.24 Y77.059
G1 F3600 X91.86 Y61.44 E1458.98005
G0 F7800 X92.425 Y61.44
G1 F3600 X76.806 Y77.059 E1459.89839
G0 F7800 X77.372 Y77.059
G1 F3600 X92.991 Y61.44 E1460.81672
G0 F7800 X93.557 Y61.44
G1 F3600 X77.938 Y77.059 E1461.73506
G0 F7800 X78.503 Y77.059
G1 F3600 X94.122 Y61.44 E1462.6534
G0 F7800 X94.688 Y61.44
G1 F3600 X79.069 Y77.059 E1463.57173
G0 F7800 X79.635 Y77.059
G1 F3600 X95.254 Y61.44 E1464.49007
G0 F7800 X95.82 Y61.44
G1 F3600 X80.2 Y77.059 E1465.40844
G0 F7800 X80.766 Y77.059
G1 F3600 X96.385 Y61.44 E1466.32678
G0 F7800 X96.951 Y61.44
G1 F3600 X81.332 Y77.059 E1467.24511
G0 F7800 X81.897 Y77.059
G1 F3600 X97.517 Y61.44 E1468.16348
G0 F7800 X98.082 Y61.44
G1 F3600 X82.463 Y77.059 E1469.08182
G0 F7800 X83.029 Y77.059
G1 F3600 X98.648 Y61.44 E1470.00016
G0 F7800 X99.214 Y61.44
G1 F3600 X83.594 Y77.059 E1470.91852
G0 F7800 X84.16 Y77.059
G1 F3600 X99.779 Y61.44 E1471.83686
G0 F7800 X100.346 Y61.439
G1 F3600 X84.726 Y77.059 E1472.75526
G0 F7800 X85.291 Y77.059
G1 F3600 X100.911 Y61.439 E1473.67365
G0 F7800 X101.477 Y61.439
G1 F3600 X85.857 Y77.059 E1474.59205
G0 F7800 X86.423 Y77.059
G1 F3600 X102.043 Y61.439 E1475.51044
G0 F7800 X102.608 Y61.439
G1 F3600 X86.988 Y77.059 E1476.42884
G0 F7800 X87.554 Y77.059
G1 F3600 X103.174 Y61.439 E1477.34724
G0 F7800 X103.74 Y61.439
G1 F3600 X88.12 Y77.059 E1478.26563
G0 F7800 X88.686 Y77.059
G1 F3600 X104.306 Y61.439 E1479.18403
G0 F7800 X104.871 Y61.439
G1 F3600 X89.251 Y77.059 E1480.10242
G0 F7800 X89.817 Y77.059
G1 F3600 X105.437 Y61.439 E1481.02082
G0 F7800 X106.003 Y61.439
G1 F3600 X90.383 Y77.059 E1481.93922
G0 F7800 X90.948 Y77.059
G1 F3600 X106.568 Y61.439 E1482.85761
G0 F7800 X107.134 Y61.439
G1 F3600 X91.514 Y77.059 E1483.77601
G0 F7800 X92.08 Y77.059
G1 F3600 X107.7 Y61.439 E1484.69441
G0 F7800 X108.265 Y61.439
G1 F3600 X92.645 Y77.059 E1485.6128
G0 F7800 X93.211 Y77.059
G1 F3600 X108.831 Y61.439 E1486.5312
G0 F7800 X109.397 Y61.439
G1 F3600 X93.777 Y77.059 E1487.44959
G0 F7800 X94.342 Y77.059
G1 F3600 X109.962 Y61.439 E1488.36799
G0 F7800 X110.528 Y61.439
G1 F3600 X94.908 Y77.059 E1489.28639
G0 F7800 X95.474 Y77.059
G1 F3600 X111.094 Y61.439 E1490.20478
G0 F7800 X111.659 Y61.439
G1 F3600 X96.039 Y77.059 E1491.12318
G0 F7800 X96.605 Y77.059
G1 F3600 X112.225 Y61.439 E1492.04157
G0 F7800 X112.791 Y61.439
G1 F3600 X97.171 Y77.059 E1492.95997
G0 F7800 X97.737 Y77.059
G1 F3600 X113.356 Y61.439 E1493.87834
G0 F7800 X113.922 Y61.439
G1 F3600 X98.302 Y77.059 E1494.79673
G0 F7800 X98.868 Y77.059
G1 F3600 X114.488 Y61.439 E1495.71513
G0 F7800 X115.054 Y61.439
G1 F3600 X99.434 Y77.059 E1496.63353
G0 F7800 X99.999 Y77.059
G1 F3600 X115.619 Y61.439 E1497.55192
G0 F7800 X116.185 Y61.439
G1 F3600 X100.565 Y77.059 E1498.47032
G0 F7800 X101.131 Y77.059
G1 F3600 X116.751 Y61.439 E1499.38871
G0 F7800 X117.316 Y61.439
G1 F3600 X101.696 Y77.059 E1500.30711
G0 F7800 X102.262 Y77.059
G1 F3600 X117.882 Y61.439 E1501.22551
G0 F7800 X118.448 Y61.439
G1 F3600 X102.828 Y77.059 E1502.1439
G0 F7800 X103.393 Y77.059
G1 F3600 X119.013 Y61.439 E1503.0623
G0 F7800 X119.579 Y61.439
G1 F3600 X103.959 Y77.059 E1503.98069
G0 F7800 X104.525 Y77.059
G1 F3600 X120.145 Y61.439 E1504.89909
G0 F7800 X120.71 Y61.439
G1 F3600 X105.09 Y77.059 E1505.81749
G0 F7800 X105.656 Y77.059
G1 F3600 X121.276 Y61.439 E1506.73588
G0 F7800 X121.842 Y61.439
G1 F3600 X106.222 Y77.059 E1507.65428
G0 F7800 X106.787 Y77.059
G1 F3600 X122.407 Y61.439 E1508.57268
G0 F7800 X122.973 Y61.439
G1 F3600 X107.353 Y77.059 E1509.49107
G0 F7800 X107.919 Y77.059
G1 F3600 X123.539 Y61.439 E1510.40947
G0 F7800 X124.105 Y61.439
G1 F3600 X108.485 Y77.059 E1511.32786
G0 F7800 X109.05 Y77.059
G1 F3600 X124.67 Y61.439 E1512.24626
G0 F7800 X125.236 Y61.439
G1 F3600 X109.616 Y77.059 E1513.16466
G0 F7800 X110.182 Y77.059
G1 F3600 X125.802 Y61.439 E1514.08305
G0 F7800 X126.367 Y61.439
G1 F3600 X110.747 Y77.059 E1515.00145
G0 F7800 X111.313 Y77.059
G1 F3600 X126.933 Y61.439 E1515.91984
G0 F7800 X127.499 Y61.439
G1 F3600 X111.879 Y77.059 E1516.83824
G0 F7800 X112.444 Y77.059
G1 F3600 X128.064 Y61.439 E1517.75664
G0 F7800 X128.63 Y61.439
G1 F3600 X113.01 Y77.059 E1518.67503
G0 F7800 X113.576 Y77.059
G1 F3600 X129.196 Y61.439 E1519.59343
G0 F7800 X129.761 Y61.439
G1 F3600 X114.141 Y77.059 E1520.51183
G0 F7800 X114.707 Y77.059
G1 F3600 X130.327 Y61.439 E1521.43022
G0 F7800 X130.893 Y61.439
G1 F3600 X115.273 Y77.059 E1522.34862
G0 F7800 X115.838 Y77.059
G1 F3600 X131.458 Y61.439 E1523.26701
G0 F7800 X132.024 Y61.439
G1 F3600 X116.404 Y77.059 E1524.18541
G0 F7800 X116.97 Y77.059
G1 F3600 X132.59 Y61.439 E1525.10381
G0 F7800 X133.155 Y61.439
G1 F3600 X117.535 Y77.059 E1526.0222
G0 F7800 X118.101 Y77.059
G1 F3600 X133.721 Y61.439 E1526.9406
G0 F7800 X134.287 Y61.439
G1 F3600 X118.667 Y77.059 E1527.85899
G0 F7800 X119.233 Y77.059
G1 F3600 X134.853 Y61.439 E1528.77739
G0 F7800 X135.418 Y61.439
G1 F3600 X119.798 Y77.059 E1529.69579
G0 F7800 X120.364 Y77.059
G1 F3600 X135.984 Y61.439 E1530.61418
G0 F7800 X136.55 Y61.439
G1 F3600 X120.93 Y77.059 E1531.53258
G0 F7800 X121.495 Y77.059
G1 F3600 X137.115 Y61.439 E1532.45097
G0 F7800 X137.681 Y61.439
G1 F3600 X122.061 Y77.059 E1533.36937
G0 F7800 X122.627 Y77.059
G1 F3600 X138.247 Y61.439 E1534.28777
G0 F7800 X138.812 Y61.439
G1 F3600 X123.192 Y77.059 E1535.20616
G0 F7800 X123.758 Y77.059
G1 F3600 X139.378 Y61.439 E1536.12456
G0 F7800 X139.944 Y61.439
G1 F3600 X124.324 Y77.059 E1537.04296
G0 F7800 X124.889 Y77.059
G1 F3600 X140.509 Y61.439 E1537.96135
G0 F7800 X141.075 Y61.439
G1 F3600 X125.455 Y77.059 E1538.87975
G0 F7800 X126.021 Y77.059
G1 F3600 X141.641 Y61.439 E1539.79814
G0 F7800 X142.206 Y61.439
G1 F3600 X126.586 Y77.059 E1540.71654
G0 F7800 X127.152 Y77.059
G1 F3600 X142.772 Y61.439 E1541.63494
G0 F7800 X143.338 Y61.439
G1 F3600 X127.718 Y77.059 E1542.55333
G0 F7800 X128.284 Y77.059
G1 F3600 X143.904 Y61.439 E1543.47173
G0 F7800 X144.469 Y61.439
G1 F3600 X128.849 Y77.059 E1544.39012
G0 F7800 X129.415 Y77.059
G1 F3600 X145.035 Y61.439 E1545.30852
G0 F7800 X145.601 Y61.439
G1 F3600 X129.981 Y77.059 E1546.22692
G0 F7800 X130.546 Y77.059
G1 F3600 X146.166 Y61.439 E1547.14531
G0 F7800 X146.732 Y61.439
G1 F3600 X131.112 Y77.059 E1548.06371
G0 F7800 X131.678 Y77.059
G1 F3600 X147.269 Y61.468 E1548.9804
G0 F7800 X147.778 Y61.525
G1 F3600 X132.243 Y77.059 E1549.89377
G0 F7800 X132.809 Y77.059
G1 F3600 X148.286 Y61.582 E1550.80376
G0 F7800 X148.725 Y61.709
G1 F3600 X133.375 Y77.059 E1551.70628
G0 F7800 X133.94 Y77.059
G1 F3600 X149.143 Y61.856 E1552.60016
G0 F7800 X149.562 Y62.003
G1 F3600 X134.506 Y77.059 E1553.48539
G0 F7800 X135.072 Y77.059
G1 F3600 X149.981 Y62.15 E1554.36198
G0 F7800 X150.335 Y62.362
G1 F3600 X135.637 Y77.059 E1555.22614
G0 F7800 X136.203 Y77.059
G1 F3600 X150.669 Y62.593 E1556.07669
G0 F7800 X151.004 Y62.825
G1 F3600 X136.439 Y77.389 E1556.93302
G0 F7800 X136.439 Y77.954
G1 F3600 X151.339 Y63.055 E1557.80906
G0 F7800 X151.673 Y63.286
G1 F3600 X136.439 Y78.52 E1558.70476
G0 F7800 X136.439 Y79.086
G1 F3600 X151.933 Y63.592 E1559.61575
G0 F7800 X152.17 Y63.921
G1 F3600 X136.439 Y79.652 E1560.54067
G0 F7800 X136.439 Y80.217
G1 F3600 X152.409 Y64.248 E1561.47961
G0 F7800 X152.647 Y64.575
G1 F3600 X136.439 Y80.783 E1562.43258
G0 F7800 X136.439 Y81.349
G1 F3600 X152.884 Y64.903 E1563.39951
G0 F7800 X153.118 Y65.236
G1 F3600 X136.439 Y81.914 E1564.38015
G0 F7800 X136.439 Y82.48
G1 F3600 X153.223 Y65.696 E1565.36698
G0 F7800 X153.328 Y66.157
G1 F3600 X136.439 Y83.046 E1566.35999
G0 F7800 X136.439 Y83.611
G1 F3600 X153.433 Y66.617 E1567.35917
G0 F7800 X153.538 Y67.078
G1 F3600 X136.439 Y84.177 E1568.36453
G0 F7800 X136.439 Y84.743
G1 F3600 X153.558 Y67.624 E1569.37106
G0 F7800 X153.558 Y68.189
G1 F3600 X136.439 Y85.308 E1570.37759
G0 F7800 X136.439 Y85.874
G1 F3600 X153.558 Y68.755 E1571.38412
G0 F7800 X153.558 Y69.321
G1 F3600 X136.439 Y86.44 E1572.39065
G0 F7800 X136.439 Y87.005
G1 F3600 X153.558 Y69.886 E1573.39718
G0 F7800 X153.558 Y70.452
G1 F3600 X136.439 Y87.571 E1574.40372
G0 F7800 X136.439 Y88.137
G1 F3600 X153.558 Y71.018 E1575.41025
G0 F7800 X153.558 Y71.583
G1 F3600 X136.439 Y88.703 E1576.41681
G0 F7800 X136.439 Y89.268
G1 F3600 X153.558 Y72.149 E1577.42334
G0 F7800 X153.558 Y72.715
G1 F3600 X136.439 Y89.834 E1578.42987
G0 F7800 X136.439 Y90.4
G1 F3600 X153.558 Y73.281 E1579.4364
G0 F7800 X153.558 Y73.846
G1 F3600 X136.439 Y90.965 E1580.44294
G0 F7800 X136.439 Y91.531
G1 F3600 X153.558 Y74.412 E1581.44947
G0 F7800 X153.558 Y74.978
G1 F3600 X136.439 Y92.097 E1582.456
G0 F7800 X136.439 Y92.662
G1 F3600 X153.558 Y75.543 E1583.46253
G0 F7800 X153.558 Y76.109
G1 F3600 X136.439 Y93.228 E1584.46906
G0 F7800 X136.439 Y93.794
G1 F3600 X153.558 Y76.675 E1585.47559
G0 F7800 X153.558 Y77.24
G1 F3600 X136.439 Y94.359 E1586.48212
G0 F7800 X136.439 Y94.925
G1 F3600 X153.558 Y77.806 E1587.48866
G0 F7800 X153.558 Y78.372
G1 F3600 X136.439 Y95.491 E1588.49519
G0 F7800 X136.439 Y96.056
G1 F3600 X153.558 Y78.937 E1589.50172
G0 F7800 X153.558 Y79.503
G1 F3600 X136.439 Y96.622 E1590.50825
G0 F7800 X136.439 Y97.188
G1 F3600 X153.558 Y80.069 E1591.51478
G0 F7800 X153.558 Y80.634
G1 F3600 X136.439 Y97.753 E1592.52131
G0 F7800 X136.439 Y98.319
G1 F3600 X153.558 Y81.2 E1593.52785
G0 F7800 X153.558 Y81.766
G1 F3600 X136.439 Y98.885 E1594.53438
G0 F7800 X136.439 Y99.451
G1 F3600 X153.558 Y82.331 E1595.54094
G0 F7800 X153.558 Y82.897
G1 F3600 X136.439 Y100.017 E1596.5475
G0 F7800 X136.439 Y100.583
G1 F3600 X153.558 Y83.463 E1597.55406
G0 F7800 X153.558 Y84.029
G1 F3600 X136.439 Y101.148 E1598.56059
G0 F7800 X136.439 Y101.714
G1 F3600 X153.558 Y84.594 E1599.56715
G0 F7800 X153.558 Y85.16
G1 F3600 X136.439 Y102.28 E1600.57371
G0 F7800 X136.439 Y102.845
G1 F3600 X153.558 Y85.726 E1601.58025
G0 F7800 X153.558 Y86.291
G1 F3600 X136.439 Y103.411 E1602.58681
G0 F7800 X136.439 Y103.977
G1 F3600 X153.558 Y86.857 E1603.59337
G0 F7800 X153.558 Y87.423
G1 F3600 X136.439 Y104.542 E1604.5999
G0 F7800 X136.439 Y105.108
G1 F3600 X153.558 Y87.988 E1605.60646
G0 F7800 X153.558 Y88.554
G1 F3600 X136.439 Y105.674 E1606.61302
G0 F7800 X136.439 Y106.239
G1 F3600 X153.558 Y89.12 E1607.61955
G0 F7800 X153.558 Y89.685
G1 F3600 X136.439 Y106.805 E1608.62611
G0 F7800 X136.439 Y107.371
G1 F3600 X153.558 Y90.251 E1609.63267
G0 F7800 X153.558 Y90.817
G1 F3600 X136.439 Y107.937 E1610.63924
G0 F7800 X136.439 Y108.502
G1 F3600 X153.558 Y91.382 E1611.6458
G0 F7800 X153.558 Y91.948
G1 F3600 X136.439 Y109.068 E1612.65236
G0 F7800 X136.439 Y109.634
G1 F3600 X153.558 Y92.514 E1613.65892
G0 F7800 X153.558 Y93.08
G1 F3600 X136.439 Y110.199 E1614.66545
G0 F7800 X136.439 Y110.765
G1 F3600 X153.558 Y93.645 E1615.67201
G0 F7800 X153.558 Y94.211
G1 F3600 X136.439 Y111.331 E1616.67857
G0 F7800 X136.439 Y111.896
G1 F3600 X153.558 Y94.777 E1617.6851
G0 F7800 X153.558 Y95.342
G1 F3600 X136.439 Y112.462 E1618.69166
G0 F7800 X136.439 Y113.028
G1 F3600 X153.558 Y95.908 E1619.69823
G0 F7800 X153.558 Y96.474
G1 F3600 X136.439 Y113.593 E1620.70476
G0 F7800 X136.439 Y114.159
G1 F3600 X153.558 Y97.039 E1621.71132
G0 F7800 X153.558 Y97.605
G1 F3600 X136.439 Y114.725 E1622.71788
G0 F7800 X136.439 Y115.29
G1 F3600 X153.558 Y98.171 E1623.72441
G0 F7800 X153.558 Y98.736
G1 F3600 X136.439 Y115.856 E1624.73097
G0 F7800 X136.439 Y116.422
G1 F3600 X153.558 Y99.302 E1625.73753
G0 F7800 X153.558 Y99.868
G1 F3600 X136.439 Y116.987 E1626.74406
G0 F7800 X136.439 Y117.553
G1 F3600 X153.559 Y100.433 E1627.75065
G0 F7800 X153.559 Y100.998
G1 F3600 X136.439 Y118.119 E1628.75727
G0 F7800 X136.439 Y118.685
G1 F3600 X153.559 Y101.564 E1629.76389
G0 F7800 X153.559 Y102.13
G1 F3600 X136.439 Y119.25 E1630.77048
G0 F7800 X136.439 Y119.816
G1 F3600 X153.559 Y102.695 E1631.7771
G0 F7800 X153.559 Y103.261
G1 F3600 X136.439 Y120.382 E1632.78372
G0 F7800 X136.439 Y120.947
G1 F3600 X153.559 Y103.827 E1633.79031
G0 F7800 X153.559 Y104.393
G1 F3600 X136.439 Y121.513 E1634.79691
G0 F7800 X136.439 Y122.079
G1 F3600 X153.559 Y104.958 E1635.80353
G0 F7800 X153.559 Y105.524
G1 F3600 X136.439 Y122.644 E1636.81012
G0 F7800 X136.393 Y122.69
G1 F3600 X120.524 Y138.558 E1637.74312
G0 F7800 X119.959 Y138.558
G1 F3600 X135.828 Y122.69 E1638.67613
G0 F7800 X135.262 Y122.69
G1 F3600 X119.393 Y138.558 E1639.60914
G0 F7800 X118.827 Y138.558
G1 F3600 X134.696 Y122.69 E1640.54214
G0 F7800 X134.131 Y122.69
G1 F3600 X118.262 Y138.558 E1641.47515
G0 F7800 X117.696 Y138.558
G1 F3600 X133.565 Y122.69 E1642.40816
G0 F7800 X132.999 Y122.69
G1 F3600 X117.13 Y138.558 E1643.34116
G0 F7800 X116.565 Y138.558
G1 F3600 X132.434 Y122.69 E1644.27417
G0 F7800 X131.868 Y122.69
G1 F3600 X115.999 Y138.558 E1645.20718
G0 F7800 X115.433 Y138.558
G1 F3600 X131.302 Y122.69 E1646.14019
G0 F7800 X130.736 Y122.69
G1 F3600 X114.868 Y138.558 E1647.07316
G0 F7800 X114.302 Y138.558
G1 F3600 X130.171 Y122.69 E1648.00617
G0 F7800 X129.605 Y122.69
G1 F3600 X113.736 Y138.558 E1648.93918
G0 F7800 X113.171 Y138.558
G1 F3600 X129.039 Y122.69 E1649.87215
G0 F7800 X128.474 Y122.69
G1 F3600 X112.605 Y138.558 E1650.80516
G0 F7800 X112.039 Y138.558
G1 F3600 X127.908 Y122.69 E1651.73817
G0 F7800 X127.342 Y122.69
G1 F3600 X111.473 Y138.558 E1652.67118
G0 F7800 X110.908 Y138.558
G1 F3600 X126.777 Y122.69 E1653.60418
G0 F7800 X126.211 Y122.69
G1 F3600 X110.342 Y138.558 E1654.53719
G0 F7800 X109.776 Y138.558
G1 F3600 X125.645 Y122.69 E1655.4702
G0 F7800 X125.08 Y122.69
G1 F3600 X109.211 Y138.558 E1656.4032
G0 F7800 X108.645 Y138.558
G1 F3600 X124.514 Y122.69 E1657.33621
G0 F7800 X123.948 Y122.69
G1 F3600 X108.079 Y138.558 E1658.26922
G0 F7800 X107.514 Y138.558
G1 F3600 X123.383 Y122.69 E1659.20222
G0 F7800 X122.817 Y122.69
G1 F3600 X106.948 Y138.558 E1660.13523
G0 F7800 X106.382 Y138.558
G1 F3600 X122.251 Y122.69 E1661.06824
G0 F7800 X121.686 Y122.69
G1 F3600 X105.817 Y138.558 E1662.00125
G0 F7800 X105.251 Y138.558
G1 F3600 X121.12 Y122.69 E1662.93425
G0 F7800 X120.554 Y122.69
G1 F3600 X104.685 Y138.558 E1663.86726
G0 F7800 X104.12 Y138.558
G1 F3600 X119.988 Y122.69 E1664.80024
G0 F7800 X119.423 Y122.69
G1 F3600 X103.554 Y138.558 E1665.73324
G0 F7800 X102.988 Y138.558
G1 F3600 X118.857 Y122.69 E1666.66625
G0 F7800 X118.291 Y122.69
G1 F3600 X102.423 Y138.558 E1667.59923
G0 F7800 X101.857 Y138.558
G1 F3600 X117.726 Y122.69 E1668.53224
G0 F7800 X117.16 Y122.69
G1 F3600 X101.291 Y138.558 E1669.46524
G0 F7800 X100.725 Y138.558
G1 F3600 X116.594 Y122.69 E1670.39825
G0 F7800 X116.029 Y122.69
G1 F3600 X100.16 Y138.558 E1671.33126
G0 F7800 X99.594 Y138.558
G1 F3600 X115.463 Y122.69 E1672.26426
G0 F7800 X114.897 Y122.69
G1 F3600 X99.028 Y138.558 E1673.19727
G0 F7800 X98.463 Y138.558
G1 F3600 X114.332 Y122.69 E1674.13028
G0 F7800 X113.766 Y122.69
G1 F3600 X97.897 Y138.558 E1675.06328
G0 F7800 X97.331 Y138.558
G1 F3600 X113.2 Y122.69 E1675.99629
G0 F7800 X112.635 Y122.69
G1 F3600 X96.766 Y138.558 E1676.9293
G0 F7800 X96.2 Y138.558
G1 F3600 X112.069 Y122.69 E1677.86231
G0 F7800 X111.503 Y122.69
G1 F3600 X95.634 Y138.558 E1678.79531
G0 F7800 X95.069 Y138.558
G1 F3600 X110.937 Y122.69 E1679.72829
G0 F7800 X110.372 Y122.69
G1 F3600 X94.503 Y138.558 E1680.6613
G0 F7800 X93.937 Y138.558
G1 F3600 X109.806 Y122.69 E1681.5943
G0 F7800 X109.24 Y122.69
G1 F3600 X93.372 Y138.558 E1682.52728
G0 F7800 X92.806 Y138.558
G1 F3600 X108.675 Y122.69 E1683.46029
G0 F7800 X108.109 Y122.69
G1 F3600 X92.24 Y138.558 E1684.3933
G0 F7800 X91.674 Y138.558
G1 F3600 X107.543 Y122.69 E1685.3263
G0 F7800 X106.978 Y122.69
G1 F3600 X91.109 Y138.558 E1686.25931
G0 F7800 X90.543 Y138.558
G1 F3600 X106.412 Y122.69 E1687.19232
G0 F7800 X105.846 Y122.69
G1 F3600 X89.977 Y138.558 E1688.12532
G0 F7800 X89.412 Y138.558
G1 F3600 X105.281 Y122.69 E1689.05833
G0 F7800 X104.715 Y122.69
G1 F3600 X88.846 Y138.558 E1689.99134
G0 F7800 X88.28 Y138.558
G1 F3600 X104.149 Y122.69 E1690.92434
G0 F7800 X103.584 Y122.69
G1 F3600 X87.715 Y138.558 E1691.85735
G0 F7800 X87.149 Y138.558
G1 F3600 X103.019 Y122.689 E1692.79042
G0 F7800 X102.453 Y122.689
G1 F3600 X86.583 Y138.558 E1693.72348
G0 F7800 X86.018 Y138.558
G1 F3600 X101.887 Y122.689 E1694.65652
G0 F7800 X101.322 Y122.689
G1 F3600 X85.452 Y138.558 E1695.58958
G0 F7800 X84.886 Y138.558
G1 F3600 X100.756 Y122.689 E1696.52265
G0 F7800 X100.19 Y122.689
G1 F3600 X84.321 Y138.558 E1697.45569
G0 F7800 X83.755 Y138.558
G1 F3600 X99.624 Y122.689 E1698.38872
G0 F7800 X99.059 Y122.689
G1 F3600 X83.189 Y138.558 E1699.32179
G0 F7800 X82.624 Y138.558
G1 F3600 X98.493 Y122.689 E1700.25483
G0 F7800 X97.927 Y122.689
G1 F3600 X82.058 Y138.558 E1701.18786
G0 F7800 X81.492 Y138.558
G1 F3600 X97.362 Y122.689 E1702.12093
G0 F7800 X96.796 Y122.689
G1 F3600 X80.926 Y138.558 E1703.05399
G0 F7800 X80.361 Y138.558
G1 F3600 X96.23 Y122.689 E1703.98703
G0 F7800 X95.665 Y122.689
G1 F3600 X79.795 Y138.558 E1704.9201
G0 F7800 X79.229 Y138.558
G1 F3600 X95.099 Y122.689 E1705.85316
G0 F7800 X94.533 Y122.689
G1 F3600 X78.664 Y138.558 E1706.7862
G0 F7800 X78.098 Y138.558
G1 F3600 X93.968 Y122.689 E1707.71926
G0 F7800 X93.402 Y122.689
G1 F3600 X77.532 Y138.558 E1708.65233
G0 F7800 X76.967 Y138.558
G1 F3600 X92.836 Y122.689 E1709.58537
G0 F7800 X92.271 Y122.689
G1 F3600 X76.401 Y138.558 E1710.51843
G0 F7800 X75.835 Y138.558
G1 F3600 X91.705 Y122.689 E1711.4515
G0 F7800 X91.139 Y122.689
G1 F3600 X75.27 Y138.558 E1712.38453
G0 F7800 X74.704 Y138.558
G1 F3600 X90.574 Y122.689 E1713.3176
G0 F7800 X90.008 Y122.689
G1 F3600 X74.138 Y138.558 E1714.25067
G0 F7800 X73.573 Y138.558
G1 F3600 X89.442 Y122.689 E1715.1837
G0 F7800 X88.876 Y122.689
G1 F3600 X73.007 Y138.558 E1716.11674
G0 F7800 X72.441 Y138.558
G1 F3600 X88.311 Y122.689 E1717.0498
G0 F7800 X87.745 Y122.689
G1 F3600 X71.875 Y138.558 E1717.98287
G0 F7800 X71.31 Y138.558
G1 F3600 X87.179 Y122.689 E1718.91591
G0 F7800 X86.614 Y122.689
G1 F3600 X70.744 Y138.558 E1719.84897
G0 F7800 X70.178 Y138.558
G1 F3600 X86.048 Y122.689 E1720.78204
G0 F7800 X85.482 Y122.689
G1 F3600 X69.613 Y138.558 E1721.71507
G0 F7800 X69.047 Y138.558
G1 F3600 X84.917 Y122.689 E1722.64814
G0 F7800 X84.351 Y122.689
G1 F3600 X68.481 Y138.558 E1723.58121
G0 F7800 X67.916 Y138.558
G1 F3600 X83.785 Y122.689 E1724.51424
G0 F7800 X83.22 Y122.689
G1 F3600 X67.35 Y138.558 E1725.44731
G0 F7800 X66.784 Y138.558
G1 F3600 X82.654 Y122.689 E1726.38037
G0 F7800 X82.088 Y122.689
G1 F3600 X66.219 Y138.558 E1727.31341
G0 F7800 X65.653 Y138.558
G1 F3600 X81.523 Y122.689 E1728.24648
G0 F7800 X80.957 Y122.689
G1 F3600 X65.087 Y138.558 E1729.17954
G0 F7800 X64.522 Y138.558
G1 F3600 X80.391 Y122.689 E1730.11258
G0 F7800 X79.825 Y122.689
G1 F3600 X63.956 Y138.558 E1731.04561
G0 F7800 X63.39 Y138.558
G1 F3600 X79.26 Y122.689 E1731.97868
G0 F7800 X78.694 Y122.689
G1 F3600 X62.825 Y138.558 E1732.91172
G0 F7800 X62.259 Y138.558
G1 F3600 X78.128 Y122.689 E1733.84475
G0 F7800 X77.563 Y122.689
G1 F3600 X61.693 Y138.558 E1734.77782
G0 F7800 X61.127 Y138.558
G1 F3600 X76.997 Y122.689 E1735.71088
G0 F7800 X76.431 Y122.689
G1 F3600 X60.562 Y138.558 E1736.64392
G0 F7800 X59.996 Y138.558
G1 F3600 X75.866 Y122.689 E1737.57699
G0 F7800 X75.3 Y122.689
G1 F3600 X59.43 Y138.558 E1738.51005
G0 F7800 X58.865 Y138.558
G1 F3600 X74.734 Y122.689 E1739.44309
G0 F7800 X74.169 Y122.689
G1 F3600 X58.299 Y138.558 E1740.37615
G0 F7800 X57.733 Y138.558
G1 F3600 X73.603 Y122.689 E1741.30922
G0 F7800 X73.037 Y122.689
G1 F3600 X57.168 Y138.558 E1742.24226
G0 F7800 X56.602 Y138.558
G1 F3600 X72.472 Y122.689 E1743.17532
G0 F7800 X71.906 Y122.689
G1 F3600 X56.036 Y138.558 E1744.10839
G0 F7800 X55.471 Y138.558
G1 F3600 X71.34 Y122.689 E1745.04142
G0 F7800 X70.775 Y122.689
G1 F3600 X54.905 Y138.558 E1745.97449
G0 F7800 X54.339 Y138.558
G1 F3600 X70.209 Y122.689 E1746.90756
G0 F7800 X70.06 Y122.272
G1 F3600 X53.774 Y138.558 E1747.86511
G0 F7800 X53.208 Y138.558
G1 F3600 X70.06 Y121.706 E1748.85594
G0 F7800 X70.06 Y121.14
G1 F3600 X52.677 Y138.524 E1749.87803
G0 F7800 X52.168 Y138.467
G1 F3600 X70.06 Y120.575 E1750.93001
G0 F7800 X70.06 Y120.009
G1 F3600 X51.659 Y138.41 E1752.01192
G0 F7800 X51.23 Y138.274
G1 F3600 X70.06 Y119.443 E1753.11908
G0 F7800 X70.06 Y118.878
G1 F3600 X50.811 Y138.126 E1754.25082
G0 F7800 X50.392 Y137.98
G1 F3600 X70.06 Y118.312 E1755.40722
G0 F7800 X70.06 Y117.746
G1 F3600 X49.974 Y137.833 E1756.58823
G0 F7800 X49.629 Y137.612
G1 F3600 X70.06 Y117.181 E1757.78949
G0 F7800 X70.06 Y116.615
G1 F3600 X49.294 Y137.381 E1759.01045
G0 F7800 X48.96 Y137.15
G1 F3600 X70.06 Y116.049 E1760.25108
G0 F7800 X70.06 Y115.483
G1 F3600 X48.625 Y136.919 E1761.51141
G0 F7800 X48.291 Y136.687
G1 F3600 X70.06 Y114.918 E1762.79134
G0 F7800 X70.06 Y114.352
G1 F3600 X48.041 Y136.371 E1764.08597
G0 F7800 X47.803 Y136.044
G1 F3600 X70.06 Y113.786 E1765.39463
G0 F7800 X70.06 Y113.221
G1 F3600 X47.564 Y135.717 E1766.71731
G0 F7800 X47.326 Y135.389
G1 F3600 X70.06 Y112.655 E1768.05398
G0 F7800 X70.06 Y112.089
G1 F3600 X47.089 Y135.061 E1769.40462
G0 F7800 X46.867 Y134.717
G1 F3600 X70.06 Y111.524 E1770.76828
G1 F1800 E1769.76828
G0 F7800 X121.09 Y138.558
G1 F1800 E1770.76828
G1 F3600 X153.559 Y106.09 E1772.6773
G0 F7800 X153.559 Y106.655
G1 F3600 X121.656 Y138.558 E1774.55307
G0 F7800 X122.221 Y138.558
G1 F3600 X153.559 Y107.221 E1776.3956
G0 F7800 X153.559 Y107.787
G1 F3600 X122.787 Y138.558 E1778.20484
G0 F7800 X123.353 Y138.558
G1 F3600 X153.559 Y108.352 E1779.98084
G0 F7800 X153.559 Y108.918
G1 F3600 X123.919 Y138.558 E1781.72356
G0 F7800 X124.484 Y138.558
G1 F3600 X153.559 Y109.484 E1783.43303
G0 F7800 X153.559 Y110.049
G1 F3600 X125.05 Y138.558 E1785.10925
G0 F7800 X125.616 Y138.558
G1 F3600 X153.559 Y110.615 E1786.75219
G0 F7800 X153.559 Y111.181
G1 F3600 X126.181 Y138.558 E1788.36188
G0 F7800 X126.747 Y138.558
G1 F3600 X153.559 Y111.746 E1789.93833
G0 F7800 X153.559 Y112.312
G1 F3600 X127.313 Y138.558 E1791.48149
G0 F7800 X127.878 Y138.558
G1 F3600 X153.559 Y112.878 E1792.9914
G0 F7800 X153.559 Y113.443
G1 F3600 X128.444 Y138.558 E1794.46807
G0 F7800 X129.01 Y138.558
G1 F3600 X153.559 Y114.009 E1795.91146
G0 F7800 X153.559 Y114.575
G1 F3600 X129.575 Y138.558 E1797.3216
G0 F7800 X130.141 Y138.558
G1 F3600 X153.559 Y115.141 E1798.69845
G0 F7800 X153.559 Y115.706
G1 F3600 X130.707 Y138.558 E1800.04206
G0 F7800 X131.272 Y138.558
G1 F3600 X153.559 Y116.272 E1801.35243
G0 F7800 X153.559 Y116.838
G1 F3600 X131.838 Y138.558 E1802.62951
G0 F7800 X132.404 Y138.558
G1 F3600 X153.559 Y117.403 E1803.87334
G0 F7800 X153.559 Y117.969
G1 F3600 X132.97 Y138.558 E1805.08389
G0 F7800 X133.535 Y138.558
G1 F3600 X153.559 Y118.535 E1806.2612
G0 F7800 X153.559 Y119.1
G1 F3600 X134.101 Y138.558 E1807.40526
G0 F7800 X134.667 Y138.558
G1 F3600 X153.559 Y119.666 E1808.51603
G0 F7800 X153.559 Y120.232
G1 F3600 X135.232 Y138.558 E1809.59356
G0 F7800 X135.798 Y138.558
G1 F3600 X153.559 Y120.797 E1810.63784
G0 F7800 X153.559 Y121.363
G1 F3600 X136.364 Y138.558 E1811.64884
G0 F7800 X136.929 Y138.558
G1 F3600 X153.559 Y121.929 E1812.62659
G0 F7800 X153.559 Y122.494
G1 F3600 X137.495 Y138.558 E1813.57109
G0 F7800 X138.061 Y138.558
G1 F3600 X153.559 Y123.06 E1814.48231
G0 F7800 X153.559 Y123.626
G1 F3600 X138.626 Y138.558 E1815.36029
G0 F7800 X139.192 Y138.558
G1 F3600 X153.559 Y124.191 E1816.20501
G0 F7800 X153.559 Y124.757
G1 F3600 X139.758 Y138.558 E1817.01646
G0 F7800 X140.323 Y138.558
G1 F3600 X153.559 Y125.323 E1817.79466
G0 F7800 X153.559 Y125.889
G1 F3600 X140.889 Y138.558 E1818.53957
G0 F7800 X141.455 Y138.558
G1 F3600 X153.559 Y126.454 E1819.25124
G0 F7800 X153.559 Y127.02
G1 F3600 X142.02 Y138.558 E1819.92966
G0 F7800 X142.586 Y138.558
G1 F3600 X153.559 Y127.586 E1820.5748
G0 F7800 X153.559 Y128.151
G1 F3600 X143.152 Y138.558 E1821.18669
G0 F7800 X143.718 Y138.558
G1 F3600 X153.559 Y128.717 E1821.76531
G0 F7800 X153.559 Y129.283
G1 F3600 X144.283 Y138.558 E1822.31067
G0 F7800 X144.849 Y138.558
G1 F3600 X153.559 Y129.848 E1822.82279
G0 F7800 X153.559 Y130.414
G1 F3600 X145.415 Y138.558 E1823.30162
G0 F7800 X145.98 Y138.558
G1 F3600 X153.559 Y130.98 E1823.74721
G0 F7800 X153.559 Y131.545
G1 F3600 X146.546 Y138.558 E1824.15955
G0 F7800 X147.122 Y138.549
G1 F3600 X153.559 Y132.111 E1824.53805
G0 F7800 X153.559 Y132.677
G1 F3600 X147.762 Y138.474 E1824.87889
G0 F7800 X148.403 Y138.399
G1 F3600 X153.437 Y133.364 E1825.1749
G0 F7800 X153.271 Y134.097
G1 F3600 X149.266 Y138.101 E1825.41035
G0 F7800 X150.184 Y137.749
G1 F3600 X153.013 Y134.92 E1825.57668
; Layer Change GCode
; LAYER:0
M400
M107
G1 F1800 E1824.57668
G0 F7800 X153.013 Y134.92 Z1.5
G0 X151.3 Y134.92
G0 X149.583 Y132.911
G0 X148.413 Y132.644
G0 X147.855 Y132.391
G0 X53.299 Y132.9
G0 X53.281 Y133.3
; TYPE:WALL-OUTER
G1 F1800 E1825.57668
G1 F1080 X52.779 Y133.244 E1825.59768
G1 X52.33 Y133.086 E1825.61747
G1 X51.981 Y132.845 E1825.6351
G1 X51.773 Y132.559 E1825.64981
G1 X51.701 Y132.24 E1825.6634
G1 X51.701 Y67.76 E1828.34417
G1 X51.773 Y67.441 E1828.35777
G1 X51.981 Y67.156 E1828.37243
G1 X52.324 Y66.915 E1828.38986
G1 X52.754 Y66.762 E1828.40884
G1 X53.27 Y66.701 E1828.43044
G1 X146.719 Y66.7 E1832.3156
G1 X147.221 Y66.756 E1832.3366
G1 X147.67 Y66.914 E1832.35639
G1 X148.019 Y67.155 E1832.37402
G1 X148.227 Y67.442 E1832.38876
G1 X148.3 Y67.76 E1832.40232
G1 X148.3 Y132.24 E1835.08309
G1 X148.227 Y132.558 E1835.09665
G1 X148.019 Y132.844 E1835.11136
G1 X147.676 Y133.085 E1835.12878
G1 X147.246 Y133.238 E1835.14776
G1 X146.73 Y133.299 E1835.16936
G1 X53.281 Y133.3 E1839.05452
G0 F7800 X53.299 Y132.9
; TYPE:WALL-INNER
G1 F1080 X52.868 Y132.852 E1839.07255
G1 X52.514 Y132.728 E1839.08814
G1 X52.264 Y132.555 E1839.10078
G1 X52.145 Y132.391 E1839.10921
G1 X52.101 Y132.197 E1839.11748
G1 X52.101 Y103.099 E1840.32723
G1 X55.6 Y103.099 E1840.4727
G1 X55.601 Y96.9 E1840.73043
G1 X52.101 Y96.9 E1840.87594
G1 X52.101 Y67.803 E1842.08565
G1 X52.145 Y67.609 E1842.09392
G1 X52.265 Y67.444 E1842.10241
G1 X52.505 Y67.276 E1842.11459
G1 X52.848 Y67.153 E1842.12974
G1 X53.292 Y67.101 E1842.14832
G1 X146.701 Y67.1 E1846.03182
G1 X147.132 Y67.148 E1846.04985
G1 X147.486 Y67.272 E1846.06544
G1 X147.736 Y67.445 E1846.07808
G1 X147.855 Y67.609 E1846.0865
G1 X147.9 Y67.805 E1846.09487
G1 X147.9 Y132.195 E1848.77189
G1 X147.855 Y132.391 E1848.78025
G1 X147.735 Y132.556 E1848.78873
G1 X147.495 Y132.724 E1848.80091
G1 X147.152 Y132.847 E1848.81606
G1 X146.708 Y132.899 E1848.83465
G1 X53.299 Y132.9 E1852.71814
G0 F7800 X53.5 Y132.499
G1 F1080 X53.327 Y132.5 E1852.72534
G1 X52.958 Y132.459 E1852.74077
G1 X52.696 Y132.367 E1852.75232
G1 X52.547 Y132.264 E1852.75985
G1 X52.518 Y132.223 E1852.76193
G1 X52.501 Y132.149 E1852.76509
G1 X52.501 Y131.501 E1852.79203
G0 F7800 X52.626 Y131.501
G1 F1080 X52.501 Y131.033 E1852.81217
G0 F7800 X52.751 Y131.501
G1 F1080 X53.087 Y131.913 E1852.83427
G1 X53.499 Y132.249 E1852.85638
G0 F7800 X53.499 Y132.374
G1 F1080 X53.965 Y132.498 E1852.87643
G0 F7800 X54.961 Y132.298
G0 X55 Y131.9
; TYPE:WALL-OUTER
G1 F1080 X55.371 Y131.864 E1852.89192
G1 X55.728 Y131.756 E1852.90743
G1 X56.056 Y131.58 E1852.92291
G1 X56.345 Y131.344 E1852.93842
G1 X56.581 Y131.055 E1852.95393
G1 X56.757 Y130.727 E1852.96941
G1 X56.865 Y130.37 E1852.98491
G1 X56.901 Y130.007 E1853.00008
G1 X56.865 Y129.629 E1853.01586
G1 X56.757 Y129.272 E1853.03137
G1 X56.581 Y128.944 E1853.04685
G1 X56.345 Y128.655 E1853.06236
G1 X56.056 Y128.419 E1853.07787
G1 X55.728 Y128.243 E1853.09335
G1 X55.371 Y128.135 E1853.10885
G1 X55 Y128.098 E1853.12436
G1 X54.63 Y128.135 E1853.13981
G1 X54.273 Y128.243 E1853.15532
G1 X53.945 Y128.419 E1853.1708
G1 X53.656 Y128.655 E1853.18631
G1 X53.42 Y128.944 E1853.20182
G1 X53.244 Y129.272 E1853.2173
G1 X53.136 Y129.629 E1853.2328
G1 X53.099 Y130 E1853.24831
G1 X53.135 Y130.363 E1853.26347
G1 X53.244 Y130.727 E1853.27927
G1 X53.42 Y131.055 E1853.29474
G1 X53.656 Y131.344 E1853.31026
G1 X53.945 Y131.58 E1853.32577
G1 X54.273 Y131.756 E1853.34125
G1 X54.63 Y131.864 E1853.35675
G1 X55 Y131.9 E1853.37221
G0 F7800 X54.961 Y132.298
G0 X55 Y132.302
; TYPE:WALL-INNER
G1 F1080 X55.449 Y132.258 E1853.39096
G1 X55.882 Y132.127 E1853.40977
G1 X56.279 Y131.915 E1853.42848
G1 X56.629 Y131.628 E1853.4473
G1 X56.916 Y131.278 E1853.46612
G1 X57.128 Y130.881 E1853.48483
G1 X57.259 Y130.449 E1853.5036
G1 X57.303 Y130.008 E1853.52202
G1 X57.26 Y129.551 E1853.54111
G1 X57.128 Y129.118 E1853.55993
G1 X56.916 Y128.721 E1853.57864
G1 X56.629 Y128.371 E1853.59746
G1 X56.279 Y128.084 E1853.61627
G1 X55.882 Y127.872 E1853.63499
G1 X55.45 Y127.741 E1853.65375
G1 X55 Y127.696 E1853.67256
G1 X54.551 Y127.741 E1853.69132
G1 X54.119 Y127.872 E1853.71009
G1 X53.722 Y128.084 E1853.7288
G1 X53.372 Y128.371 E1853.74761
G1 X53.085 Y128.721 E1853.76643
G1 X52.873 Y129.118 E1853.78514
G1 X52.742 Y129.55 E1853.80391
G1 X52.697 Y130 E1853.82271
G1 X52.741 Y130.441 E1853.84114
G1 X52.873 Y130.88 E1853.8602
G1 X53.085 Y131.278 E1853.87895
G1 X53.372 Y131.628 E1853.89776
G1 X53.722 Y131.915 E1853.91658
G1 X54.119 Y132.127 E1853.93529
G1 X54.552 Y132.258 E1853.9541
G1 X55 Y132.302 E1853.97282
G0 F7800 X56.03 Y132.5
G1 F1080 X56.502 Y132.374 E1853.99313
G0 F7800 X56.502 Y132.249
G1 F1080 X56.914 Y131.913 E1854.01523
G1 X57.25 Y131.501 E1854.03733
G1 X57.499 Y131.035 E1854.0593
G1 X57.653 Y130.528 E1854.08133
G1 X57.705 Y130.009 E1854.10301
G1 X57.654 Y129.474 E1854.12536
G1 X57.499 Y128.964 E1854.14752
G1 X57.25 Y128.498 E1854.16949
G1 X56.914 Y128.086 E1854.19159
G1 X56.502 Y127.75 E1854.21369
G1 X56.036 Y127.501 E1854.23566
G1 X55.529 Y127.347 E1854.25769
G1 X55 Y127.294 E1854.27979
G1 X54.472 Y127.347 E1854.30185
G1 X53.965 Y127.501 E1854.32388
G1 X53.499 Y127.75 E1854.34585
G1 X53.087 Y128.086 E1854.36795
G1 X52.751 Y128.498 E1854.39005
G0 F7800 X52.626 Y128.498
G1 F1080 X52.502 Y128.964 E1854.4101
G0 F7800 X52.502 Y128.499
G1 F1080 X52.501 Y103.499 E1855.44948
G1 X56 Y103.499 E1855.59495
G1 X56.001 Y96.5 E1855.88594
G1 X52.501 Y96.5 E1856.03145
G1 X52.501 Y71.502 E1857.07075
G0 F7800 X52.626 Y71.502
G1 F1080 X52.501 Y71.033 E1857.09093
G0 F7800 X52.751 Y71.502
G1 F1080 X53.087 Y71.914 E1857.11303
G1 X53.499 Y72.25 E1857.13513
G1 X53.965 Y72.499 E1857.1571
G1 X54.473 Y72.654 E1857.17918
G1 X55 Y72.705 E1857.20119
G1 X55.527 Y72.654 E1857.22321
G1 X56.036 Y72.499 E1857.24533
G1 X56.502 Y72.25 E1857.26729
G1 X56.914 Y71.914 E1857.2894
G1 X57.25 Y71.502 E1857.3115
G1 X57.499 Y71.036 E1857.33347
G1 X57.653 Y70.529 E1857.35549
G1 X57.706 Y69.999 E1857.37764
G1 X57.653 Y69.472 E1857.39966
G1 X57.499 Y68.965 E1857.42169
G1 X57.25 Y68.499 E1857.44366
G1 X56.914 Y68.087 E1857.46576
G1 X56.502 Y67.751 E1857.48786
G0 F7800 X56.501 Y67.626
G1 F1080 X56.036 Y67.502 E1857.50787
G0 F7800 X56.501 Y67.502
G1 F1080 X98.086 Y67.502 E1859.23677
G0 F7800 X98.086 Y67.594
G1 F1080 X98.316 Y67.501 E1859.24709
G0 F7800 X98.087 Y67.687
G1 F1080 X97.751 Y68.099 E1859.26919
G1 X97.502 Y68.565 E1859.29116
G1 X97.347 Y69.074 E1859.31328
G1 X97.296 Y69.601 E1859.33529
G1 X97.347 Y70.128 E1859.3573
G1 X97.502 Y70.636 E1859.37938
G0 F7800 X97.502 Y70.818
G1 F1080 X97.696 Y71 E1859.39044
G0 F7800 X97.502 Y71
G1 F1080 X64.001 Y71 E1860.78325
G1 X64.001 Y128.75 E1863.18422
G1 X97.502 Y128.75 E1864.57703
G0 F7800 X97.502 Y128.857
G1 F1080 X97.616 Y128.75 E1864.58353
G0 F7800 X97.502 Y128.964
G1 F1080 X97.347 Y129.473 E1864.60565
G1 X97.296 Y130 E1864.62766
G1 X97.347 Y130.527 E1864.64968
G1 X97.502 Y131.035 E1864.67176
G1 X97.751 Y131.501 E1864.69372
G1 X98.087 Y131.913 E1864.71583
G1 X98.499 Y132.249 E1864.73793
G0 F7800 X98.499 Y132.373
G1 F1080 X98.965 Y132.498 E1864.75799
G0 F7800 X98.5 Y132.498
G1 F1080 X56.503 Y132.499 E1866.50402
G0 F7800 X64.401 Y127.95
G0 X64.801 Y127.95
; TYPE:WALL-OUTER
G1 F1080 X141.7 Y127.95 E1869.70111
G1 X141.7 Y71.8 E1872.03556
G1 X64.801 Y71.8 E1875.23264
G1 X64.801 Y127.95 E1877.56709
G1 F1800 E1876.56709
G0 F7800 X64.401 Y127.95
G0 X64.401 Y128.35
G0 X98.085 Y128.35
; TYPE:WALL-INNER
G1 F1800 E1877.56709
G1 F1080 X64.401 Y128.35 E1878.96751
G1 X64.401 Y71.4 E1881.33521
G1 X98.372 Y71.4 E1882.74756
G0 F7800 X98.372 Y71.314
G1 F1080 X98.581 Y71.4 E1882.75696
G0 F7800 X98.372 Y71.229
G1 F1080 X98.085 Y70.879 E1882.77578
G1 X97.873 Y70.482 E1882.79449
G1 X97.742 Y70.049 E1882.8133
G1 X97.698 Y69.601 E1882.83201
G1 X97.742 Y69.152 E1882.85077
G1 X97.873 Y68.719 E1882.86958
G1 X98.085 Y68.322 E1882.88829
G1 X98.372 Y67.972 E1882.90711
G1 X98.722 Y67.685 E1882.92592
G1 X99.119 Y67.473 E1882.94464
G1 X99.552 Y67.342 E1882.96344
G1 X100 Y67.298 E1882.98216
G1 X100.448 Y67.342 E1883.00087
G1 X100.881 Y67.473 E1883.01968
G1 X101.278 Y67.685 E1883.03839
G1 X101.628 Y67.972 E1883.05721
G1 X101.915 Y68.322 E1883.07603
G1 X102.127 Y68.719 E1883.09474
G1 X102.258 Y69.152 E1883.11355
G1 X102.302 Y69.601 E1883.13231
G1 X102.258 Y70.049 E1883.15102
G1 X102.127 Y70.482 E1883.16983
G1 X101.915 Y70.879 E1883.18854
G1 X101.628 Y71.229 E1883.20736
G0 F7800 X101.628 Y71.314
G1 F1080 X101.419 Y71.4 E1883.21675
G0 F7800 X101.628 Y71.4
G1 F1080 X142.1 Y71.4 E1884.89938
G1 X142.1 Y128.35 E1887.26709
G1 X101.915 Y128.35 E1888.93779
G0 F7800 X101.915 Y128.535
G1 F1080 X101.602 Y128.35 E1888.9529
G0 F7800 X101.628 Y128.371
G0 X101.915 Y128.721
G1 F1080 X102.127 Y129.118 E1888.97162
G1 X102.258 Y129.551 E1888.99042
G1 X102.302 Y130 E1889.00918
G1 X102.258 Y130.448 E1889.0279
G1 X102.127 Y130.881 E1889.0467
G1 X101.915 Y131.278 E1889.06541
G1 X101.628 Y131.628 E1889.08423
G1 X101.278 Y131.915 E1889.10305
G1 X100.881 Y132.127 E1889.12176
G1 X100.448 Y132.258 E1889.14057
G1 X100 Y132.302 E1889.15928
G1 X99.552 Y132.258 E1889.178
G1 X99.119 Y132.127 E1889.19681
G1 X98.722 Y131.915 E1889.21552
G1 X98.372 Y131.628 E1889.23434
G1 X98.085 Y131.278 E1889.25315
G1 X97.873 Y130.881 E1889.27187
G1 X97.742 Y130.448 E1889.29067
G1 X97.698 Y130 E1889.30939
G1 X97.742 Y129.551 E1889.32815
G1 X97.873 Y129.118 E1889.34695
G1 X98.085 Y128.721 E1889.36567
G0 F7800 X98.085 Y128.535
G1 F1080 X98.398 Y128.35 E1889.38078
G0 F7800 X98.372 Y128.371
G0 X98.085 Y128.721
G0 X97.873 Y129.118
G0 X97.742 Y129.551
G0 X97.698 Y130
G0 X97.742 Y130.448
G0 X97.873 Y130.881
G0 X98.085 Y131.278
G0 X98.372 Y131.628
G0 X98.722 Y131.915
G0 X99.119 Y132.127
G0 X99.552 Y132.258
G0 X99.961 Y132.298
G0 X100 Y131.9
; TYPE:WALL-OUTER
G1 F1080 X100.37 Y131.864 E1889.39624
G1 X100.727 Y131.756 E1889.41174
G1 X101.055 Y131.58 E1889.42722
G1 X101.344 Y131.344 E1889.44273
G1 X101.58 Y131.055 E1889.45824
G1 X101.756 Y130.727 E1889.47372
G1 X101.864 Y130.37 E1889.48923
G1 X101.9 Y130 E1889.50468
G1 X101.864 Y129.629 E1889.52018
G1 X101.756 Y129.272 E1889.53569
G1 X101.58 Y128.944 E1889.55116
G1 X101.344 Y128.655 E1889.56667
G1 X101.055 Y128.419 E1889.58219
G1 X100.727 Y128.243 E1889.59766
G1 X100.37 Y128.135 E1889.61317
G1 X100 Y128.099 E1889.62862
G1 X99.63 Y128.135 E1889.64408
G1 X99.273 Y128.243 E1889.65959
G1 X98.945 Y128.419 E1889.67506
G1 X98.656 Y128.655 E1889.69057
G1 X98.42 Y128.944 E1889.70609
G1 X98.244 Y129.272 E1889.72156
G1 X98.136 Y129.629 E1889.73707
G1 X98.1 Y130 E1889.75257
G1 X98.136 Y130.37 E1889.76802
G1 X98.244 Y130.727 E1889.78353
G1 X98.42 Y131.055 E1889.799
G1 X98.656 Y131.344 E1889.81452
G1 X98.945 Y131.58 E1889.83003
G1 X99.273 Y131.756 E1889.8455
G1 X99.63 Y131.864 E1889.86101
G1 X100 Y131.9 E1889.87647
G1 F1800 E1888.87647
G0 F7800 X99.961 Y132.298
G0 X100 Y132.302
G0 X142.697 Y130
; TYPE:WALL-INNER
G1 F1800 E1889.87647
G1 F1080 X142.741 Y130.448 E1889.89518
G1 X142.872 Y130.881 E1889.91399
G1 X143.084 Y131.278 E1889.9327
G1 X143.371 Y131.628 E1889.95152
G1 X143.721 Y131.915 E1889.97034
G1 X144.118 Y132.127 E1889.98905
G1 X144.551 Y132.258 E1890.00786
G1 X144.999 Y132.302 E1890.02657
G1 X145.448 Y132.258 E1890.04533
G1 X145.881 Y132.127 E1890.06414
G1 X146.278 Y131.915 E1890.08285
G1 X146.628 Y131.628 E1890.10167
G1 X146.915 Y131.278 E1890.12048
G1 X147.127 Y130.881 E1890.13919
G1 X147.258 Y130.448 E1890.158
G1 X147.302 Y130 E1890.17672
G1 X147.258 Y129.551 E1890.19547
G1 X147.127 Y129.118 E1890.21428
G1 X146.915 Y128.721 E1890.23299
G1 X146.628 Y128.371 E1890.25181
G1 X146.278 Y128.084 E1890.27063
G1 X145.881 Y127.872 E1890.28934
G1 X145.448 Y127.741 E1890.30815
G1 X144.999 Y127.697 E1890.32691
G1 X144.551 Y127.741 E1890.34562
G1 X144.118 Y127.872 E1890.36443
G1 X143.721 Y128.084 E1890.38314
G1 X143.371 Y128.371 E1890.40196
G1 X143.084 Y128.721 E1890.42078
G1 X142.872 Y129.118 E1890.43949
G1 X142.741 Y129.551 E1890.45829
G1 X142.697 Y130 E1890.47705
G0 F7800 X142.501 Y128.964
G1 F1080 X142.346 Y129.473 E1890.49917
G1 X142.295 Y130 E1890.52119
G1 X142.346 Y130.527 E1890.5432
G1 X142.501 Y131.035 E1890.56528
G1 X142.75 Y131.501 E1890.58725
G1 X143.086 Y131.913 E1890.60935
G1 X143.498 Y132.249 E1890.63145
G0 F7800 X143.498 Y132.373
G1 F1080 X143.964 Y132.498 E1890.65151
G0 F7800 X143.499 Y132.498
G1 F1080 X101.502 Y132.498 E1892.39754
G0 F7800 X101.501 Y132.373
G1 F1080 X101.03 Y132.499 E1892.41781
G0 F7800 X101.501 Y132.249
G1 F1080 X101.913 Y131.913 E1892.43992
G1 X102.249 Y131.501 E1892.46202
G1 X102.498 Y131.035 E1892.48399
G1 X102.653 Y130.527 E1892.50607
G1 X102.704 Y130 E1892.52808
G1 X102.653 Y129.473 E1892.55009
G1 X102.498 Y128.964 E1892.57221
G0 F7800 X102.498 Y128.857
G1 F1080 X102.384 Y128.75 E1892.57871
G0 F7800 X102.498 Y128.75
G1 F1080 X142.5 Y128.75 E1894.2418
G0 F7800 X142.545 Y128.774
G1 F1080 X142.625 Y128.498 E1894.2568
G0 F7800 X142.5 Y128.498
G1 F1080 X142.5 Y71.501 E1896.62646
G0 F7800 X142.624 Y71.501
G1 F1080 X142.5 Y71.031 E1896.64667
G0 F7800 X142.749 Y71.501
G1 F1080 X143.086 Y71.914 E1896.66883
G1 X143.498 Y72.25 E1896.69093
G1 X143.964 Y72.499 E1896.7129
G1 X144.471 Y72.653 E1896.73493
G1 X145 Y72.706 E1896.75703
G1 X145.528 Y72.653 E1896.77909
G1 X146.035 Y72.499 E1896.80112
G1 X146.501 Y72.25 E1896.82309
G1 X146.913 Y71.914 E1896.84519
G1 X147.249 Y71.502 E1896.86729
G0 F7800 X147.373 Y71.501
G1 F1080 X147.498 Y71.036 E1896.88731
G0 F7800 X147.498 Y71.501
G1 F1080 X147.499 Y128.497 E1899.25693
G0 F7800 X147.374 Y128.497
G1 F1080 X147.5 Y128.971 E1899.27732
G0 F7800 X147.249 Y128.498
G1 F1080 X146.913 Y128.086 E1899.29942
G1 X146.501 Y127.75 E1899.32153
G1 X146.035 Y127.501 E1899.34349
G1 X145.526 Y127.346 E1899.36561
G1 X144.999 Y127.295 E1899.38763
G1 X144.472 Y127.346 E1899.40964
G1 X143.964 Y127.501 E1899.43172
G1 X143.498 Y127.75 E1899.45369
G1 X143.086 Y128.086 E1899.47579
G1 X142.75 Y128.498 E1899.49789
G0 F7800 X142.545 Y128.648
G1 F1080 X142.5 Y128.857 E1899.51154
G0 F7800 X142.741 Y130.448
G0 X142.872 Y130.881
G0 X143.084 Y131.278
G0 X143.371 Y131.628
G0 X143.721 Y131.915
G0 X144.118 Y132.127
G0 X144.551 Y132.258
G0 X144.96 Y132.298
G0 X144.999 Y131.9
; TYPE:WALL-OUTER
G1 F1080 X145.37 Y131.864 E1899.52703
G1 X145.727 Y131.756 E1899.54254
G1 X146.055 Y131.58 E1899.55802
G1 X146.344 Y131.344 E1899.57353
G1 X146.58 Y131.055 E1899.58904
G1 X146.756 Y130.727 E1899.60452
G1 X146.864 Y130.37 E1899.62002
G1 X146.9 Y130 E1899.63548
G1 X146.864 Y129.629 E1899.65098
G1 X146.756 Y129.272 E1899.66648
G1 X146.58 Y128.944 E1899.68196
G1 X146.344 Y128.655 E1899.69747
G1 X146.055 Y128.419 E1899.71298
G1 X145.727 Y128.243 E1899.72846
G1 X145.37 Y128.135 E1899.74397
G1 X144.999 Y128.099 E1899.75946
G1 X144.629 Y128.135 E1899.77492
G1 X144.272 Y128.243 E1899.79042
G1 X143.944 Y128.419 E1899.8059
G1 X143.655 Y128.655 E1899.82141
G1 X143.419 Y128.944 E1899.83693
G1 X143.243 Y129.272 E1899.8524
G1 X143.135 Y129.629 E1899.86791
G1 X143.099 Y130 E1899.8834
G1 X143.135 Y130.37 E1899.89886
G1 X143.243 Y130.727 E1899.91437
G1 X143.419 Y131.055 E1899.92984
G1 X143.655 Y131.344 E1899.94535
G1 X143.944 Y131.58 E1899.96087
G1 X144.272 Y131.756 E1899.97634
G1 X144.629 Y131.864 E1899.99185
G1 X144.999 Y131.9 E1900.00731
G1 F1800 E1899.00731
G0 F7800 X144.96 Y132.298
G0 X144.551 Y132.258
G0 X144.118 Y132.127
G0 X143.721 Y131.915
G0 X143.371 Y131.628
G0 X143.084 Y131.278
G0 X142.872 Y130.881
G0 X142.741 Y130.448
G0 X142.697 Y130
G0 X145 Y72.304
; TYPE:WALL-INNER
G1 F1800 E1900.00731
G1 F1080 X145.449 Y72.259 E1900.02607
G1 X145.881 Y72.128 E1900.04483
G1 X146.278 Y71.916 E1900.06355
G1 X146.628 Y71.629 E1900.08236
G1 X146.915 Y71.279 E1900.10118
G1 X147.127 Y70.882 E1900.11989
G1 X147.258 Y70.45 E1900.13866
G1 X147.302 Y70.009 E1900.15709
G1 X147.259 Y69.552 E1900.17617
G1 X147.127 Y69.119 E1900.19499
G1 X146.915 Y68.722 E1900.2137
G1 X146.628 Y68.372 E1900.23252
G1 X146.278 Y68.085 E1900.25134
G1 X145.881 Y67.873 E1900.27005
G1 X145.448 Y67.742 E1900.28886
G1 X145 Y67.698 E1900.30757
G1 X144.551 Y67.742 E1900.32633
G1 X144.118 Y67.873 E1900.34514
G1 X143.721 Y68.085 E1900.36385
G1 X143.371 Y68.372 E1900.38267
G1 X143.084 Y68.722 E1900.40148
G1 X142.872 Y69.119 E1900.42019
G1 X142.741 Y69.551 E1900.43896
G1 X142.696 Y70 E1900.45772
G1 X142.741 Y70.45 E1900.47653
G1 X142.87 Y70.874 E1900.49495
G1 X143.084 Y71.278 E1900.51396
G1 X143.371 Y71.629 E1900.53281
G1 X143.721 Y71.916 E1900.55163
G1 X144.118 Y72.128 E1900.57034
G1 X144.55 Y72.259 E1900.58911
G1 X145 Y72.304 E1900.60791
G0 F7800 X144.961 Y72.3
G0 X145 Y71.902
; TYPE:WALL-OUTER
G1 F1080 X145.37 Y71.865 E1900.62337
G1 X145.727 Y71.757 E1900.63887
G1 X146.055 Y71.581 E1900.65435
G1 X146.344 Y71.345 E1900.66986
G1 X146.58 Y71.056 E1900.68537
G1 X146.756 Y70.728 E1900.70085
G1 X146.864 Y70.371 E1900.71636
G1 X146.9 Y70.008 E1900.73152
G1 X146.864 Y69.63 E1900.74731
G1 X146.756 Y69.273 E1900.76282
G1 X146.58 Y68.945 E1900.77829
G1 X146.344 Y68.656 E1900.7938
G1 X146.055 Y68.42 E1900.80932
G1 X145.727 Y68.244 E1900.82479
G1 X145.37 Y68.136 E1900.8403
G1 X145 Y68.1 E1900.85576
G1 X144.629 Y68.136 E1900.87125
G1 X144.272 Y68.244 E1900.88676
G1 X143.944 Y68.42 E1900.90223
G1 X143.655 Y68.656 E1900.91775
G1 X143.419 Y68.945 E1900.93326
G1 X143.243 Y69.273 E1900.94873
G1 X143.135 Y69.63 E1900.96424
G1 X143.098 Y70 E1900.9797
G1 X143.135 Y70.371 E1900.9952
G1 X143.241 Y70.721 E1901.01041
G1 X143.419 Y71.056 E1901.02618
G1 X143.655 Y71.345 E1901.04169
G1 X143.944 Y71.581 E1901.0572
G1 X144.272 Y71.757 E1901.07268
G1 X144.629 Y71.865 E1901.08819
G1 X145 Y71.902 E1901.10369
G1 F1800 E1900.10369
G0 F7800 X144.961 Y72.3
G0 X142.1 Y72.225
G0 X142.1 Y71.4
G0 X100 Y67.298
G0 X57.304 Y69.999
; TYPE:WALL-INNER
G1 F1800 E1901.10369
G1 F1080 X57.259 Y69.551 E1901.12241
G1 X57.128 Y69.119 E1901.14117
G1 X56.916 Y68.722 E1901.15988
G1 X56.629 Y68.372 E1901.1787
G1 X56.279 Y68.085 E1901.19752
G1 X55.882 Y67.873 E1901.21623
G1 X55.449 Y67.742 E1901.23504
G1 X55 Y67.698 E1901.2538
G1 X54.552 Y67.742 E1901.27251
G1 X54.119 Y67.873 E1901.29132
G1 X53.722 Y68.085 E1901.31003
G1 X53.372 Y68.372 E1901.32885
G1 X53.085 Y68.721 E1901.34763
G1 X52.877 Y69.112 E1901.36605
G1 X52.742 Y69.55 E1901.3851
G1 X52.697 Y70.001 E1901.40395
G1 X52.742 Y70.45 E1901.42271
G1 X52.873 Y70.882 E1901.44148
G1 X53.085 Y71.279 E1901.46019
G1 X53.372 Y71.629 E1901.479
G1 X53.722 Y71.916 E1901.49782
G1 X54.119 Y72.128 E1901.51653
G1 X54.552 Y72.259 E1901.53534
G1 X55 Y72.303 E1901.55406
G1 X55.449 Y72.259 E1901.57281
G1 X55.882 Y72.128 E1901.59162
G1 X56.279 Y71.916 E1901.61033
G1 X56.629 Y71.629 E1901.62915
G1 X56.916 Y71.279 E1901.64797
G1 X57.128 Y70.882 E1901.66668
G1 X57.259 Y70.45 E1901.68545
G1 X57.304 Y69.999 E1901.70429
G0 F7800 X57.259 Y70.45
G0 X57.128 Y70.882
G0 X56.916 Y71.279
G0 X56.629 Y71.629
G0 X56.279 Y71.916
G0 X55.882 Y72.128
G0 X55.449 Y72.259
G0 X55 Y72.303
G0 X54.961 Y72.299
G0 X55 Y71.901
; TYPE:WALL-OUTER
G1 F1080 X55.371 Y71.865 E1901.71979
G1 X55.728 Y71.757 E1901.73529
G1 X56.056 Y71.581 E1901.75077
G1 X56.345 Y71.345 E1901.76628
G1 X56.581 Y71.056 E1901.7818
G1 X56.757 Y70.728 E1901.79727
G1 X56.865 Y70.371 E1901.81278
G1 X56.902 Y69.999 E1901.82832
G1 X56.865 Y69.63 E1901.84374
G1 X56.757 Y69.273 E1901.85925
G1 X56.581 Y68.945 E1901.87472
G1 X56.345 Y68.656 E1901.89023
G1 X56.056 Y68.42 E1901.90575
G1 X55.728 Y68.244 E1901.92122
G1 X55.371 Y68.136 E1901.93673
G1 X55 Y68.1 E1901.95223
G1 X54.63 Y68.136 E1901.96768
G1 X54.273 Y68.244 E1901.98319
G1 X53.945 Y68.42 E1901.99866
G1 X53.656 Y68.656 E1902.01418
G1 X53.42 Y68.944 E1902.02966
G1 X53.248 Y69.267 E1902.04487
G1 X53.136 Y69.629 E1902.06062
G1 X53.099 Y70.001 E1902.07617
G1 X53.136 Y70.371 E1902.09163
G1 X53.244 Y70.728 E1902.10713
G1 X53.42 Y71.056 E1902.12261
G1 X53.656 Y71.345 E1902.13812
G1 X53.945 Y71.581 E1902.15363
G1 X54.273 Y71.757 E1902.16911
G1 X54.63 Y71.865 E1902.18462
G1 X55 Y71.901 E1902.20007
G0 F7800 X54.961 Y72.299
G0 X54.552 Y72.259
G0 X54.119 Y72.128
G0 X53.722 Y71.916
G0 X53.372 Y71.629
G0 X53.085 Y71.279
G0 X52.873 Y70.882
G0 X52.742 Y70.45
G0 X52.501 Y68.974
; TYPE:WALL-INNER
G1 F1080 X52.626 Y68.498 E1902.22053
G0 F7800 X52.501 Y68.498
G1 F1080 X52.501 Y67.851 E1902.24743
G1 X52.518 Y67.777 E1902.25059
G1 X52.549 Y67.734 E1902.25279
G1 X52.692 Y67.634 E1902.26005
G1 X52.941 Y67.545 E1902.27104
G1 X53.313 Y67.501 E1902.28661
G1 X53.499 Y67.501 E1902.29435
G0 F7800 X53.499 Y67.626
G1 F1080 X53.968 Y67.501 E1902.31453
G0 F7800 X53.499 Y67.751
G1 F1080 X53.087 Y68.087 E1902.33663
G1 X52.751 Y68.498 E1902.3587
G1 F1800 E1901.3587
G0 F7800 X52.697 Y70.001
G0 X52.218 Y96.9
G0 X55.601 Y96.9
G0 X55.6 Y103.099
G0 X52.101 Y103.099
G0 X51.8 Y102.699
; TYPE:WALL-OUTER
G1 F1800 E1902.3587
G1 F1080 X55.2 Y102.699 E1902.50006
G1 X55.201 Y97.3 E1902.72452
G1 X51.8 Y97.3 E1902.86592
G1 X51.8 Y102.699 E1903.09038
G1 F1800 E1902.09038
G0 F7800 X52.101 Y103.099
G0 X55.6 Y103.099
G0 X64.401 Y71.4
G0 X99.552 Y67.342
G0 X100 Y67.298
G0 X100.448 Y67.342
G0 X100.881 Y67.473
G0 X101.278 Y67.685
G0 X101.628 Y67.972
G0 X101.915 Y68.322
G0 X102.127 Y68.719
G0 X102.258 Y69.152
G0 X102.302 Y69.601
G0 X102.304 Y71
; TYPE:WALL-INNER
G1 F1800 E1903.09038
G1 F1080 X102.498 Y70.818 E1903.10144
G0 F7800 X102.498 Y70.636
G1 F1080 X102.653 Y70.128 E1903.12352
G1 X102.704 Y69.601 E1903.14553
G1 X102.653 Y69.074 E1903.16755
G1 X102.498 Y68.565 E1903.18967
G1 X102.249 Y68.099 E1903.21163
G1 X101.913 Y67.687 E1903.23374
G0 F7800 X101.913 Y67.593
G1 F1080 X101.684 Y67.5 E1903.24401
G0 F7800 X101.913 Y67.5
G1 F1080 X143.498 Y67.5 E1904.97292
G0 F7800 X143.498 Y67.625
G1 F1080 X143.97 Y67.5 E1904.99322
G0 F7800 X143.498 Y67.751
G1 F1080 X143.086 Y68.087 E1905.01532
G1 X142.75 Y68.499 E1905.03742
G1 X142.501 Y68.965 E1905.05939
G1 X142.347 Y69.472 E1905.08142
G1 X142.294 Y70 E1905.10348
G1 X142.347 Y70.529 E1905.12558
G1 X142.49 Y71 E1905.14605
G1 X102.498 Y71 E1906.80872
G0 F7800 X102.258 Y69.152
G0 X102.127 Y68.719
G0 X101.915 Y68.322
G0 X101.628 Y67.972
G0 X101.278 Y67.685
G0 X100.881 Y67.473
G0 X100.448 Y67.342
G0 X100 Y67.298
G0 X99.552 Y67.342
G0 X99.119 Y67.473
G0 X98.722 Y67.685
G0 X98.372 Y67.972
G0 X98.085 Y68.322
G0 X97.873 Y68.719
G0 X97.742 Y69.152
G0 X97.698 Y69.601
G0 X97.742 Y70.049
G0 X97.873 Y70.482
G0 X98.085 Y70.879
G0 X98.372 Y71.229
G0 X98.581 Y71.4
G0 X100 Y71.502
; TYPE:WALL-OUTER
G1 F1080 X100.37 Y71.465 E1906.82418
G1 X100.727 Y71.357 E1906.83969
G1 X101.055 Y71.181 E1906.85516
G1 X101.344 Y70.945 E1906.87068
G1 X101.58 Y70.656 E1906.88619
G1 X101.756 Y70.328 E1906.90167
G1 X101.864 Y69.971 E1906.91717
G1 X101.9 Y69.601 E1906.93263
G1 X101.864 Y69.23 E1906.94812
G1 X101.756 Y68.873 E1906.96363
G1 X101.58 Y68.545 E1906.97911
G1 X101.344 Y68.256 E1906.99462
G1 X101.055 Y68.02 E1907.01013
